; generated by PrusaSlicer 2.3.3+win64 on 2022-07-22 at 13:50:11 UTC

; 

; external perimeters extrusion width = 0.45mm
; perimeters extrusion width = 0.45mm
; infill extrusion width = 0.45mm
; solid infill extrusion width = 0.45mm
; top infill extrusion width = 0.40mm
; first layer extrusion width = 0.60mm

M107
;TYPE:Custom
; Start GCode
;-----------------------
G21 ; set units to millimeters
G90 ; use absolute coordinates
G28 ; home all axes
M109 S200 ; wait for temperature to be reached
G92 E0 ; Zero Extrude Length
G1 F80 E4 ; Duese reinigen
G92 E0 ; Zero Extrude Length
;-----------------------
G21 ; set units to millimeters
G90 ; use absolute coordinates
M83 ; use relative distances for extrusion
; Filament gcode
;LAYER_CHANGE
;Z:0.3
;HEIGHT:0.3
G1 Z0.300 F7800.000
G1 E-1.00000 F600.000
G1 X43.290 Y31.300 F7800.000
G1 E1.00000 F600.000
;TYPE:External perimeter
;WIDTH:0.6
G1 F1800.000
G1 X43.403 Y30.971 E0.02324
G1 X43.583 Y30.689 E0.02233
G1 X43.860 Y30.555 E0.02057
G1 X44.086 Y30.548 E0.01511
G1 X44.297 Y30.611 E0.01473
G1 X44.554 Y30.742 E0.01923
G1 X44.729 Y30.913 E0.01636
G1 X45.150 Y31.661 E0.05735
G1 X45.407 Y32.473 E0.05688
G1 X45.461 Y32.563 E0.00700
G1 X45.551 Y32.608 E0.00678
G1 X46.811 Y32.922 E0.08669
G1 X47.101 Y33.022 E0.02054
G1 X47.291 Y33.127 E0.01448
G1 X47.522 Y33.335 E0.02076
G1 X47.652 Y33.522 E0.01522
G1 X47.733 Y33.726 E0.01467
G1 X47.755 Y33.936 E0.01409
G1 X47.730 Y34.147 E0.01423
G1 X47.563 Y34.510 E0.02665
G1 X47.296 Y34.727 E0.02304
G1 X46.950 Y34.844 E0.02439
G1 X46.725 Y34.833 E0.01505
G1 X46.512 Y34.754 E0.01516
G1 X46.376 Y34.649 E0.01149
G1 X45.971 Y34.539 E0.02799
G1 X45.762 Y34.626 E0.01512
G1 X45.863 Y34.988 E0.02509
G1 X45.944 Y35.111 E0.00983
G1 X46.004 Y35.276 E0.01177
G1 X46.046 Y35.575 E0.02017
G1 X46.001 Y35.822 E0.01674
G1 X45.911 Y36.015 E0.01424
G1 X45.742 Y36.175 E0.01553
G1 X45.519 Y36.248 E0.01568
G1 X45.017 Y36.233 E0.03352
G1 X44.716 Y36.060 E0.02318
G1 X44.544 Y36.212 E0.01532
G1 X44.676 Y36.535 E0.02333
G1 X44.728 Y36.804 E0.01835
G1 X44.807 Y37.026 E0.01571
G1 X44.796 Y37.304 E0.01857
G1 X44.729 Y37.574 E0.01858
G1 X44.601 Y37.822 E0.01869
G1 X44.419 Y38.033 E0.01858
G1 X44.190 Y38.198 E0.01887
G1 X43.929 Y38.309 E0.01892
G1 X43.530 Y38.354 E0.02686
G1 X43.120 Y38.265 E0.02802
G1 X42.930 Y38.114 E0.01622
G1 X42.691 Y37.989 E0.01806
G1 X42.206 Y37.574 E0.04261
G1 X42.268 Y38.029 E0.03067
G1 X42.263 Y38.467 E0.02925
G1 X42.306 Y38.717 E0.01696
G1 X42.245 Y39.126 E0.02760
G1 X42.095 Y39.508 E0.02741
G1 X41.754 Y39.998 E0.03989
G1 X41.387 Y40.405 E0.03659
G1 X40.809 Y40.969 E0.05396
G1 X40.522 Y41.316 E0.03006
G1 X40.379 Y41.448 E0.01304
G1 X40.209 Y41.553 E0.01332
G1 X40.009 Y41.612 E0.01395
G1 X39.799 Y41.620 E0.01407
G1 X39.524 Y41.553 E0.01888
G1 X39.260 Y41.408 E0.02010
G1 X39.092 Y41.266 E0.01469
G1 X38.932 Y41.106 E0.01512
G1 X38.615 Y40.718 E0.03350
G1 X38.229 Y40.319 E0.03707
G1 X37.317 Y39.484 E0.08262
G1 X36.048 Y38.208 E0.12021
G1 X35.563 Y37.785 E0.04299
G1 X35.406 Y37.543 E0.01928
G1 X35.339 Y37.309 E0.01628
G1 X35.345 Y37.099 E0.01398
G1 X35.391 Y36.895 E0.01400
G1 X35.574 Y36.552 E0.02602
G1 X35.818 Y36.287 E0.02402
G1 X36.926 Y35.228 E0.10240
G1 X37.425 Y34.858 E0.04150
G1 X37.774 Y34.662 E0.02673
G1 X38.227 Y34.507 E0.03202
G1 X38.716 Y34.452 E0.03287
G1 X39.054 Y34.468 E0.02262
G1 X39.326 Y34.515 E0.01839
G1 X39.846 Y34.674 E0.03636
G1 X40.361 Y34.938 E0.03865
G1 X40.636 Y35.122 E0.02211
G1 X40.909 Y35.342 E0.02340
G1 X41.286 Y35.744 E0.03681
G1 X41.504 Y36.087 E0.02715
G1 X41.629 Y36.397 E0.02236
G1 X42.083 Y37.080 E0.05479
G1 X42.180 Y36.561 E0.03530
G1 X42.427 Y35.960 E0.04342
G1 X42.616 Y35.751 E0.01881
G1 X42.851 Y35.605 E0.01851
G1 X43.107 Y35.519 E0.01801
G1 X43.270 Y35.500 E0.01099
G1 X43.534 Y35.529 E0.01775
G1 X43.692 Y35.583 E0.01114
G1 X43.870 Y35.697 E0.01413
G1 X44.122 Y35.812 E0.01849
G1 X44.395 Y36.019 E0.02290
G1 X44.590 Y35.866 E0.01655
G1 X44.460 Y35.564 E0.02200
G1 X44.402 Y35.352 E0.01467
G1 X44.061 Y34.694 E0.04950
G1 X43.989 Y34.455 E0.01669
G1 X43.932 Y34.160 E0.02008
G1 X43.575 Y34.088 E0.02432
G1 X42.432 Y33.760 E0.07945
G1 X42.071 Y33.567 E0.02733
G1 X41.868 Y33.363 E0.01924
G1 X41.762 Y33.173 E0.01452
G1 X41.720 Y32.973 E0.01364
G1 X41.717 Y32.775 E0.01327
G1 X41.757 Y32.580 E0.01325
G1 X41.854 Y32.346 E0.01693
G1 X42.088 Y32.138 E0.02096
G1 X42.366 Y31.991 E0.02101
G1 X42.650 Y31.928 E0.01940
G1 X42.911 Y32.088 E0.02045
G1 X43.233 Y32.149 E0.02194
G1 X43.499 Y32.234 E0.01863
G1 X43.499 Y31.927 E0.02056
G1 X43.428 Y31.595 E0.02265
G1 X43.316 Y31.354 E0.01776
G1 X43.010 Y31.093 F7800.000
G1 E-1.00000 F600.000
G1 X47.069 Y35.935 F7800.000
G1 E1.00000 F600.000
;TYPE:Perimeter
G1 F1800.000
G1 X47.837 Y35.675 E0.05419
G1 X47.904 Y35.790 E0.00888
G1 X48.193 Y36.101 E0.02837
G1 X48.511 Y36.338 E0.02651
G1 X48.862 Y36.509 E0.02604
G1 X49.233 Y36.623 E0.02595
G1 X49.543 Y36.660 E0.02085
G1 X48.980 Y37.300 E0.05694
G1 X48.359 Y37.915 E0.05842
G1 X30.614 Y53.621 E1.58308
G1 X30.468 Y53.734 E0.01236
G1 X30.269 Y53.585 E0.01663
G1 X29.796 Y53.114 E0.04457
G1 X30.211 Y52.956 E0.02969
G1 X30.728 Y52.681 E0.03912
G1 X31.063 Y52.442 E0.02748
G1 X31.381 Y52.166 E0.02815
G1 X31.878 Y51.628 E0.04889
G1 X32.267 Y51.019 E0.04829
G1 X32.523 Y50.342 E0.04833
G1 X32.619 Y49.625 E0.04832
G1 X32.515 Y48.703 E0.06200
G1 X33.065 Y48.927 E0.03965
G1 X33.603 Y48.994 E0.03623
G1 X34.198 Y48.869 E0.04067
G1 X34.626 Y48.654 E0.03197
G1 X34.941 Y48.404 E0.02687
G1 X35.227 Y48.096 E0.02808
G1 X35.497 Y47.609 E0.03719
G1 X35.616 Y47.117 E0.03381
G1 X35.610 Y46.660 E0.03054
G1 X35.512 Y46.222 E0.03000
G1 X35.296 Y45.779 E0.03293
G1 X35.698 Y45.954 E0.02931
G1 X36.261 Y46.033 E0.03796
G1 X36.819 Y45.984 E0.03743
G1 X37.344 Y45.821 E0.03672
G1 X37.928 Y45.504 E0.04439
G1 X38.495 Y45.056 E0.04828
G1 X39.010 Y44.504 E0.05044
G1 X39.389 Y43.913 E0.04690
G1 X39.610 Y43.366 E0.03943
G1 X39.736 Y42.694 E0.04569
G1 X40.182 Y42.678 E0.02984
G1 X40.652 Y42.540 E0.03271
G1 X41.031 Y42.304 E0.02982
G1 X41.302 Y42.053 E0.02468
G1 X41.598 Y41.696 E0.03101
G1 X42.160 Y41.147 E0.05244
G1 X42.594 Y40.665 E0.04338
G1 X43.046 Y40.017 E0.05279
G1 X43.288 Y39.398 E0.04438
G1 X43.476 Y39.439 E0.01280
G1 X44.204 Y39.355 E0.04898
G1 X44.719 Y39.138 E0.03733
G1 X45.149 Y38.828 E0.03541
G1 X45.495 Y38.426 E0.03545
G1 X45.738 Y37.954 E0.03548
G1 X45.862 Y37.456 E0.03424
G1 X45.870 Y37.260 E0.01314
G1 X46.303 Y37.118 E0.03041
G1 X46.796 Y36.653 E0.04532
G1 X47.030 Y36.149 E0.03712
G1 X47.058 Y35.994 E0.01051
G1 E-1.00000 F600.000
G1 X34.124 Y43.566 F7800.000
G1 E1.00000 F600.000
G1 F1800.000
G1 X34.085 Y43.706 E0.00972
G1 X34.137 Y44.550 E0.05653
G1 X32.943 Y43.358 E0.11271
G1 X33.135 Y43.068 E0.02322
G1 X33.239 Y42.804 E0.01895
G1 X33.684 Y43.306 E0.04481
G1 X34.072 Y43.535 E0.03014
G1 E-1.00000 F600.000
G1 X31.114 Y47.290 F7800.000
G1 E1.00000 F600.000
G1 F1800.000
G1 X30.419 Y47.278 E0.04643
G1 X30.017 Y47.350 E0.02727
G1 X29.257 Y47.635 E0.05423
G1 X29.558 Y47.044 E0.04433
G1 X29.565 Y46.581 E0.03093
G1 X30.099 Y46.288 E0.04065
G1 X31.071 Y47.248 E0.09129
G1 E-1.00000 F600.000
G1 X28.792 Y48.208 F7800.000
G1 E1.00000 F600.000
G1 F1800.000
G1 X28.535 Y48.661 E0.03475
G1 X28.468 Y48.983 E0.02197
G1 X28.176 Y48.721 E0.02616
G1 X27.964 Y48.484 E0.02126
G1 X28.735 Y48.227 E0.05423
G1 X28.835 Y49.607 F7800.000
G1 F1800.000
G1 X28.738 Y49.653 E0.00717
G1 X28.621 Y49.676 E0.00796
G1 X28.407 Y49.589 E0.01543
G1 X28.162 Y49.428 E0.01956
G1 X27.796 Y49.100 E0.03285
G1 X27.562 Y48.837 E0.02350
G1 X27.418 Y48.640 E0.01633
G1 X27.299 Y48.390 E0.01852
G1 X27.282 Y48.277 E0.00763
G1 X27.304 Y48.202 E0.00521
G1 X27.362 Y48.085 E0.00874
G1 X27.761 Y47.987 E0.02743
G1 X28.173 Y47.850 E0.02899
G1 X28.618 Y47.548 E0.03594
G1 X28.835 Y47.283 E0.02287
G1 X29.024 Y46.911 E0.02787
G1 X29.037 Y46.160 E0.05019
G1 X29.389 Y46.066 E0.02439
G1 X29.752 Y45.867 E0.02763
G1 X30.096 Y45.532 E0.03207
G1 X32.142 Y47.552 E0.19210
G1 X32.558 Y48.033 E0.04247
G1 X32.873 Y48.271 E0.02637
G1 X33.201 Y48.404 E0.02368
G1 X33.580 Y48.452 E0.02554
G1 X34.020 Y48.360 E0.02998
G1 X34.336 Y48.200 E0.02365
G1 X34.576 Y48.009 E0.02053
G1 X34.790 Y47.779 E0.02100
G1 X34.994 Y47.413 E0.02798
G1 X35.080 Y47.057 E0.02446
G1 X35.075 Y46.723 E0.02234
G1 X35.003 Y46.400 E0.02209
G1 X34.816 Y46.016 E0.02856
G1 X34.478 Y45.616 E0.03492
G1 X33.986 Y45.157 E0.04499
G1 X32.230 Y43.403 E0.16580
G1 X32.345 Y43.292 E0.01068
G1 X32.657 Y42.820 E0.03782
G1 X32.830 Y42.381 E0.03151
G1 X32.816 Y42.051 E0.02204
G1 X33.147 Y42.123 E0.02261
G1 X33.552 Y41.994 E0.02836
G1 X33.570 Y42.173 E0.01198
G1 X33.776 Y42.602 E0.03183
G1 X34.029 Y42.888 E0.02547
G1 X34.428 Y43.123 E0.03098
G1 X34.786 Y43.193 E0.02437
G1 X34.625 Y43.764 E0.03963
G1 X34.653 Y44.223 E0.03076
G1 X34.788 Y44.593 E0.02629
G1 X35.059 Y44.966 E0.03079
G1 X35.431 Y45.253 E0.03143
G1 X35.845 Y45.433 E0.03014
G1 X36.275 Y45.494 E0.02900
G1 X36.715 Y45.455 E0.02953
G1 X37.135 Y45.325 E0.02937
G1 X37.632 Y45.056 E0.03775
G1 X38.131 Y44.661 E0.04250
G1 X38.586 Y44.174 E0.04451
G1 X38.912 Y43.666 E0.04030
G1 X39.094 Y43.215 E0.03250
G1 X39.203 Y42.629 E0.03983
G1 X39.197 Y42.024 E0.04043
G1 X39.743 Y42.158 E0.03754
G1 X40.096 Y42.145 E0.02356
G1 X40.431 Y42.046 E0.02333
G1 X40.705 Y41.876 E0.02157
G1 X40.912 Y41.684 E0.01886
G1 X41.203 Y41.332 E0.03053
G1 X41.773 Y40.776 E0.05320
G1 X42.174 Y40.331 E0.03998
G1 X42.570 Y39.762 E0.04634
G1 X42.765 Y39.265 E0.03566
G1 X42.842 Y38.753 E0.03461
G1 X43.503 Y38.897 E0.04515
G1 X44.067 Y38.832 E0.03792
G1 X44.455 Y38.668 E0.02812
G1 X44.784 Y38.430 E0.02714
G1 X45.048 Y38.124 E0.02702
G1 X45.234 Y37.764 E0.02709
G1 X45.329 Y37.380 E0.02641
G1 X45.353 Y36.779 E0.04021
G1 X45.597 Y36.786 E0.01626
G1 X46.022 Y36.646 E0.02992
G1 X46.354 Y36.334 E0.03043
G1 X46.515 Y35.985 E0.02568
G1 X46.588 Y35.587 E0.02704
G1 X46.557 Y35.361 E0.01524
G1 X47.025 Y35.384 E0.03130
G1 X47.558 Y35.204 E0.03762
G1 X48.083 Y34.778 E0.04510
G1 X48.154 Y35.153 E0.02551
G1 X48.337 Y35.469 E0.02438
G1 X48.552 Y35.701 E0.02108
G1 X48.791 Y35.878 E0.01990
G1 X49.059 Y36.009 E0.01993
G1 X49.344 Y36.097 E0.01991
G1 X49.678 Y36.136 E0.02248
G1 X50.136 Y36.063 E0.03095
G1 X50.511 Y35.871 E0.02819
G1 X50.676 Y36.067 E0.01712
G1 X50.047 Y36.898 E0.06963
G1 X49.370 Y37.667 E0.06844
G1 X48.725 Y38.306 E0.06065
G1 X30.956 Y54.033 E1.58523
G1 X30.733 Y54.182 E0.01796
G1 X30.526 Y54.241 E0.01436
G1 X30.303 Y54.222 E0.01496
G1 X30.113 Y54.141 E0.01379
G1 X30.012 Y54.072 E0.00811
G1 X28.660 Y52.741 E0.12676
G1 X29.029 Y52.724 E0.02465
G1 X29.355 Y52.672 E0.02209
G1 X29.672 Y52.588 E0.02184
G1 X29.989 Y52.467 E0.02268
G1 X30.446 Y52.224 E0.03459
G1 X30.732 Y52.021 E0.02342
G1 X31.007 Y51.781 E0.02443
G1 X31.452 Y51.300 E0.04376
G1 X31.785 Y50.778 E0.04139
G1 X32.000 Y50.210 E0.04050
G1 X32.079 Y49.620 E0.03981
G1 X32.013 Y49.038 E0.03910
G1 X31.871 Y48.635 E0.02854
G1 X31.732 Y48.358 E0.02076
G1 X31.423 Y48.069 E0.02823
G1 X31.117 Y47.905 E0.02322
G1 X30.782 Y47.820 E0.02306
G1 X30.462 Y47.815 E0.02140
G1 X30.160 Y47.869 E0.02054
G1 X29.870 Y47.977 E0.02064
G1 X29.589 Y48.145 E0.02185
G1 X29.270 Y48.450 E0.02949
G1 X29.042 Y48.852 E0.03090
G1 X28.945 Y49.316 E0.03165
G1 X28.967 Y49.495 E0.01206
G1 X28.881 Y49.568 E0.00752
G1 E-1.00000 F600.000
G1 X51.821 Y32.697 F7800.000
G1 E1.00000 F600.000
G1 F1800.000
G1 X51.625 Y32.193 E0.03614
G1 X51.297 Y31.451 E0.05418
G1 X51.800 Y31.398 E0.03382
G1 X52.271 Y31.235 E0.03324
G1 X52.132 Y31.766 E0.03670
G1 X51.842 Y32.641 E0.06154
G1 X51.749 Y34.242 F7800.000
G1 F1800.000
G1 X51.491 Y34.172 E0.01784
G1 X51.519 Y33.813 E0.02406
G1 X51.466 Y33.387 E0.02869
G1 X51.346 Y32.952 E0.03017
G1 X51.130 Y32.399 E0.03965
G1 X50.698 Y31.420 E0.07144
G1 X50.275 Y30.538 E0.06537
G1 X50.979 Y30.867 E0.05186
G1 X51.362 Y30.906 E0.02576
G1 X51.683 Y30.872 E0.02154
G1 X52.020 Y30.755 E0.02383
G1 X52.413 Y30.447 E0.03335
G1 X52.815 Y30.012 E0.03959
G1 X53.029 Y30.115 E0.01586
G1 X52.965 Y30.542 E0.02882
G1 X52.796 Y31.344 E0.05480
G1 X52.483 Y32.446 E0.07651
G1 X52.162 Y33.326 E0.06260
G1 X51.775 Y34.188 E0.06309
G1 E-1.00000 F600.000
G1 X49.509 Y28.421 F7800.000
G1 E1.00000 F600.000
G1 F1800.000
G1 X49.281 Y28.499 E0.01609
G1 X48.984 Y28.076 E0.03453
G1 X49.265 Y28.023 E0.01912
G1 X49.486 Y27.908 E0.01665
G1 X49.506 Y28.361 E0.03028
G1 E-1.00000 F600.000
G1 X46.842 Y27.382 F7800.000
G1 E1.00000 F600.000
;TYPE:External perimeter
G1 F1800.000
G1 X47.088 Y27.304 E0.01724
G1 X47.271 Y27.293 E0.01224
G1 X47.674 Y27.368 E0.02737
G1 X47.841 Y27.432 E0.01197
G1 X48.033 Y27.561 E0.01546
G1 X48.216 Y27.812 E0.02074
G1 X48.316 Y28.058 E0.01773
G1 X48.875 Y28.853 E0.06489
G1 X50.211 Y31.644 E0.20678
G1 X50.635 Y32.604 E0.07010
G1 X50.837 Y33.121 E0.03702
G1 X50.939 Y33.492 E0.02575
G1 X50.981 Y33.825 E0.02244
G1 X50.955 Y34.155 E0.02210
G1 X50.867 Y34.483 E0.02265
G1 X50.708 Y34.828 E0.02542
G1 X50.461 Y35.197 E0.02966
G1 X50.239 Y35.408 E0.02044
G1 X49.967 Y35.548 E0.02045
G1 X49.667 Y35.596 E0.02028
G1 X49.455 Y35.571 E0.01427
G1 X49.257 Y35.509 E0.01388
G1 X49.071 Y35.419 E0.01383
G1 X48.911 Y35.300 E0.01328
G1 X48.771 Y35.149 E0.01379
G1 X48.663 Y34.963 E0.01430
G1 X48.608 Y34.674 E0.01970
G1 X48.641 Y34.465 E0.01414
G1 X48.738 Y34.227 E0.01717
G1 X48.953 Y33.829 E0.03018
G1 X48.976 Y33.631 E0.01331
G1 X48.930 Y33.449 E0.01260
G1 X48.724 Y33.000 E0.03295
G1 X48.544 Y32.501 E0.03545
G1 X48.472 Y32.376 E0.00963
G1 X48.367 Y32.306 E0.00846
G1 X47.884 Y32.124 E0.03443
G1 X46.423 Y31.454 E0.10741
G1 X45.861 Y31.164 E0.04222
G1 X45.462 Y30.896 E0.03212
G1 X45.068 Y30.563 E0.03448
G1 X44.859 Y30.333 E0.02077
G1 X44.697 Y30.041 E0.02232
G1 X44.669 Y29.762 E0.01869
G1 X44.794 Y29.453 E0.02229
G1 X45.008 Y29.234 E0.02048
G1 X45.322 Y29.053 E0.02419
G1 X45.560 Y29.011 E0.01617
G1 X45.765 Y29.028 E0.01374
G1 X45.959 Y29.082 E0.01343
G1 X46.229 Y29.226 E0.02045
G1 X46.680 Y29.626 E0.04028
G1 X47.019 Y29.801 E0.02547
G1 X47.554 Y30.038 E0.03913
G1 X47.199 Y29.273 E0.05636
G1 X46.994 Y29.049 E0.02031
G1 X46.796 Y28.785 E0.02204
G1 X46.677 Y28.550 E0.01760
G1 X46.604 Y28.332 E0.01534
G1 X46.572 Y28.192 E0.00958
G1 X46.581 Y27.969 E0.01493
G1 X46.642 Y27.701 E0.01839
G1 X46.810 Y27.433 E0.02113
G1 X46.826 Y27.124 F7800.000
G1 X46.144 Y26.479
;TYPE:Perimeter
G1 F1800.000
G1 X45.638 Y27.285 E0.06358
G1 X45.489 Y27.936 E0.04462
G1 X44.951 Y28.030 E0.03653
G1 X44.346 Y28.379 E0.04665
G1 X43.906 Y28.828 E0.04196
G1 X43.745 Y29.161 E0.02472
G1 X43.635 Y29.473 E0.02214
G1 X42.843 Y29.858 E0.05881
G1 X42.432 Y30.502 E0.05106
G1 X42.291 Y30.910 E0.02884
G1 X41.993 Y30.976 E0.02038
G1 X41.473 Y31.252 E0.03936
G1 X40.959 Y31.709 E0.04595
G1 X40.728 Y32.264 E0.04019
G1 X40.644 Y32.675 E0.02800
G1 X40.651 Y33.093 E0.02793
G1 X40.747 Y33.552 E0.03134
G1 X40.844 Y33.726 E0.01328
G1 X40.678 Y33.897 E0.01592
G1 X40.250 Y33.678 E0.03216
G1 X39.576 Y33.472 E0.04708
G1 X39.173 Y33.401 E0.02732
G1 X38.681 Y33.377 E0.03290
G1 X37.991 Y33.455 E0.04638
G1 X37.334 Y33.680 E0.04638
G1 X36.841 Y33.957 E0.03781
G1 X36.234 Y34.407 E0.05046
G1 X35.052 Y35.536 E0.10922
G1 X34.694 Y35.927 E0.03542
G1 X34.378 Y36.518 E0.04475
G1 X34.277 Y36.966 E0.03070
G1 X34.271 Y37.180 E0.01426
G1 X33.927 Y37.217 E0.02314
G1 X33.559 Y37.315 E0.02542
G1 X33.201 Y37.459 E0.02573
G1 X32.865 Y37.644 E0.02563
G1 X32.314 Y38.056 E0.04599
G1 X32.009 Y38.347 E0.02815
G1 X31.686 Y38.718 E0.03283
G1 X31.289 Y39.348 E0.04978
G1 X31.053 Y40.098 E0.05255
G1 X30.532 Y40.243 E0.03619
G1 X29.859 Y40.769 E0.05705
G1 X29.148 Y41.455 E0.06598
G1 X27.780 Y42.839 E0.12999
G1 X27.478 Y43.109 E0.02709
G1 X27.164 Y43.463 E0.03160
G1 X26.923 Y43.855 E0.03074
G1 X26.768 Y44.452 E0.04123
G1 X26.508 Y44.495 E0.01760
G1 X26.121 Y44.615 E0.02706
G1 X25.746 Y44.800 E0.02794
G1 X25.413 Y45.018 E0.02658
G1 X25.109 Y45.262 E0.02602
G1 X24.749 Y45.613 E0.03363
G1 X24.410 Y46.028 E0.03576
G1 X24.190 Y46.364 E0.02684
G1 X23.955 Y46.842 E0.03560
G1 X23.845 Y47.158 E0.02236
G1 X23.264 Y46.560 E0.05573
G1 X23.400 Y46.372 E0.01548
G1 X38.876 Y28.881 E1.56026
G1 X39.594 Y28.132 E0.06929
G1 X40.251 Y27.535 E0.05929
G1 X41.135 Y26.848 E0.07480
