; generated by PrusaSlicer 2.5.2+win64 on 2023-06-05 at 13:05:58 UTC

; 

; external perimeters extrusion width = 0.45mm
; perimeters extrusion width = 0.45mm
; infill extrusion width = 0.45mm
; solid infill extrusion width = 0.45mm
; top infill extrusion width = 0.40mm
; first layer extrusion width = 0.45mm

M107
M190 S55 ; set bed temperature and wait for it to be reached
M104 S215 ; set temperature
;TYPE:Custom
;CUSTOM SLICING PROFILE FOR ANISOPRINT A4
T0 R ; switch extruder
G28 ; home all axes
G1 Z10 F900 ; lift nozzle

M106 P1 S255; max Fanspeed as workaround
M109 S215 ; set temperature and wait for it to be reached
G21 ; set units to millimeters
G90 ; use absolute coordinates
M82 ; use absolute distances for extrusion
G92 E0
; Filament gcode
M107
;LAYER_CHANGE
;Z:0.25
;HEIGHT:0.25
G1 Z.25 F7800
G1 E-6.5 F2400
G92 E0
G1 X108.882 Y97.601 F7800
G1 E6.5 F2400
;TYPE:Skirt/Brim
;WIDTH:0.45
G1 F1800
G1 X110.347 Y96.136 E6.58532
G1 X112.341 Y94.704 E6.68647
G1 X115.711 Y93.915 E6.82903
G1 X172.289 Y93.915 E9.15984
G1 X174.712 Y94.312 E9.26099
G1 X177.653 Y96.136 E9.40356
G1 X179.118 Y97.601 E9.48887
G1 X180.55 Y99.595 E9.59002
G1 X181.339 Y102.964 E9.73259
G1 X181.339 Y112.036 E10.10628
G1 X180.942 Y114.458 E10.20742
G1 X179.118 Y117.399 E10.34999
G1 X177.653 Y118.864 E10.43531
G1 X175.659 Y120.296 E10.53646
G1 X172.289 Y121.085 E10.67902
G1 X115.711 Y121.085 E13.00983
G1 X113.288 Y120.688 E13.11098
G1 X110.347 Y118.864 E13.25354
G1 X108.882 Y117.399 E13.33886
G1 X107.45 Y115.405 E13.44001
G1 X106.661 Y112.036 E13.58258
G1 X106.661 Y102.964 E13.95627
G1 X107.058 Y100.542 E14.05741
G1 X108.851 Y97.652 E14.19751
G1 X109.163 Y97.881 F7800
G1 F1800
G1 X110.627 Y96.417 E14.28283
G1 X112.574 Y95.031 E14.38128
G1 X115.711 Y94.311 E14.51384
G1 X172.289 Y94.311 E16.84465
G1 X174.646 Y94.708 E16.9431
G1 X177.373 Y96.417 E17.07566
G1 X178.837 Y97.881 E17.16098
G1 X180.223 Y99.828 E17.25943
G1 X180.943 Y102.964 E17.39199
G1 X180.943 Y112.036 E17.76568
G1 X180.546 Y114.392 E17.86413
G1 X178.837 Y117.119 E17.99669
G1 X177.373 Y118.583 E18.08201
G1 X175.426 Y119.969 E18.18046
G1 X172.289 Y120.689 E18.31302
G1 X115.711 Y120.689 E20.64383
G1 X113.354 Y120.292 E20.74228
G1 X110.627 Y118.583 E20.87484
G1 X109.163 Y117.119 E20.96016
G1 X107.777 Y115.172 E21.05861
G1 X107.057 Y112.036 E21.19117
G1 X107.057 Y102.964 E21.56486
G1 X107.454 Y100.608 E21.66331
G1 X109.131 Y97.932 E21.7934
G1 X109.443 Y98.161 F7800
G1 F1800
G1 X110.907 Y96.697 E21.87872
G1 X112.806 Y95.359 E21.9744
G1 X115.711 Y94.707 E22.09702
G1 X172.289 Y94.707 E24.42783
G1 X174.578 Y95.104 E24.52351
G1 X177.093 Y96.697 E24.64613
G1 X178.557 Y98.161 E24.73145
G1 X179.894 Y100.06 E24.82713
G1 X180.547 Y102.964 E24.94976
G1 X180.547 Y112.036 E25.32344
G1 X180.15 Y114.324 E25.41912
G1 X178.557 Y116.839 E25.54175
G1 X177.093 Y118.303 E25.62707
G1 X175.194 Y119.641 E25.72275
G1 X172.289 Y120.293 E25.84537
G1 X115.711 Y120.293 E28.17618
G1 X113.422 Y119.896 E28.27186
G1 X110.907 Y118.303 E28.39448
G1 X109.443 Y116.839 E28.4798
G1 X108.106 Y114.94 E28.57548
G1 X107.453 Y112.036 E28.69811
G1 X107.453 Y102.964 E29.07179
G1 X107.85 Y100.676 E29.16747
G1 X109.411 Y98.212 E29.28763
G1 X109.723 Y98.442 F7800
G1 F1800
G1 X111.188 Y96.977 E29.37294
G1 X113.037 Y95.689 E29.46577
G1 X115.711 Y95.104 E29.57853
G1 X172.289 Y95.104 E31.90934
G1 X174.507 Y95.501 E32.00217
G1 X176.812 Y96.977 E32.11493
G1 X178.277 Y98.442 E32.20025
G1 X179.565 Y100.291 E32.29308
G1 X180.15 Y102.964 E32.40584
G1 X180.15 Y112.036 E32.77953
G1 X179.753 Y114.254 E32.87235
G1 X178.277 Y116.558 E32.98512
G1 X176.812 Y118.023 E33.07044
G1 X174.963 Y119.311 E33.16326
G1 X172.289 Y119.896 E33.27603
G1 X115.711 Y119.896 E35.60684
G1 X113.493 Y119.499 E35.69966
G1 X111.188 Y118.023 E35.81243
G1 X109.723 Y116.558 E35.89775
G1 X108.435 Y114.709 E35.99057
G1 X107.85 Y112.036 E36.10333
G1 X107.85 Y102.964 E36.47702
G1 X108.247 Y100.746 E36.56985
G1 X109.691 Y98.492 E36.68014
G1 E30.18014 F2400
G92 E0
G1 X114.924 Y102.752 F7800
G1 E6.5 F2400
G1 F1800
G1 X115.429 Y102.234 E6.52978
G1 X115.752 Y102.02 E6.54576
G1 X116.335 Y101.83 E6.57104
G1 X171.617 Y101.824 E8.84841
G1 X171.995 Y101.911 E8.86439
G1 X172.38 Y102.093 E8.8819
G1 X173.016 Y102.679 E8.91754
G1 X173.258 Y103.055 E8.93599
G1 X173.424 Y103.588 E8.95898
G1 X173.425 Y111.406 E9.28104
G1 X173.26 Y111.94 E9.30406
G1 X173.023 Y112.314 E9.32232
G1 X172.569 Y112.767 E9.34871
G1 X172.35 Y112.928 E9.35993
G1 X171.666 Y113.169 E9.38981
G1 X116.397 Y113.18 E11.66665
G1 X115.805 Y113.006 E11.69209
G1 X115.432 Y112.769 E11.71028
G1 X114.979 Y112.316 E11.73668
G1 X114.818 Y112.096 E11.7479
G1 X114.577 Y111.412 E11.77777
G1 X114.586 Y103.528 E12.10256
G1 X114.741 Y103.056 E12.12305
G1 X114.893 Y102.803 E12.13518
G1 X115.229 Y103.012 F7800
G1 F1800
G1 X115.697 Y102.526 E12.16299
G1 X115.902 Y102.388 E12.17318
G1 X116.428 Y102.216 E12.19597
G1 X171.594 Y102.22 E14.46858
G1 X171.845 Y102.278 E14.47917
G1 X172.181 Y102.437 E14.49449
G1 X172.726 Y102.95 E14.52533
G1 X172.891 Y103.205 E14.53781
G1 X173.028 Y103.622 E14.55589
G1 X173.037 Y111.318 E14.87294
G1 X172.89 Y111.797 E14.89359
G1 X172.728 Y112.049 E14.90591
G1 X172.301 Y112.475 E14.93077
G1 X172.144 Y112.589 E14.93877
G1 X171.57 Y112.784 E14.96371
G1 X116.428 Y112.784 E17.23533
G1 X115.949 Y112.636 E17.25599
G1 X115.698 Y112.474 E17.26831
G1 X115.271 Y112.047 E17.29317
G1 X115.157 Y111.89 E17.30117
G1 X114.963 Y111.317 E17.3261
G1 X114.972 Y103.622 E17.64309
G1 X115.11 Y103.203 E17.66125
G1 X115.197 Y103.063 E17.66805
G1 X115.527 Y103.279 F7800
G1 F1800
G1 X115.566 Y103.218 E17.67104
G1 X115.966 Y102.818 E17.69433
G1 X116.061 Y102.752 E17.69909
G1 X116.463 Y102.613 E17.71662
G1 X171.571 Y102.617 E19.98684
G1 X171.694 Y102.646 E19.99204
G1 X171.981 Y102.781 E20.00512
G1 X172.434 Y103.219 E20.03109
G1 X172.522 Y103.354 E20.0377
G1 X172.641 Y103.715 E20.05339
G1 X172.641 Y111.285 E20.3652
G1 X172.522 Y111.646 E20.3809
G1 X172.434 Y111.782 E20.38758
G1 X172.034 Y112.182 E20.41087
G1 X171.939 Y112.248 E20.41563
G1 X171.537 Y112.387 E20.43316
G1 X116.462 Y112.387 E22.70203
G1 X116.1 Y112.268 E22.71772
G1 X115.964 Y112.18 E22.72441
G1 X115.564 Y111.78 E22.7477
G1 X115.498 Y111.685 E22.75246
G1 X115.359 Y111.283 E22.76999
G1 X115.359 Y103.715 E23.08174
G1 X115.494 Y103.329 E23.09862
G1 X115.841 Y103.513 F7800
G1 F1800
G1 X116.231 Y103.114 E23.12163
G1 X116.498 Y103.009 E23.13346
G1 X171.516 Y103.009 E25.39996
G1 X171.779 Y103.124 E25.41179
G1 X172.14 Y103.485 E25.43281
G1 X172.245 Y103.752 E25.44463
G1 X172.245 Y111.248 E25.75341
G1 X172.14 Y111.515 E25.76523
G1 X171.769 Y111.886 E25.78687
G1 X171.502 Y111.991 E25.79869
G1 X116.498 Y111.991 E28.06459
G1 X116.231 Y111.886 E28.07641
G1 X115.86 Y111.515 E28.09804
G1 X115.755 Y111.248 E28.10987
G1 X115.755 Y103.752 E28.41865
G1 X115.821 Y103.57 E28.42663
G1 X116.182 Y103.724 F7800
G1 F1800
G1 X116.47 Y103.436 E28.44341
G1 X116.542 Y103.405 E28.44665
G1 X171.458 Y103.405 E30.70892
G1 X171.53 Y103.436 E30.71217
G1 X171.818 Y103.724 E30.72894
G1 X171.848 Y103.796 E30.73219
G1 X171.848 Y111.204 E31.03733
G1 X171.818 Y111.276 E31.04058
G1 X171.53 Y111.564 E31.05736
G1 X171.458 Y111.595 E31.0606
G1 X116.542 Y111.595 E33.32287
G1 X116.47 Y111.564 E33.32612
G1 X116.182 Y111.276 E33.34289
G1 X116.152 Y111.204 E33.34614
G1 X116.159 Y103.779 E33.652
G1 X116.548 Y103.918 F7800
G1 F1800
G1 X116.664 Y103.802 E33.65876
G1 X171.336 Y103.802 E35.91102
G1 X171.452 Y103.918 E35.91778
G1 X171.452 Y111.082 E36.21291
G1 X171.336 Y111.198 E36.21968
G1 X116.664 Y111.198 E38.47193
G1 X116.548 Y111.082 E38.4787
G1 X116.548 Y103.978 E38.77136
G1 E32.27136 F2400
G92 E0
G1 X168.651 Y108.397 F7800
G1 E6.5 F2400
;TYPE:Perimeter
;WIDTH:0.449999
G1 F1800
G1 X119.349 Y108.397 E8.53102
G1 X119.349 Y106.603 E8.60491
G1 X168.651 Y106.603 E10.63593
G1 X168.651 Y108.337 E10.70735
G1 X169.047 Y108.793 F7800
G1 F1800
G1 X118.953 Y108.793 E12.77103
G1 X118.953 Y106.207 E12.87758
G1 X169.047 Y106.207 E14.94125
G1 X169.047 Y108.733 E15.04533
G1 X169.444 Y109.19 F7800
G1 F1800
G1 X118.556 Y109.19 E17.14166
G1 X118.556 Y105.81 E17.28087
G1 X169.444 Y105.81 E19.3772
G1 X169.444 Y109.13 E19.51393
G1 X169.84 Y109.586 F7800
G1 F1800
G1 X118.16 Y109.586 E21.64292
G1 X118.16 Y105.414 E21.81478
G1 X169.84 Y105.414 E23.94376
G1 X169.84 Y109.526 E24.11316
G1 X170.236 Y109.982 F7800
G1 F1800
G1 X117.764 Y109.982 E26.2748
G1 X117.764 Y105.018 E26.47932
G1 X170.236 Y105.018 E28.64095
G1 X170.236 Y109.922 E28.843
G1 X170.633 Y110.379 F7800
G1 F1800
G1 X117.367 Y110.379 E31.0373
G1 X117.367 Y104.621 E31.27447
G1 X170.633 Y104.621 E33.46877
G1 X170.633 Y110.319 E33.70347
G1 X171.029 Y110.775 F7800
;TYPE:External perimeter
G1 F1800
G1 X116.971 Y110.775 E35.93042
G1 X116.971 Y104.225 E36.20025
G1 X171.029 Y104.225 E38.4272
G1 X171.029 Y110.715 E38.69457
G1 X170.629 Y110.759 F7800
G1 E32.19457 F2400
G92 E0
G1 X167.727 Y106.722 F7800
G1 E6.5 F2400
;TYPE:Solid infill
;WIDTH:0.45198
G1 F1800
G1 X168.354 Y107.349 E6.53672
G1 X168.354 Y107.912 E6.56004
G1 X167.342 Y106.9 E6.61929
G1 X166.778 Y106.9 E6.64262
G1 X167.978 Y108.1 E6.71284
G1 X167.414 Y108.1 E6.73616
G1 X166.215 Y106.9 E6.80638
G1 X165.652 Y106.9 E6.8297
G1 X166.851 Y108.1 E6.89992
G1 X166.288 Y108.1 E6.92324
G1 X165.088 Y106.9 E6.99347
G1 X164.525 Y106.9 E7.01679
G1 X165.724 Y108.1 E7.08701
G1 X165.161 Y108.1 E7.11033
G1 X163.962 Y106.9 E7.18055
G1 X163.398 Y106.9 E7.20387
G1 X164.598 Y108.1 E7.27409
G1 X164.034 Y108.1 E7.29742
G1 X162.835 Y106.9 E7.36764
G1 X162.272 Y106.9 E7.39096
G1 X163.471 Y108.1 E7.46118
G1 X162.908 Y108.1 E7.4845
G1 X161.708 Y106.9 E7.55472
G1 X161.145 Y106.9 E7.57805
G1 X162.344 Y108.1 E7.64827
G1 X161.781 Y108.1 E7.67159
G1 X160.582 Y106.9 E7.74181
G1 X160.018 Y106.9 E7.76513
G1 X161.218 Y108.1 E7.83535
G1 X160.654 Y108.1 E7.85868
G1 X159.455 Y106.9 E7.9289
G1 X158.892 Y106.9 E7.95222
G1 X160.091 Y108.1 E8.02244
G1 X159.528 Y108.1 E8.04576
G1 X158.328 Y106.9 E8.11598
G1 X157.765 Y106.9 E8.13931
G1 X158.964 Y108.1 E8.20953
G1 X158.401 Y108.1 E8.23285
G1 X157.202 Y106.9 E8.30307
G1 X156.638 Y106.9 E8.32639
G1 X157.838 Y108.1 E8.39661
G1 X157.274 Y108.1 E8.41994
G1 X156.075 Y106.9 E8.49016
G1 X155.512 Y106.9 E8.51348
G1 X156.711 Y108.1 E8.5837
G1 X156.148 Y108.1 E8.60702
G1 X154.948 Y106.9 E8.67724
G1 X154.385 Y106.9 E8.70056
G1 X155.584 Y108.1 E8.77079
G1 X155.021 Y108.1 E8.79411
G1 X153.822 Y106.9 E8.86433
G1 X153.258 Y106.9 E8.88765
G1 X154.458 Y108.1 E8.95787
G1 X153.894 Y108.1 E8.98119
G1 X152.695 Y106.9 E9.05141
G1 X152.132 Y106.9 E9.07474
G1 X153.331 Y108.1 E9.14496
G1 X152.768 Y108.1 E9.16828
G1 X151.568 Y106.9 E9.2385
G1 X151.005 Y106.9 E9.26182
G1 X152.204 Y108.1 E9.33204
G1 X151.641 Y108.1 E9.35537
G1 X150.442 Y106.9 E9.42559
G1 X149.879 Y106.9 E9.44891
G1 X151.078 Y108.1 E9.51913
G1 X150.515 Y108.1 E9.54245
G1 X149.315 Y106.9 E9.61267
G1 X148.752 Y106.9 E9.636
G1 X149.951 Y108.1 E9.70622
G1 X149.388 Y108.1 E9.72954
G1 X148.189 Y106.9 E9.79976
G1 X147.625 Y106.9 E9.82308
G1 X148.825 Y108.1 E9.8933
G1 X148.261 Y108.1 E9.91663
G1 X147.062 Y106.9 E9.98685
G1 X146.499 Y106.9 E10.01017
G1 X147.698 Y108.1 E10.08039
G1 X147.135 Y108.1 E10.10371
G1 X145.935 Y106.9 E10.17393
G1 X145.372 Y106.9 E10.19726
G1 X146.571 Y108.1 E10.26748
G1 X146.008 Y108.1 E10.2908
G1 X144.809 Y106.9 E10.36102
G1 X144.245 Y106.9 E10.38434
G1 X145.445 Y108.1 E10.45456
G1 X144.881 Y108.1 E10.47788
G1 X143.682 Y106.9 E10.54811
G1 X143.119 Y106.9 E10.57143
G1 X144.318 Y108.1 E10.64165
G1 X143.755 Y108.1 E10.66497
G1 X142.555 Y106.9 E10.73519
G1 X141.992 Y106.9 E10.75851
G1 X143.191 Y108.1 E10.82874
G1 X142.628 Y108.1 E10.85206
G1 X141.429 Y106.9 E10.92228
G1 X140.865 Y106.9 E10.9456
G1 X142.065 Y108.1 E11.01582
G1 X141.501 Y108.1 E11.03914
G1 X140.302 Y106.9 E11.10936
G1 X139.739 Y106.9 E11.13269
G1 X140.938 Y108.1 E11.20291
G1 X140.375 Y108.1 E11.22623
G1 X139.175 Y106.9 E11.29645
G1 X138.612 Y106.9 E11.31977
G1 X139.811 Y108.1 E11.38999
G1 X139.248 Y108.1 E11.41332
G1 X138.049 Y106.9 E11.48354
G1 X137.485 Y106.9 E11.50686
G1 X138.685 Y108.1 E11.57708
G1 X138.121 Y108.1 E11.6004
G1 X136.922 Y106.9 E11.67062
G1 X136.359 Y106.9 E11.69395
G1 X137.558 Y108.1 E11.76417
G1 X136.995 Y108.1 E11.78749
G1 X135.795 Y106.9 E11.85771
G1 X135.232 Y106.9 E11.88103
G1 X136.431 Y108.1 E11.95125
G1 X135.868 Y108.1 E11.97458
G1 X134.669 Y106.9 E12.0448
G1 X134.105 Y106.9 E12.06812
G1 X135.305 Y108.1 E12.13834
G1 X134.741 Y108.1 E12.16166
G1 X133.542 Y106.9 E12.23188
G1 X132.979 Y106.9 E12.2552
G1 X134.178 Y108.1 E12.32543
G1 X133.615 Y108.1 E12.34875
G1 X132.415 Y106.9 E12.41897
G1 X131.852 Y106.9 E12.44229
G1 X133.051 Y108.1 E12.51251
G1 X132.488 Y108.1 E12.53583
G1 X131.289 Y106.9 E12.60606
G1 X130.726 Y106.9 E12.62938
G1 X131.925 Y108.1 E12.6996
G1 X131.361 Y108.1 E12.72292
G1 X130.162 Y106.9 E12.79314
G1 X129.599 Y106.9 E12.81646
G1 X130.798 Y108.1 E12.88668
G1 X130.235 Y108.1 E12.91001
G1 X129.036 Y106.9 E12.98023
G1 X128.472 Y106.9 E13.00355
G1 X129.672 Y108.1 E13.07377
G1 X129.108 Y108.1 E13.09709
G1 X127.909 Y106.9 E13.16731
G1 X127.346 Y106.9 E13.19064
G1 X128.545 Y108.1 E13.26086
G1 X127.982 Y108.1 E13.28418
G1 X126.782 Y106.9 E13.3544
G1 X126.219 Y106.9 E13.37772
G1 X127.418 Y108.1 E13.44794
G1 X126.855 Y108.1 E13.47127
G1 X125.656 Y106.9 E13.54149
G1 X125.092 Y106.9 E13.56481
G1 X126.292 Y108.1 E13.63503
G1 X125.728 Y108.1 E13.65835
G1 X124.529 Y106.9 E13.72857
G1 X123.966 Y106.9 E13.7519
G1 X125.165 Y108.1 E13.82212
G1 X124.602 Y108.1 E13.84544
G1 X123.402 Y106.9 E13.91566
G1 X122.839 Y106.9 E13.93898
G1 X124.038 Y108.1 E14.0092
G1 X123.475 Y108.1 E14.03253
G1 X122.276 Y106.9 E14.10275
G1 X121.712 Y106.9 E14.12607
G1 X122.912 Y108.1 E14.19629
G1 X122.348 Y108.1 E14.21961
G1 X121.149 Y106.9 E14.28983
G1 X120.586 Y106.9 E14.31315
G1 X121.785 Y108.1 E14.38338
G1 X121.222 Y108.1 E14.4067
G1 X120.022 Y106.9 E14.47692
G1 X119.646 Y106.9 E14.49248
G1 X119.646 Y107.088 E14.50024
G1 X120.658 Y108.1 E14.55949
G1 X120.095 Y108.1 E14.58281
G1 X119.468 Y107.473 E14.61952
;LAYER_CHANGE
;Z:0.45
;HEIGHT:0.2
G1 Z.45 F7800
M104 S212 ; set temperature
G1 E8.11952 F2400
G92 E0
G1 X168.586 Y108.333 F7800
G1 E6.5 F2400
;TYPE:Perimeter
;WIDTH:0.449999
G1 F3600
G1 X119.414 Y108.333 E8.16444
G1 X119.414 Y106.667 E8.2208
G1 X168.586 Y106.667 E9.88524
G1 X168.586 Y108.273 E9.93957
G1 X168.994 Y108.74 F7800
G1 F3600
G1 X119.006 Y108.74 E11.63157
G1 X119.006 Y106.26 E11.71549
G1 X168.994 Y106.26 E13.40749
G1 X168.994 Y108.68 E13.48938
G1 X169.401 Y109.147 F7800
G1 F3600
G1 X118.599 Y109.147 E15.20894
G1 X118.599 Y105.853 E15.32041
G1 X169.401 Y105.853 E17.03997
G1 X169.401 Y109.087 E17.14942
G1 X169.808 Y109.554 F7800
G1 F3600
G1 X118.192 Y109.554 E18.89653
G1 X118.192 Y105.446 E19.03557
G1 X169.808 Y105.446 E20.78268
G1 X169.808 Y109.494 E20.91969
G1 X170.215 Y109.961 F7800
G1 F3600
G1 X117.785 Y109.961 E22.69436
G1 X117.785 Y105.039 E22.86095
G1 X170.215 Y105.039 E24.63563
G1 X170.215 Y109.901 E24.80019
G1 X170.622 Y110.368 F7800
G1 F3600
G1 X117.378 Y110.368 E26.60242
G1 X117.378 Y104.632 E26.79657
G1 X170.622 Y104.632 E28.59881
G1 X170.622 Y110.308 E28.79093
G1 X171.029 Y110.775 F7800
;TYPE:External perimeter
G1 F1800
G1 X116.971 Y110.775 E30.62072
G1 X116.971 Y104.225 E30.84243
G1 X171.029 Y104.225 E32.67222
G1 X171.029 Y110.715 E32.8919
G1 X170.629 Y110.759 F7800
G1 E26.3919 F2400
G92 E0
G1 X168.464 Y107.382 F7800
G1 E6.5 F2400
;TYPE:Solid infill
;WIDTH:0.452805
G1 F1200
G1 X167.819 Y108.027 E6.53112
G1 X167.239 Y108.027 E6.55088
G1 X168.281 Y106.973 E6.60141
G1 X167.714 Y106.973 E6.62074
G1 X166.659 Y108.027 E6.67157
G1 X166.08 Y108.027 E6.69132
G1 X167.134 Y106.973 E6.74215
G1 X166.554 Y106.973 E6.7619
G1 X165.5 Y108.027 E6.81273
G1 X164.92 Y108.027 E6.83248
G1 X165.975 Y106.973 E6.88331
G1 X165.395 Y106.973 E6.90306
G1 X164.341 Y108.027 E6.95389
G1 X163.761 Y108.027 E6.97364
G1 X164.815 Y106.973 E7.02447
G1 X164.236 Y106.973 E7.04422
G1 X163.181 Y108.027 E7.09505
G1 X162.602 Y108.027 E7.1148
G1 X163.656 Y106.973 E7.16563
G1 X163.076 Y106.973 E7.18539
G1 X162.022 Y108.027 E7.23621
