; generated by PrusaSlicer 2.5.2+win64 on 2023-06-05 at 10:42:39 UTC

; 

; external perimeters extrusion width = 0.45mm
; perimeters extrusion width = 0.45mm
; infill extrusion width = 0.45mm
; solid infill extrusion width = 0.45mm
; top infill extrusion width = 0.40mm
; first layer extrusion width = 0.45mm

M107
M190 S55 ; set bed temperature and wait for it to be reached
M104 S215 ; set temperature
;TYPE:Custom
;CUSTOM SLICING PROFILE FOR ANISOPRINT A4
T0 R ; switch extruder
G28 ; home all axes
G1 Z10 F900 ; lift nozzle

M106 P1 S255; max Fanspeed as workaround
M109 S215 ; set temperature and wait for it to be reached
G21 ; set units to millimeters
G90 ; use absolute coordinates
M82 ; use absolute distances for extrusion
G92 E0
; Filament gcode
M107
;LAYER_CHANGE
;Z:0.25
;HEIGHT:0.25
G1 Z.25 F7800
G1 E-6.5 F2400
G92 E0
G1 X47.828 Y90.531 F7800
G1 E6.5 F2400
;TYPE:Skirt/Brim
;WIDTH:0.45
G1 F1800
G1 X50.964 Y89.811 E6.63256
G1 X237.036 Y89.811 E14.2979
G1 X239.392 Y90.208 E14.39635
G1 X242.119 Y91.917 E14.52891
G1 X243.583 Y93.381 E14.61423
G1 X244.969 Y95.328 E14.71268
G1 X245.689 Y98.464 E14.84524
G1 X245.689 Y116.536 E15.58969
G1 X245.292 Y118.892 E15.68814
G1 X243.583 Y121.619 E15.8207
G1 X242.119 Y123.083 E15.90602
G1 X240.172 Y124.469 E16.00447
G1 X237.036 Y125.189 E16.13703
G1 X50.964 Y125.189 E23.80237
G1 X48.608 Y124.792 E23.90082
G1 X45.881 Y123.083 E24.03338
G1 X44.417 Y121.619 E24.1187
G1 X43.031 Y119.672 E24.21715
G1 X42.311 Y116.536 E24.34971
G1 X42.311 Y98.464 E25.09416
G1 X42.708 Y96.108 E25.19261
G1 X44.417 Y93.381 E25.32517
G1 X45.881 Y91.917 E25.41049
G1 X47.779 Y90.566 E25.50647
G1 X48.011 Y90.894 F7800
G1 F1800
G1 X48.06 Y90.859 E25.50896
G1 X50.964 Y90.207 E25.63158
G1 X237.036 Y90.207 E33.29692
G1 X239.324 Y90.604 E33.3926
G1 X241.839 Y92.197 E33.51522
G1 X243.303 Y93.661 E33.60054
G1 X244.641 Y95.56 E33.69622
G1 X245.293 Y98.464 E33.81884
G1 X245.293 Y116.536 E34.5633
G1 X244.896 Y118.824 E34.65897
G1 X243.303 Y121.339 E34.7816
G1 X241.839 Y122.803 E34.86692
G1 X239.94 Y124.141 E34.9626
G1 X237.036 Y124.793 E35.08522
G1 X50.964 Y124.793 E42.75056
G1 X48.676 Y124.396 E42.84624
G1 X46.161 Y122.803 E42.96886
G1 X44.697 Y121.339 E43.05418
G1 X43.359 Y119.44 E43.14986
G1 X42.707 Y116.536 E43.27248
G1 X42.707 Y98.464 E44.01693
G1 X43.104 Y96.176 E44.11261
G1 X44.697 Y93.661 E44.23524
G1 X46.161 Y92.197 E44.32056
G1 X47.962 Y90.929 E44.41127
G1 X48.191 Y91.259 F7800
G1 F1800
G1 X48.291 Y91.189 E44.41626
G1 X50.964 Y90.604 E44.52902
G1 X237.036 Y90.604 E52.19436
G1 X239.254 Y91.001 E52.28718
G1 X241.558 Y92.477 E52.39995
G1 X243.023 Y93.942 E52.48527
G1 X244.311 Y95.791 E52.57809
G1 X244.896 Y98.464 E52.69085
G1 X244.896 Y116.536 E53.43531
G1 X244.499 Y118.754 E53.52813
G1 X243.023 Y121.058 E53.64089
G1 X241.558 Y122.523 E53.72621
G1 X239.709 Y123.811 E53.81904
G1 X237.036 Y124.396 E53.9318
G1 X50.964 Y124.396 E61.59714
G1 X48.746 Y123.999 E61.68996
G1 X46.442 Y122.523 E61.80273
G1 X44.977 Y121.058 E61.88805
G1 X43.689 Y119.209 E61.98087
G1 X43.104 Y116.536 E62.09364
G1 X43.104 Y98.464 E62.83809
G1 X43.501 Y96.246 E62.93091
G1 X44.977 Y93.942 E63.04368
G1 X46.442 Y92.477 E63.12899
G1 X48.142 Y91.293 E63.21436
G1 E56.71436 F2400
G92 E0
G1 X51.651 Y108.32 F7800
G1 E6.5 F2400
G1 F1800
G1 X236.363 Y108.324 E14.10934
G1 X236.755 Y108.418 E14.12595
G1 X237.297 Y108.714 E14.15141
G1 X237.853 Y109.292 E14.18445
G1 X238.001 Y109.546 E14.19654
G1 X238.145 Y109.948 E14.21413
G1 X238.18 Y115.848 E14.45718
G1 X238.005 Y116.441 E14.48267
G1 X237.769 Y116.814 E14.50087
G1 X237.316 Y117.267 E14.52727
G1 X237.097 Y117.428 E14.53843
G1 X236.349 Y117.68 E14.57095
G1 X51.651 Y117.68 E22.17972
G1 X51.059 Y117.506 E22.20516
G1 X50.686 Y117.269 E22.22336
G1 X50.233 Y116.816 E22.24976
G1 X50.072 Y116.597 E22.26092
G1 X49.82 Y115.848 E22.29348
G1 X49.855 Y109.948 E22.53655
G1 X49.999 Y109.546 E22.55414
G1 X50.147 Y109.292 E22.56623
G1 X50.683 Y108.734 E22.59813
G1 X51.059 Y108.494 E22.61648
G1 X51.594 Y108.337 E22.63944
G1 X51.682 Y108.716 F7800
G1 F1800
G1 X236.34 Y108.72 E30.24656
G1 X236.594 Y108.78 E30.25729
G1 X237.037 Y109.015 E30.27794
G1 X237.526 Y109.516 E30.30681
G1 X237.635 Y109.699 E30.31556
G1 X237.76 Y110.05 E30.33091
G1 X237.784 Y115.818 E30.56853
G1 X237.636 Y116.297 E30.5892
G1 X237.474 Y116.549 E30.60152
G1 X237.047 Y116.975 E30.62638
G1 X236.89 Y117.089 E30.63438
G1 X236.316 Y117.284 E30.65932
G1 X51.682 Y117.284 E38.26547
G1 X51.203 Y117.136 E38.28612
G1 X50.951 Y116.974 E38.29845
G1 X50.525 Y116.547 E38.32331
G1 X50.411 Y116.39 E38.3313
G1 X50.216 Y115.816 E38.35625
G1 X50.24 Y110.05 E38.59381
G1 X50.365 Y109.699 E38.60917
G1 X50.474 Y109.516 E38.61792
G1 X50.951 Y109.027 E38.64608
G1 X51.203 Y108.864 E38.65843
G1 X51.625 Y108.734 E38.67661
G1 X51.715 Y109.113 F7800
G1 F1800
G1 X236.317 Y109.117 E46.28142
G1 X236.438 Y109.145 E46.28651
G1 X236.779 Y109.318 E46.30228
G1 X237.202 Y109.746 E46.32707
G1 X237.269 Y109.854 E46.3323
G1 X237.376 Y110.151 E46.34532
G1 X237.387 Y115.785 E46.5774
G1 X237.268 Y116.146 E46.59308
G1 X237.18 Y116.282 E46.59977
G1 X236.78 Y116.682 E46.62306
G1 X236.685 Y116.748 E46.62782
G1 X236.283 Y116.887 E46.64535
G1 X51.715 Y116.887 E54.24874
G1 X51.354 Y116.768 E54.26443
G1 X51.218 Y116.68 E54.27112
G1 X50.818 Y116.28 E54.29441
G1 X50.752 Y116.185 E54.29917
G1 X50.613 Y115.783 E54.31669
G1 X50.624 Y110.151 E54.54871
G1 X50.731 Y109.854 E54.56173
G1 X50.798 Y109.746 E54.56696
G1 X51.218 Y109.32 E54.59161
G1 X51.354 Y109.232 E54.59827
G1 X51.658 Y109.131 E54.61149
G1 X51.752 Y109.509 F7800
G1 F1800
G1 X236.263 Y109.509 E62.21252
G1 X236.526 Y109.624 E62.22435
G1 X236.886 Y109.985 E62.24537
G1 X236.991 Y110.252 E62.25719
G1 X236.991 Y115.748 E62.48357
G1 X236.886 Y116.015 E62.4954
G1 X236.515 Y116.386 E62.51703
G1 X236.248 Y116.491 E62.52886
G1 X51.752 Y116.491 E70.12928
G1 X51.485 Y116.386 E70.14111
G1 X51.114 Y116.015 E70.16274
G1 X51.009 Y115.748 E70.17457
G1 X51.009 Y110.252 E70.40095
G1 X51.114 Y109.985 E70.41277
G1 X51.485 Y109.614 E70.4344
G1 X51.696 Y109.529 E70.44376
G1 X51.796 Y109.905 F7800
G1 F1800
G1 X236.204 Y109.905 E78.04055
G1 X236.276 Y109.936 E78.0438
G1 X236.564 Y110.224 E78.06058
G1 X236.595 Y110.296 E78.06382
G1 X236.595 Y115.704 E78.28658
G1 X236.564 Y115.776 E78.28982
G1 X236.276 Y116.064 E78.3066
G1 X236.204 Y116.095 E78.30985
G1 X51.796 Y116.095 E85.90664
G1 X51.724 Y116.064 E85.90989
G1 X51.436 Y115.776 E85.92666
G1 X51.405 Y115.704 E85.92991
G1 X51.405 Y110.296 E86.15266
G1 X51.436 Y110.224 E86.15591
G1 X51.741 Y109.928 E86.1734
G1 X51.918 Y110.302 F7800
G1 F1800
G1 X236.082 Y110.302 E93.76018
G1 X236.198 Y110.418 E93.76695
G1 X236.198 Y115.582 E93.97969
G1 X236.082 Y115.698 E93.98645
G1 X51.918 Y115.698 E101.57323
G1 X51.802 Y115.582 E101.57999
G1 X51.802 Y110.418 E101.79274
G1 X51.875 Y110.344 E101.79703
G1 E95.29703 F2400
G92 E0
G1 X51.875 Y106.68 F7800
G1 E6.5 F2400
G1 F1800
G1 X51.651 Y106.68 E6.50924
G1 X51.059 Y106.506 E6.53468
G1 X50.686 Y106.269 E6.55288
G1 X50.233 Y105.816 E6.57928
G1 X50.072 Y105.597 E6.59044
G1 X49.82 Y104.848 E6.62301
G1 X49.855 Y98.948 E6.86607
G1 X49.999 Y98.546 E6.88366
G1 X50.147 Y98.292 E6.89575
G1 X50.683 Y97.734 E6.92765
G1 X51.059 Y97.494 E6.946
G1 X51.651 Y97.32 E6.97144
G1 X236.363 Y97.324 E14.58078
G1 X236.755 Y97.418 E14.59738
G1 X237.297 Y97.714 E14.62285
G1 X237.853 Y98.292 E14.65588
G1 X238.001 Y98.546 E14.66798
G1 X238.145 Y98.948 E14.68557
G1 X238.18 Y104.848 E14.92862
G1 X238.005 Y105.441 E14.95411
G1 X237.769 Y105.814 E14.9723
G1 X237.316 Y106.267 E14.9987
G1 X237.097 Y106.428 E15.00987
G1 X236.349 Y106.68 E15.04238
G1 X51.935 Y106.68 E22.63944
G1 X51.935 Y106.284 F7800
G1 F1800
G1 X51.682 Y106.284 E22.64988
G1 X51.203 Y106.136 E22.67053
G1 X50.951 Y105.974 E22.68286
G1 X50.525 Y105.547 E22.70772
G1 X50.411 Y105.39 E22.71571
G1 X50.216 Y104.816 E22.74066
G1 X50.24 Y99.05 E22.97823
G1 X50.365 Y98.699 E22.99358
G1 X50.474 Y98.516 E23.00233
G1 X50.951 Y98.027 E23.0305
G1 X51.203 Y97.864 E23.04284
G1 X51.682 Y97.716 E23.06349
G1 X236.34 Y97.72 E30.67061
G1 X236.594 Y97.78 E30.68134
G1 X237.037 Y98.015 E30.70199
G1 X237.526 Y98.516 E30.73086
G1 X237.635 Y98.699 E30.73961
G1 X237.76 Y99.05 E30.75496
G1 X237.784 Y104.818 E30.99258
G1 X237.636 Y105.297 E31.01325
G1 X237.474 Y105.549 E31.02557
G1 X237.047 Y105.975 E31.05043
G1 X236.89 Y106.089 E31.05843
G1 X236.316 Y106.284 E31.08337
G1 X51.995 Y106.284 E38.67661
G1 X51.995 Y105.887 F7800
G1 F1800
G1 X51.715 Y105.887 E38.68814
G1 X51.354 Y105.768 E38.70383
G1 X51.218 Y105.68 E38.71052
G1 X50.818 Y105.28 E38.73381
G1 X50.752 Y105.185 E38.73857
G1 X50.613 Y104.783 E38.75609
G1 X50.624 Y99.151 E38.98811
G1 X50.731 Y98.854 E39.00113
G1 X50.798 Y98.746 E39.00636
G1 X51.218 Y98.32 E39.03101
G1 X51.354 Y98.232 E39.03767
G1 X51.715 Y98.113 E39.05336
G1 X236.317 Y98.117 E46.65817
G1 X236.438 Y98.145 E46.66326
G1 X236.779 Y98.318 E46.67903
G1 X237.202 Y98.746 E46.70382
G1 X237.269 Y98.854 E46.70905
G1 X237.376 Y99.151 E46.72207
G1 X237.387 Y104.785 E46.95415
G1 X237.268 Y105.146 E46.96983
G1 X237.18 Y105.282 E46.97652
G1 X236.78 Y105.682 E46.99981
G1 X236.685 Y105.748 E47.00457
G1 X236.283 Y105.887 E47.0221
G1 X52.055 Y105.887 E54.61149
G1 X52.055 Y105.491 F7800
G1 F1800
G1 X51.752 Y105.491 E54.62397
G1 X51.485 Y105.386 E54.6358
G1 X51.114 Y105.015 E54.65743
G1 X51.009 Y104.748 E54.66926
G1 X51.009 Y99.252 E54.89564
G1 X51.114 Y98.985 E54.90747
G1 X51.485 Y98.614 E54.9291
G1 X51.752 Y98.509 E54.94093
G1 X236.263 Y98.509 E62.54196
G1 X236.526 Y98.624 E62.55379
G1 X236.886 Y98.985 E62.57481
G1 X236.991 Y99.252 E62.58663
G1 X236.991 Y104.748 E62.81301
G1 X236.886 Y105.015 E62.82484
G1 X236.515 Y105.386 E62.84647
G1 X236.248 Y105.491 E62.8583
G1 X52.115 Y105.491 E70.44376
G1 X52.115 Y105.095 F7800
G1 F1800
G1 X51.796 Y105.095 E70.45691
G1 X51.724 Y105.064 E70.46015
G1 X51.436 Y104.776 E70.47693
G1 X51.405 Y104.704 E70.48018
G1 X51.405 Y99.296 E70.70293
G1 X51.436 Y99.224 E70.70618
G1 X51.724 Y98.936 E70.72295
G1 X51.796 Y98.905 E70.7262
G1 X236.204 Y98.905 E78.32299
G1 X236.276 Y98.936 E78.32624
G1 X236.564 Y99.224 E78.34301
G1 X236.595 Y99.296 E78.34626
G1 X236.595 Y104.704 E78.56901
G1 X236.564 Y104.776 E78.57226
G1 X236.276 Y105.064 E78.58903
G1 X236.204 Y105.095 E78.59228
G1 X52.175 Y105.095 E86.17346
G1 X52.175 Y104.698 F7800
G1 F1800
G1 X51.918 Y104.698 E86.18407
G1 X51.802 Y104.582 E86.19083
G1 X51.802 Y99.418 E86.40357
G1 X51.918 Y99.302 E86.41034
G1 X236.082 Y99.302 E93.99712
G1 X236.198 Y99.418 E94.00388
G1 X236.198 Y104.582 E94.21662
G1 X236.082 Y104.698 E94.22339
G1 X52.235 Y104.698 E101.79708
G1 E95.29708 F2400
G92 E0
G1 X233.746 Y113.246 F7800
G1 E6.5 F2400
;TYPE:Perimeter
;WIDTH:0.54508
G1 F1800
G1 X54.254 Y113.246 E15.6681
G1 X54.254 Y112.754 E15.6932
G1 X233.746 Y112.754 E24.8613
G1 X233.746 Y113.186 E24.88334
G1 X234.19 Y113.69 F7800
;WIDTH:0.449999
G1 F1800
G1 X53.81 Y113.69 E32.31419
G1 X53.81 Y112.31 E32.371
G1 X234.19 Y112.31 E39.80185
G1 X234.19 Y113.63 E39.8562
G1 X234.586 Y114.086 F7800
G1 F1800
G1 X53.414 Y114.086 E47.3197
G1 X53.414 Y111.914 E47.40917
G1 X234.586 Y111.914 E54.87267
G1 X234.586 Y114.026 E54.95968
G1 X234.982 Y114.482 F7800
G1 F1800
G1 X53.018 Y114.482 E62.45583
G1 X53.018 Y111.518 E62.57796
G1 X234.982 Y111.518 E70.07412
G1 X234.982 Y114.422 E70.19378
G1 X235.379 Y114.879 F7800
G1 F1800
G1 X52.621 Y114.879 E77.72259
G1 X52.621 Y111.121 E77.87738
G1 X235.379 Y111.121 E85.40619
G1 X235.379 Y114.819 E85.5585
G1 X235.775 Y115.275 F7800
;TYPE:External perimeter
G1 F1800
G1 X52.225 Y115.275 E93.11997
G1 X52.225 Y110.725 E93.30741
G1 X235.775 Y110.725 E100.86888
G1 X235.775 Y115.215 E101.05385
G1 X235.375 Y115.272 F7800
G1 E94.55385 F2400
G92 E0
G1 X233.746 Y102.246 F7800
G1 E6.5 F2400
;TYPE:Perimeter
;WIDTH:0.54508
G1 F1800
G1 X54.254 Y102.246 E15.6681
G1 X54.254 Y101.754 E15.6932
G1 X233.746 Y101.754 E24.8613
G1 X233.746 Y102.186 E24.88334
G1 X234.19 Y102.69 F7800
;WIDTH:0.449999
G1 F1800
G1 X53.81 Y102.69 E32.31419
G1 X53.81 Y101.31 E32.371
G1 X234.19 Y101.31 E39.80185
G1 X234.19 Y102.63 E39.8562
G1 X234.586 Y103.086 F7800
G1 F1800
G1 X53.414 Y103.086 E47.3197
G1 X53.414 Y100.914 E47.40917
G1 X234.586 Y100.914 E54.87267
G1 X234.586 Y103.026 E54.95968
G1 X234.982 Y103.482 F7800
G1 F1800
G1 X53.018 Y103.482 E62.45583
G1 X53.018 Y100.518 E62.57796
G1 X234.982 Y100.518 E70.07412
G1 X234.982 Y103.422 E70.19378
G1 X235.379 Y103.879 F7800
G1 F1800
G1 X52.621 Y103.879 E77.72259
G1 X52.621 Y100.121 E77.87738
G1 X235.379 Y100.121 E85.40619
G1 X235.379 Y103.819 E85.5585
G1 X235.775 Y104.275 F7800
;TYPE:External perimeter
G1 F1800
G1 X52.225 Y104.275 E93.11997
G1 X52.225 Y99.725 E93.30741
G1 X235.775 Y99.725 E100.86888
G1 X235.775 Y104.215 E101.05385
G1 X235.375 Y104.272 F7800
;LAYER_CHANGE
;Z:0.45
;HEIGHT:0.2
G1 Z.45 F7800
M104 S212 ; set temperature
G1 E94.55385 F2400
G92 E0
G1 X233.722 Y112.778 F7800
G1 E6.5 F2400
;TYPE:Perimeter
;WIDTH:0.486065
G1 F3600
G1 X233.722 Y113.222 E6.51633
G1 X54.278 Y113.222 E13.12839
G1 X54.278 Y112.778 E13.14472
G1 X233.662 Y112.778 E19.75457
G1 X234.147 Y112.353 F7800
;WIDTH:0.449999
G1 F3600
G1 X234.147 Y113.647 E19.79835
G1 X53.853 Y113.647 E25.90105
G1 X53.853 Y112.353 E25.94483
G1 X234.087 Y112.353 E32.04551
G1 X234.554 Y111.946 F7800
G1 F3600
G1 X234.554 Y114.054 E32.11685
G1 X53.446 Y114.054 E38.24711
G1 X53.446 Y111.946 E38.31845
G1 X234.494 Y111.946 E44.44668
G1 X234.961 Y111.539 F7800
G1 F3600
G1 X234.961 Y114.461 E44.54558
G1 X53.039 Y114.461 E50.7034
G1 X53.039 Y111.539 E50.8023
G1 X234.901 Y111.539 E56.95809
G1 X235.368 Y111.132 F7800
G1 F3600
G1 X235.368 Y114.868 E57.08454
G1 X52.632 Y114.868 E63.26992
G1 X52.632 Y111.132 E63.39638
G1 X235.308 Y111.132 E69.57973
G1 X235.775 Y110.725 F7800
;TYPE:External perimeter
G1 F1800
G1 X235.775 Y115.275 E69.73374
G1 X52.225 Y115.275 E75.94668
G1 X52.225 Y110.725 E76.10069
G1 X235.715 Y110.725 E82.3116
G1 X235.578 Y111.073 F7800
G1 E75.8116 F2400
G92 E0
G1 X233.722 Y102.222 F7800
G1 E6.5 F2400
;TYPE:Perimeter
;WIDTH:0.486065
G1 F3600
G1 X54.278 Y102.222 E13.11206
G1 X54.278 Y101.778 E13.12839
G1 X233.722 Y101.778 E19.74045
G1 X233.722 Y102.162 E19.75457
G1 X234.147 Y102.647 F7800
;WIDTH:0.449999
G1 F3600
G1 X53.853 Y102.647 E25.85727
G1 X53.853 Y101.353 E25.90105
G1 X234.147 Y101.353 E32.00376
G1 X234.147 Y102.587 E32.04551
G1 X234.554 Y103.054 F7800
G1 F3600
G1 X53.446 Y103.054 E38.17577
G1 X53.446 Y100.946 E38.24711
G1 X234.554 Y100.946 E44.37738
G1 X234.554 Y102.994 E44.44668
G1 X234.961 Y103.461 F7800
G1 F3600
G1 X53.039 Y103.461 E50.60451
G1 X53.039 Y100.539 E50.7034
G1 X234.961 Y100.539 E56.86122
G1 X234.961 Y103.401 E56.95809
G1 X235.368 Y103.868 F7800
G1 F3600
G1 X52.632 Y103.868 E63.14347
G1 X52.632 Y100.132 E63.26992
G1 X235.368 Y100.132 E69.45531
G1 X235.368 Y103.808 E69.57973
G1 X235.775 Y104.275 F7800
;TYPE:External perimeter
G1 F1800
G1 X52.225 Y104.275 E75.79267
G1 X52.225 Y99.725 E75.94668
G1 X235.775 Y99.725 E82.15962
G1 X235.775 Y104.215 E82.3116
G1 X235.375 Y104.272 F7800
;LAYER_CHANGE
;Z:0.65
;HEIGHT:0.2
G1 Z.65 F7800
G1 E75.8116 F2400
G92 E0
G1 X233.722 Y112.778 F7800
G1 E6.5 F2400
;TYPE:Perimeter
;WIDTH:0.486065
G1 F3600
G1 X233.722 Y113.222 E6.51633
G1 X54.278 Y113.222 E13.12839
G1 X54.278 Y112.778 E13.14472
G1 X233.662 Y112.778 E19.75457
G1 X234.147 Y112.353 F7800
;WIDTH:0.449999
G1 F3600
G1 X234.147 Y113.647 E19.79835
G1 X53.853 Y113.647 E25.90105
G1 X53.853 Y112.353 E25.94483
G1 X234.087 Y112.353 E32.04551
G1 X234.554 Y111.946 F7800
G1 F3600
G1 X234.554 Y114.054 E32.11685
G1 X53.446 Y114.054 E38.24711
G1 X53.446 Y111.946 E38.31845
G1 X234.494 Y111.946 E44.44668
G1 X234.961 Y111.539 F7800
G1 F3600
G1 X234.961 Y114.461 E44.54558
G1 X53.039 Y114.461 E50.7034
G1 X53.039 Y111.539 E50.8023
G1 X234.901 Y111.539 E56.95809
G1 X235.368 Y111.132 F7800
G1 F3600
G1 X235.368 Y114.868 E57.08454
G1 X52.632 Y114.868 E63.26992
G1 X52.632 Y111.132 E63.39638
G1 X235.308 Y111.132 E69.57973
G1 X235.775 Y110.725 F7800
;TYPE:External perimeter
G1 F1800
G1 X235.775 Y115.275 E69.73374
G1 X52.225 Y115.275 E75.94668
