; generated by PrusaSlicer 2.5.0+win64 on 2023-05-20 at 19:52:55 UTC


;
;

;
;
; 

; external perimeters extrusion width = 0.45mm
; perimeters extrusion width = 0.45mm
; infill extrusion width = 0.45mm
; solid infill extrusion width = 0.45mm
; top infill extrusion width = 0.40mm
; support material extrusion width = 0.35mm
; first layer extrusion width = 0.42mm

M73 P0 R39
M107
;TYPE:Custom
G90 ; use absolute coordinates
M83 ; extruder relative mode
M104 S170 ; set extruder temp for bed leveling
M140 S60 ; set bed temp
M109 R170 ; wait for bed leveling temp
M190 S60 ; wait for bed temp
G28 ; home all without mesh bed level
G29 ; mesh bed leveling 
M104 S215 ; set extruder temp
G92 E0.0
G1 Y-2.0 X179 F2400
G1 Z3 F720
M109 S215 ; wait for extruder temp

; intro line
G1 X170 F1000
G1 Z0.2 F720
G1 X110.0 E8.0 F900
G1 X40.0 E10.0 F700
G92 E0.0

M221 S95 ; set flow
G21 ; set units to millimeters
G90 ; use absolute coordinates
M83 ; use relative distances for extrusion
M900 K0.2 ; Filament gcode LA 1.5
; ; Filament gcode LA 1.0
M107
;LAYER_CHANGE
;Z:0.2
;HEIGHT:0.2
;BEFORE_LAYER_CHANGE
G92 E0.0
;0.2


G1 E-3.2 F4200
G1 Z.2 F10800
;AFTER_LAYER_CHANGE
;0.2
G1 Z.4
G1 X83.36 Y47.317
G1 Z.2
G1 E3.2 F2400
M204 S800
;TYPE:Skirt/Brim
;WIDTH:0.42
G1 F2100
G1 X83.934 Y46.359 E.03502
G1 X84.719 Y45.632 E.03356
G1 X85.686 Y45.146 E.03392
G1 X86.803 Y44.944 E.0356
G1 X93.1 Y44.942 E.19742
G1 X93.791 Y45.008 E.02178
G1 X94.508 Y45.217 E.02341
G1 X95.144 Y45.541 E.02237
G1 X95.724 Y45.991 E.02304
G1 X96.184 Y46.51 E.02174
G1 X96.556 Y47.129 E.02264
G1 X96.812 Y47.826 E.02328
G1 X96.925 Y48.506 E.02161
G1 X97.838 Y93.48 E1.41041
G1 X98.06 Y119.908 E.82866
G1 X97.695 Y121.285 E.0447
G1 X97.523 Y121.578 E.01065
G1 X96.456 Y122.591 E.04612
G1 X95.163 Y122.913 E.04177
G1 X84.838 Y122.913 E.32375
G1 X83.42 Y122.52 E.04612
G1 X82.476 Y121.577 E.04184
G1 X82.296 Y121.268 E.01121
G1 X81.94 Y119.918 E.04377
G1 X82.171 Y92.867 E.84819
G1 X83.085 Y48.388 E1.3949
G1 X83.345 Y47.375 E.0328
M204 S1250
G1 X83.706 Y47.467 F10800
M204 S800
G1 F2100
G1 X84.225 Y46.598 E.03173
G1 X84.983 Y45.909 E.03213
G1 X85.879 Y45.479 E.03114
G1 X86.816 Y45.321 E.02981
G1 X93.097 Y45.319 E.19692
G1 X93.723 Y45.379 E.01971
G1 X94.37 Y45.568 E.02113
G1 X94.963 Y45.873 E.02093
G1 X95.484 Y46.283 E.0208
G1 X95.915 Y46.781 E.02064
G1 X96.25 Y47.364 E.02108
G1 X96.453 Y47.946 E.01932
G1 X96.554 Y48.601 E.02078
G1 X97.461 Y93.486 E1.40762
G1 X97.683 Y119.908 E.82849
G1 X97.368 Y121.098 E.03858
M73 P1 R39
G1 X97.2 Y121.384 E.01041
G1 X96.191 Y122.302 E.04278
G1 X95.163 Y122.536 E.03304
G1 X84.838 Y122.536 E.32375
G1 X83.531 Y122.144 E.04278
G1 X82.8 Y121.383 E.03309
G1 X82.624 Y121.083 E.01089
G1 X82.317 Y119.918 E.03778
G1 X82.548 Y92.874 E.84797
G1 X83.46 Y48.427 E1.39389
G1 X83.691 Y47.526 E.02918
M204 S1250
; printing object Bieröffner - oeffner (1).stl id:0 copy 0
G1 E-2.24 F4200
;WIPE_START
G1 F8640
G1 X84.225 Y46.598 E-.49401
G1 X84.894 Y45.989 E-.41799
;WIPE_END
G1 E-.048 F4200
G1 Z.4 F10800
G1 X86.807 Y53.361
G1 Z.2
G1 E3.2 F2400
M204 S800
;TYPE:Perimeter
;WIDTH:0.419999
G1 F2100
G1 X87.054 Y53.796 E.01569
G1 X87.572 Y54.398 E.0249
G1 X88.273 Y54.913 E.02726
G1 X88.754 Y55.129 E.01653
G1 X89.417 Y55.307 E.02152
G1 X90.082 Y55.357 E.02094
G1 X90.721 Y55.283 E.02015
G1 X91.457 Y55.045 E.02425
G1 X92.139 Y54.64 E.02489
G1 X92.645 Y54.176 E.02151
G1 X92.971 Y53.763 E.01652
G1 X93.196 Y53.324 E.01546
G1 X93.574 Y75.283 E.68861
G1 X93.879 Y85.184 E.3106
G1 X94.02 Y93.54 E.26203
G1 X94.202 Y110.821 E.54186
G1 X94.238 Y119.095 E.25941
G1 X85.762 Y119.095 E.26577
G1 X85.799 Y110.763 E.26122
M73 P1 R38
G1 X85.989 Y92.928 E.55924
G1 X86.118 Y85.323 E.23849
G1 X86.426 Y75.283 E.31495
G1 X86.806 Y53.421 E.68558
M204 S1250
G1 E-2.24 F4200
;WIPE_START
G1 F8640
G1 X87.054 Y53.796 E-.20772
G1 X87.572 Y54.398 E-.36679
G1 X88.161 Y54.831 E-.33749
;WIPE_END
G1 E-.048 F4200
G1 Z.4 F10800
G1 X88.412 Y54.418
G1 X88.465 Y54.45
G1 X88.583 Y54.515
G1 X88.702 Y54.574
G1 X88.825 Y54.628
G1 X88.943 Y54.674
G1 X88.959 Y54.68
G1 X89.078 Y54.72
G1 X89.206 Y54.758
G1 X89.336 Y54.79
G1 X89.466 Y54.815
G1 X89.591 Y54.835
G1 X89.607 Y54.837
G1 X89.733 Y54.851
G1 X89.866 Y54.859
G1 X90 Y54.862
G1 X90.133 Y54.86
G1 X90.262 Y54.851
G1 X90.277 Y54.85
G1 X90.4 Y54.836
G1 X90.532 Y54.816
G1 X90.663 Y54.79
G1 X90.793 Y54.758
G1 X90.921 Y54.721
G1 X91.047 Y54.678
G1 X91.171 Y54.63
G1 X91.288 Y54.579
G1 X91.302 Y54.572
G1 X91.415 Y54.516
G1 X91.532 Y54.452
G1 X91.646 Y54.383
G1 X91.757 Y54.309
G1 X91.865 Y54.23
G1 X91.965 Y54.15
G1 X91.977 Y54.139
G1 X92.071 Y54.057
G1 X92.168 Y53.964
G1 X92.259 Y53.869
G1 X92.347 Y53.769
G1 X92.431 Y53.665
G1 X92.507 Y53.562
G1 X92.516 Y53.548
G1 X92.586 Y53.444
G1 X92.655 Y53.33
G1 X92.719 Y53.212
G1 X92.779 Y53.092
G1 X92.83 Y52.976
G1 X92.836 Y52.961
G1 X92.881 Y52.845
G1 X92.924 Y52.719
G1 X92.961 Y52.59
G1 X92.993 Y52.461
G1 X93.019 Y52.33
G1 X93.039 Y52.202
G1 X93.041 Y52.186
G1 X93.054 Y52.064
G1 X93.063 Y51.93
G1 X93.066 Y51.796
G1 X93.063 Y51.662
G1 X93.054 Y51.529
G1 X93.04 Y51.396
G1 X93.019 Y51.264
G1 X92.993 Y51.132
G1 X92.961 Y51.002
G1 X92.924 Y50.874
G1 X92.881 Y50.748
G1 X92.832 Y50.623
G1 X92.779 Y50.501
G1 X92.72 Y50.381
G1 X92.655 Y50.264
G1 X92.586 Y50.149
G1 X92.511 Y50.038
G1 X92.432 Y49.93
G1 X92.349 Y49.826
G1 X92.26 Y49.725
G1 X92.168 Y49.629
G1 X92.071 Y49.536
G1 X91.97 Y49.448
G1 X91.866 Y49.364
G1 X91.76 Y49.286
G1 X92.093 Y48.832
G1 Z.2
G1 E3.2 F2400
M204 S800
;WIDTH:0.559433
G1 F2100
G1 X92.995 Y48.831 E.03875
G1 X93.05 Y48.881 E.00318
G1 X93.066 Y49.855 E.04184
G1 X93 Y49.754 E.00518
G1 X92.504 Y49.167 E.03304
G1 X92.14 Y48.87 E.02018
M204 S1250
G1 E-3.2 F4200
G1 Z.4 F10800
G1 X87.897 Y48.838
G1 Z.2
G1 E3.2 F2400
M204 S800
;WIDTH:0.562495
G1 F2100
G1 X87.307 Y49.364 E.03417
G1 X86.94 Y49.842 E.02603
G1 X86.957 Y48.839 E.04335
G1 X87.837 Y48.838 E.038
M204 S1250
G1 X87.317 Y50.093 F10800
M204 S800
;WIDTH:0.419999
G1 F2100
G1 X87.61 Y49.695 E.0155
G1 X88.116 Y49.231 E.02154
G1 X88.594 Y48.941 E.01753
G1 X89.243 Y48.719 E.0215
;WIDTH:0.391921
G1 X89.937 Y48.65 E.02024
;WIDTH:0.364034
G1 X90.501 Y48.679 E.01506
;WIDTH:0.392017
G1 X90.831 Y48.755 E.00983
;WIDTH:0.419999
G1 X91.161 Y48.831 E.01062
G1 X91.774 Y49.152 E.02169
G1 X92.217 Y49.509 E.01784
G1 X92.652 Y50.034 E.02138
G1 X92.924 Y50.532 E.01779
;WIDTH:0.43172
G1 X93.104 Y51.056 E.01793
G1 X93.18 Y51.735 E.02208
;WIDTH:0.437075
G1 X93.154 Y52.302 E.01861
G1 X93.014 Y52.821 E.01762
;WIDTH:0.419999
G1 X92.724 Y53.444 E.02153
G1 X92.391 Y53.898 E.01767
G1 X91.885 Y54.362 E.02151
G1 X91.275 Y54.714 E.02207
G1 X90.615 Y54.921 E.02169
G1 X90.049 Y54.982 E.01784
G1 X89.514 Y54.942 E.01683
G1 X88.851 Y54.765 E.02152
G1 X88.346 Y54.516 E.01767
G1 X87.802 Y54.099 E.02148
G1 X87.348 Y53.56 E.02209
G1 X87.076 Y53.061 E.01782
;WIDTH:0.441819
G1 X86.891 Y52.537 E.01842
G1 X86.825 Y52.016 E.01744
;WIDTH:0.425352
G1 X86.851 Y51.315 E.02229
G1 X86.987 Y50.771 E.01784
;WIDTH:0.419999
G1 X87.282 Y50.142 E.02179
M204 S1250
G1 E-3.2 F4200
G1 Z.4 F10800
G1 X86.747 Y48.458
G1 Z.2
G1 E3.2 F2400
M204 S800
G1 F2100
G1 X86.888 Y48.39 E.00488
G1 X88.496 Y48.389 E.05044
G1 X89.354 Y48.366 E.0269
;WIDTH:0.375587
G1 X90.053 Y48.349 E.01935
;WIDTH:0.383549
G1 X90.653 Y48.368 E.017
;WIDTH:0.419999
G1 X91.224 Y48.386 E.01791
G1 X92.794 Y48.384 E.04923
G1 X93.23 Y48.423 E.01373
G1 X93.409 Y48.577 E.0074
G1 X93.495 Y48.826 E.00827
G1 X93.525 Y50.531 E.05346
;WIDTH:0.439029
G1 X93.551 Y51.858 E.04372
;WIDTH:0.419999
G1 X93.951 Y75.276 E.73435
G1 X94.256 Y85.175 E.31053
G1 X94.397 Y93.535 E.26215
G1 X94.579 Y110.819 E.54197
G1 X94.617 Y119.472 E.27129
G1 X85.383 Y119.472 E.28953
G1 X85.422 Y110.761 E.27313
G1 X85.612 Y92.923 E.55931
G1 X85.741 Y85.314 E.23861
G1 X86.049 Y75.277 E.31487
G1 X86.433 Y53.213 E.69191
;WIDTH:0.441819
G1 X86.452 Y51.989 E.04058
;WIDTH:0.434708
G1 X86.477 Y50.653 E.04353
;WIDTH:0.419999
G1 X86.51 Y48.768 E.05913
G1 X86.628 Y48.516 E.00871
G1 X86.693 Y48.484 E.00229
M204 S1250
G1 X86.571 Y48.091 F10800
M204 S800
;TYPE:External perimeter
G1 F2100
G1 X86.832 Y48.013 E.00856
G1 X92.988 Y48.007 E.19301
G1 X93.377 Y48.068 E.01235
G1 X93.633 Y48.236 E.0096
G1 X93.804 Y48.486 E.00949
G1 X93.872 Y48.78 E.00946
G1 X94.328 Y75.27 E.83068
G1 X94.633 Y85.166 E.31045
G1 X94.774 Y93.53 E.26227
G1 X94.956 Y110.818 E.54208
G1 X94.986 Y119.849 E.28316
G1 X85.029 Y119.849 E.31217
G1 X85.004 Y119.83 E.00097
G1 X85.045 Y110.758 E.28447
G1 X85.235 Y92.918 E.55938
G1 X85.364 Y85.305 E.23873
G1 X85.672 Y75.273 E.31471
G1 X86.132 Y48.82 E.82954
G1 X86.203 Y48.468 E.01126
G1 X86.354 Y48.249 E.00833
G1 X86.522 Y48.127 E.00652
M204 S1250
G1 X86.798 Y48.243 F10800
G1 E-3.2 F4200
G1 Z.4 F10800
G1 X87.618 Y50.308
G1 Z.2
G1 E3.2 F2400
M204 S800
G1 F2100
G1 X87.945 Y49.898 E.01644
G1 X88.371 Y49.509 E.01809
G1 X88.723 Y49.295 E.01293
G1 X89.367 Y49.06 E.02149
G1 X89.974 Y48.988 E.01917
G1 X90.507 Y49.034 E.01677
G1 X91.055 Y49.193 E.0179
G1 X91.593 Y49.483 E.01913
G1 X91.993 Y49.816 E.01634
G1 X92.358 Y50.27 E.01826
G1 X92.602 Y50.736 E.0165
G1 X92.747 Y51.207 E.01546
G1 X92.809 Y51.776 E.01793
G1 X92.768 Y52.282 E.01591
G1 X92.672 Y52.662 E.01231
G1 X92.382 Y53.285 E.02153
G1 X92.136 Y53.62 E.01305
G1 X91.63 Y54.084 E.02151
G1 X91.094 Y54.384 E.01926
G1 X90.51 Y54.559 E.01914
G1 X90 Y54.607 E.01605
G1 X89.611 Y54.578 E.01222
G1 X88.948 Y54.401 E.02152
G1 X88.575 Y54.217 E.01305
G1 X88.031 Y53.8 E.02148
G1 X87.642 Y53.324 E.01927
G1 X87.398 Y52.856 E.01654
G1 X87.254 Y52.393 E.01522
G1 X87.2 Y52.017 E.0119
G1 X87.23 Y51.332 E.02151
G1 X87.329 Y50.93 E.01297
G1 X87.593 Y50.362 E.01963
M204 S1250
G1 X87.435 Y49.953 F10800
G1 E-2.24 F4200
;WIPE_START
G1 F8640
G1 X87.945 Y49.898 E-.26908
G1 X88.371 Y49.509 E-.26641
G1 X88.723 Y49.295 E-.19037
G1 X89.102 Y49.157 E-.18613
;WIPE_END
G1 E-.048 F4200
G1 Z.4 F10800
G1 X89.013 Y48.895
G1 X89.08 Y48.872
G1 X89.208 Y48.835
G1 X89.336 Y48.803
G1 X89.468 Y48.777
G1 X89.6 Y48.757
G1 X89.733 Y48.742
G1 X89.866 Y48.734
G1 X89.997 Y48.731
G1 X90.133 Y48.734
G1 X90.267 Y48.742
G1 X90.4 Y48.757
G1 X90.532 Y48.777
G1 X90.663 Y48.803
G1 X90.793 Y48.835
G1 X90.922 Y48.873
G1 X91.048 Y48.915
G1 X91.173 Y48.964
G1 X91.295 Y49.018
G1 X91.415 Y49.077
G1 X91.533 Y49.141
G1 X91.647 Y49.211
G1 X91.759 Y49.285
G1 X91.866 Y49.364
G1 X91.97 Y49.448
G1 X92.071 Y49.536
G1 X92.168 Y49.629
G1 X92.26 Y49.725
G1 X92.349 Y49.826
G1 X92.432 Y49.93
G1 X92.511 Y50.038
G1 X92.586 Y50.149
G1 X92.655 Y50.264
G1 X92.72 Y50.381
G1 X92.779 Y50.501
G1 X92.832 Y50.623
G1 X92.881 Y50.748
G1 X92.924 Y50.874
G1 X92.961 Y51.002
G1 X92.993 Y51.132
G1 X93.019 Y51.264
G1 X93.04 Y51.396
G1 X93.054 Y51.529
G1 X93.063 Y51.662
G1 X93.066 Y51.796
G1 X93.063 Y51.93
G1 X93.054 Y52.064
G1 X93.041 Y52.186
G1 X93.039 Y52.202
G1 X93.019 Y52.33
G1 X92.993 Y52.461
G1 X92.961 Y52.59
G1 X92.924 Y52.719
G1 X92.881 Y52.845
G1 X92.836 Y52.961
G1 X92.83 Y52.976
G1 X92.779 Y53.092
G1 X92.719 Y53.212
G1 X92.655 Y53.33
G1 X92.586 Y53.444
G1 X92.516 Y53.548
G1 X92.507 Y53.562
G1 X92.431 Y53.665
G1 X92.347 Y53.769
G1 X92.306 Y53.816
G1 X92.759 Y54.214
G1 Z.2
G1 E3.2 F2400
M204 S800
;TYPE:Solid infill
;WIDTH:0.422632
G1 F2100
G1 X92.931 Y54.386 E.00771
G1 X92.941 Y54.933 E.01725
G1 X92.605 Y54.597 E.015
G1 X92.324 Y54.854 E.012
G1 X92.95 Y55.479 E.02794
G1 X92.959 Y56.026 E.01725
G1 X92.002 Y55.068 E.04274
G1 X91.655 Y55.259 E.01249
G1 X92.969 Y56.572 E.05865
G1 X92.978 Y57.118 E.01725
G1 X91.276 Y55.416 E.07603
G1 X90.86 Y55.537 E.01367
G1 X92.988 Y57.665 E.09501
G1 X92.997 Y58.211 E.01725
G1 X90.399 Y55.613 E.116
G1 X90.101 Y55.639 E.00945
G1 X89.88 Y55.631 E.007
G1 X93.007 Y58.758 E.13963
G1 X93.016 Y59.304 E.01725
G1 X89.273 Y55.561 E.16714
G1 X88.676 Y55.401 E.0195
G1 X88.516 Y55.341 E.00539
G1 X93.025 Y59.85 E.20135
G1 X93.035 Y60.397 E.01725
G1 X87.072 Y54.434 E.26627
G1 X87.062 Y54.961 E.01667
G1 X93.044 Y60.943 E.2671
G1 X93.054 Y61.49 E.01725
G1 X87.053 Y55.489 E.26793
G1 X87.044 Y56.017 E.01667
G1 X93.063 Y62.036 E.26876
G1 X93.072 Y62.582 E.01725
G1 X87.035 Y56.545 E.26959
G1 X87.026 Y57.073 E.01667
G1 X93.082 Y63.129 E.27042
G1 X93.091 Y63.675 E.01725
M73 P2 R38
G1 X87.016 Y57.601 E.27125
G1 X87.007 Y58.128 E.01667
G1 X93.101 Y64.222 E.27208
G1 X93.11 Y64.768 E.01725
G1 X86.998 Y58.656 E.27291
G1 X86.989 Y59.184 E.01667
G1 X93.119 Y65.315 E.27374
G1 X93.129 Y65.861 E.01725
G1 X86.98 Y59.712 E.27457
G1 X86.971 Y60.24 E.01667
G1 X93.138 Y66.407 E.2754
G1 X93.148 Y66.954 E.01725
G1 X86.961 Y60.767 E.27623
G1 X86.952 Y61.295 E.01667
G1 X93.157 Y67.5 E.27706
G1 X93.167 Y68.047 E.01725
G1 X86.943 Y61.823 E.27789
G1 X86.934 Y62.351 E.01667
G1 X93.176 Y68.593 E.27872
G1 X93.185 Y69.139 E.01725
G1 X86.925 Y62.879 E.27955
G1 X86.916 Y63.407 E.01667
G1 X93.195 Y69.686 E.28038
G1 X93.204 Y70.232 E.01725
G1 X86.906 Y63.934 E.2812
G1 X86.897 Y64.462 E.01667
G1 X93.214 Y70.779 E.28203
G1 X93.223 Y71.325 E.01725
G1 X86.888 Y64.99 E.28286
G1 X86.879 Y65.518 E.01667
G1 X93.232 Y71.871 E.28369
G1 X93.242 Y72.418 E.01725
G1 X86.87 Y66.046 E.28452
G1 X86.86 Y66.573 E.01667
G1 X93.251 Y72.964 E.28535
G1 X93.261 Y73.511 E.01725
G1 X86.851 Y67.101 E.28618
G1 X86.842 Y67.629 E.01667
G1 X93.27 Y74.057 E.28701
G1 X93.279 Y74.603 E.01725
G1 X86.833 Y68.157 E.28784
G1 X86.824 Y68.685 E.01667
G1 X93.289 Y75.15 E.28867
G1 X93.304 Y75.702 E.01744
G1 X86.815 Y69.212 E.28976
G1 X86.805 Y69.74 E.01667
G1 X93.321 Y76.256 E.29093
G1 X93.338 Y76.81 E.0175
G1 X86.796 Y70.268 E.2921
G1 X86.787 Y70.796 E.01667
G1 X93.355 Y77.364 E.29327
G1 X93.372 Y77.918 E.0175
G1 X86.778 Y71.324 E.29445
G1 X86.769 Y71.852 E.01667
G1 X93.389 Y78.472 E.29562
G1 X93.406 Y79.026 E.0175
G1 X86.76 Y72.379 E.29679
G1 X86.75 Y72.907 E.01667
G1 X93.423 Y79.58 E.29796
G1 X93.44 Y80.134 E.0175
G1 X86.741 Y73.435 E.29913
G1 X86.732 Y73.963 E.01667
G1 X93.458 Y80.688 E.3003
G1 X93.475 Y81.242 E.0175
G1 X86.723 Y74.491 E.30148
G1 X86.714 Y75.018 E.01667
G1 X93.492 Y81.797 E.30265
G1 X93.509 Y82.351 E.0175
G1 X86.701 Y75.543 E.30397
G1 X86.685 Y76.064 E.01646
G1 X93.526 Y82.905 E.30544
G1 X93.543 Y83.459 E.0175
G1 X86.669 Y76.585 E.30692
G1 X86.653 Y77.106 E.01646
G1 X93.56 Y84.013 E.3084
G1 X93.577 Y84.567 E.0175
G1 X86.637 Y77.627 E.30987
G1 X86.621 Y78.148 E.01646
G1 X93.594 Y85.121 E.31135
G1 X93.604 Y85.668 E.01728
G1 X86.605 Y78.669 E.31252
G1 X86.589 Y79.19 E.01646
G1 X93.614 Y86.214 E.31364
G1 X93.623 Y86.761 E.01725
G1 X86.573 Y79.711 E.31477
G1 X86.557 Y80.232 E.01646
G1 X93.632 Y87.307 E.3159
G1 X93.641 Y87.853 E.01725
G1 X86.541 Y80.753 E.31702
G1 X86.525 Y81.274 E.01646
G1 X93.65 Y88.399 E.31815
G1 X93.66 Y88.945 E.01725
G1 X86.509 Y81.795 E.31927
G1 X86.493 Y82.316 E.01646
G1 X93.669 Y89.492 E.3204
G1 X93.678 Y90.038 E.01725
G1 X86.477 Y82.837 E.32153
G1 X86.461 Y83.358 E.01646
G1 X93.687 Y90.584 E.32265
G1 X93.697 Y91.13 E.01725
G1 X86.445 Y83.879 E.32378
G1 X86.429 Y84.4 E.01646
G1 X93.706 Y91.677 E.32491
G1 X93.715 Y92.223 E.01725
G1 X86.413 Y84.921 E.32603
G1 X86.399 Y85.444 E.0165
G1 X93.724 Y92.769 E.32709
G1 X93.734 Y93.315 E.01725
G1 X86.39 Y85.972 E.3279
G1 X86.381 Y86.5 E.01667
G1 X93.741 Y93.859 E.32862
G1 X93.746 Y94.402 E.01714
G1 X86.372 Y87.028 E.32928
G1 X86.363 Y87.556 E.01667
G1 X93.752 Y94.945 E.32993
G1 X93.758 Y95.488 E.01714
G1 X86.354 Y88.084 E.33058
G1 X86.345 Y88.612 E.01667
G1 X93.764 Y96.03 E.33124
G1 X93.769 Y96.573 E.01714
G1 X86.336 Y89.14 E.33189
G1 X86.327 Y89.668 E.01667
G1 X93.775 Y97.116 E.33255
G1 X93.781 Y97.658 E.01714
G1 X86.318 Y90.196 E.3332
G1 X86.309 Y90.724 E.01667
G1 X93.786 Y98.201 E.33386
G1 X93.792 Y98.744 E.01714
G1 X86.3 Y91.252 E.33451
G1 X86.291 Y91.78 E.01667
G1 X93.798 Y99.286 E.33516
G1 X93.803 Y99.829 E.01714
G1 X86.283 Y92.308 E.33582
G1 X86.274 Y92.836 E.01667
G1 X93.809 Y100.372 E.33647
G1 X93.815 Y100.915 E.01714
G1 X86.267 Y93.367 E.33701
G1 X86.262 Y93.898 E.01678
G1 X93.821 Y101.457 E.33752
G1 X93.826 Y102 E.01714
G1 X86.256 Y94.43 E.33802
G1 X86.25 Y94.961 E.01678
G1 X93.832 Y102.543 E.33853
G1 X93.838 Y103.085 E.01714
M73 P3 R38
G1 X86.245 Y95.492 E.33904
G1 X86.239 Y96.024 E.01678
G1 X93.843 Y103.628 E.33955
