; generated by PrusaSlicer 2.5.0+win64 on 2023-04-25 at 11:17:07 UTC

; 

; external perimeters extrusion width = 0.45mm
; perimeters extrusion width = 0.45mm
; infill extrusion width = 0.45mm
; solid infill extrusion width = 0.45mm
; top infill extrusion width = 0.40mm
; first layer extrusion width = 0.45mm

M107
M190 S55 ; set bed temperature and wait for it to be reached
M104 S215 ; set temperature
;TYPE:Custom
;CUSTOM SLICING PROFILE FOR ANISOPRINT A4
T0 R ; switch extruder
G28 ; home all axes
G1 Z10 F900 ; lift nozzle

M106 P1 S255; max Fanspeed as workaround
M109 S215 ; set temperature and wait for it to be reached
G21 ; set units to millimeters
G90 ; use absolute coordinates
M82 ; use absolute distances for extrusion
G92 E0
; Filament gcode
M107
;LAYER_CHANGE
;Z:0.25
;HEIGHT:0.25
G1 Z.25 F7800
G1 E-6.5 F2400
G92 E0
G1 X119.988 Y87.177 F7800
G1 E6.5 F2400
;TYPE:Skirt/Brim
;WIDTH:0.45
G1 F1800
G1 X123.163 Y82.808 E6.72247
G1 X124.908 Y81.081 E6.82362
G1 X126.955 Y80.052 E6.918
G1 X141.656 Y75.275 E7.55478
G1 X144.083 Y74.905 E7.65593
G1 X146.344 Y75.275 E7.75031
G1 X161.045 Y80.052 E8.38708
G1 X163.226 Y81.179 E8.48823
G1 X164.837 Y82.808 E8.58262
G1 X173.923 Y95.313 E9.21939
G1 X175.026 Y97.506 E9.32054
G1 X175.372 Y99.771 E9.41492
G1 X175.372 Y115.229 E10.0517