; generated by PrusaSlicer 2.6.1+win64 on 2023-11-09 at 12:26:31 UTC


;
;

;
;

;
;
; 

; external perimeters extrusion width = 0.45mm
; perimeters extrusion width = 0.45mm
; infill extrusion width = 0.45mm
; solid infill extrusion width = 0.45mm
; top infill extrusion width = 0.42mm
; first layer extrusion width = 0.50mm

M73 P0 R1
M201 X4000 Y4000 Z400 E5000 ; sets maximum accelerations, mm/sec^2
M203 X400 Y400 Z12 E80 ; sets maximum feedrates, mm / sec
M204 P4000 R1250 T4000 ; sets acceleration (P, T) and retract acceleration (R), mm/sec^2
M205 X1.00 Y1.00 Z1.00 E1.00 ; sets the jerk limits, mm/sec
M205 S0 T0 ; sets the minimum extruding and travel feed rate, mm/sec
;TYPE:Custom
M862.3 P "MINI" ; printer model check
M862.1 P0.4 ; nozzle diameter check
M862.5 P2 ; g-code level check
M862.6 P"Input shaper" ; FW feature check
G90 ; use absolute coordinates
M83 ; extruder relative mode
M104 S170 ; set extruder temp for bed leveling
M140 S60 ; set bed temp
M109 R170 ; wait for bed leveling temp
M190 S60 ; wait for bed temp
M569 S1 X Y ; set stealthchop for X Y
M204 T1250 ; set travel acceleration
G28 ; home all without mesh bed level
G29 ; mesh bed leveling 
M104 S230 ; set extruder temp
G92 E0
G1 Y-2 X179 F2400
G1 Z3 F720
M109 S230 ; wait for extruder temp

; intro line
M73 P4 R1
G1 X170 F1000
M73 P5 R1
G1 Z0.2 F720
G1 X110 E8 F900
G1 X40 E10 F700
G92 E0

M569 S0 X Y ; set spreadcycle for X Y
M204 T4000 ; restore travel acceleration
M572 W0.06 ; set smooth time
M221 S95 ; set flow
G21 ; set units to millimeters
G90 ; use absolute coordinates
M83 ; use relative distances for extrusion
M572 S0.3
M107
;LAYER_CHANGE
;Z:0.2
;HEIGHT:0.2
;BEFORE_LAYER_CHANGE
G92 E0.0
;0.2
M201 X4000 Y4000
M74 W0

M73 P10 R1
G1 Z.2 F720
;AFTER_LAYER_CHANGE
;0.2
M204 T3000
M73 P16 R1
G1 X85.871 Y67.477 F6000
M204 P3000
;TYPE:Skirt/Brim
;WIDTH:0.5
G1 F2400
M73 P17 R1
G1 X86.579 Y66.685 E.04037
G1 X87.227 Y66.194 E.0309
G1 X88.049 Y65.803 E.0346
G1 X88.837 Y65.599 E.03094
G1 X91.099 Y65.59 E.08597
G1 X91.855 Y65.77 E.02954
G1 X92.594 Y66.09 E.03061
G1 X93.235 Y66.524 E.02942
G1 X93.811 Y67.078 E.03037
G1 X94.299 Y67.752 E.03163
G1 X94.661 Y68.533 E.03272
G1 X94.892 Y69.665 E.04391
G1 X94.892 Y110.334 E1.54568
G1 X94.673 Y111.434 E.04263
M73 P18 R1
G1 X94.433 Y112.002 E.02344
G1 X94.129 Y112.523 E.02293
G1 X93.421 Y113.315 E.04037
G1 X92.773 Y113.806 E.0309
G1 X91.951 Y114.197 E.0346
G1 X91.167 Y114.4 E.03078
G1 X89.236 Y114.443 E.07341
G1 X88.084 Y114.211 E.04466
M73 P19 R1
G1 X87.302 Y113.849 E.03275
G1 X86.627 Y113.36 E.03168
G1 X86.033 Y112.734 E.0328
G1 X85.571 Y112.013 E.03255
G1 X85.266 Y111.236 E.03172
G1 X85.115 Y110.405 E.0321
G1 X85.108 Y69.666 E1.54834
G1 X85.327 Y68.566 E.04263
M73 P20 R1
G1 X85.567 Y67.998 E.02344
G1 X85.841 Y67.529 E.02064
G1 X86.235 Y67.76 F6000
G1 F2400
G1 X86.903 Y67.009 E.0382
G1 X87.482 Y66.574 E.02752
G1 X88.222 Y66.226 E.03108
G1 X88.921 Y66.049 E.0274
G1 X91.022 Y66.042 E.07985
G1 X91.695 Y66.198 E.02626
G1 X92.358 Y66.482 E.02741
G1 X92.932 Y66.867 E.02627
G1 X93.479 Y67.393 E.02884
G1 X93.915 Y67.999 E.02837
G1 X94.234 Y68.699 E.02924
G1 X94.435 Y69.688 E.03836
G1 X94.435 Y110.312 E1.54397
G1 X94.243 Y111.279 E.03747
M73 P21 R1
G1 X94.031 Y111.785 E.02085
G1 X93.747 Y112.271 E.02139
G1 X93.097 Y112.991 E.03687
G1 X92.518 Y113.426 E.02752
G1 X91.778 Y113.774 E.03108
G1 X91.081 Y113.95 E.02732
G1 X89.253 Y113.986 E.06949
G1 X88.249 Y113.784 E.03892
G1 X87.549 Y113.465 E.02924
G1 X86.942 Y113.028 E.02843
G1 X86.404 Y112.466 E.02957
M73 P22 R1
G1 X85.988 Y111.824 E.02907
G1 X85.7 Y111.091 E.02993
G1 X85.568 Y110.345 E.02879
G1 X85.565 Y69.688 E1.54522
G1 X85.757 Y68.721 E.03747
M73 P23 R1
G1 X85.969 Y68.215 E.02085
G1 X86.205 Y67.812 E.01775
G1 X86.599 Y68.043 F6000
G1 F2400
G1 X86.635 Y67.982 E.00269
G1 X87.225 Y67.334 E.03331
G1 X87.734 Y66.956 E.0241
G1 X88.393 Y66.651 E.0276
G1 X89.004 Y66.499 E.02393
G1 X90.944 Y66.493 E.07373
G1 X91.571 Y66.638 E.02446
G1 X92.155 Y66.892 E.0242
G1 X92.658 Y67.234 E.02312
G1 X93.145 Y67.706 E.02578
G1 X93.529 Y68.245 E.02515
G1 X93.807 Y68.862 E.02572
G1 X93.978 Y69.71 E.03288
G1 X93.978 Y110.29 E1.5423
G1 X93.812 Y111.124 E.03232
M73 P24 R1
G1 X93.615 Y111.594 E.01937
G1 X93.365 Y112.018 E.01871
G1 X92.775 Y112.666 E.03331
G1 X92.266 Y113.044 E.0241
G1 X91.607 Y113.349 E.0276
G1 X90.998 Y113.5 E.02385
G1 X89.27 Y113.528 E.06568
G1 X88.413 Y113.357 E.03321
G1 X87.795 Y113.079 E.02575
G1 X87.255 Y112.695 E.02518
G1 X86.774 Y112.196 E.02634
G1 X86.405 Y111.634 E.02555
G1 X86.135 Y110.946 E.02809
G1 X86.022 Y110.288 E.02537
G1 X86.022 Y69.71 E1.54222
G1 X86.188 Y68.876 E.03232
M73 P25 R1
G1 X86.385 Y68.406 E.01937
G1 X86.568 Y68.095 E.01371
G1 X86.962 Y68.327 F6000
M73 P26 R1
G1 F2400
G1 X87.016 Y68.235 E.00405
G1 X87.545 Y67.661 E.02967
G1 X87.984 Y67.339 E.02069
G1 X88.562 Y67.076 E.02413
G1 X89.084 Y66.95 E.02041
G1 X90.869 Y66.944 E.06784
G1 X91.409 Y67.067 E.02105
G1 X91.952 Y67.302 E.02249
G1 X92.382 Y67.598 E.01984
G1 X92.81 Y68.017 E.02276
G1 X93.141 Y68.488 E.02188
G1 X93.379 Y69.024 E.02229
G1 X93.521 Y69.733 E.02748
G1 X93.521 Y110.267 E1.54055
G1 X93.381 Y110.97 E.02724
M73 P27 R1
G1 X93.213 Y111.376 E.0167
G1 X92.984 Y111.765 E.01716
G1 X92.455 Y112.339 E.02967
G1 X92.016 Y112.661 E.02069
G1 X91.438 Y112.924 E.02413
G1 X90.916 Y113.05 E.02041
G1 X89.288 Y113.071 E.06188
G1 X88.574 Y112.929 E.02767
G1 X88.039 Y112.691 E.02225
G1 X87.567 Y112.359 E.02193
G1 X87.142 Y111.924 E.02311
G1 X86.82 Y111.441 E.02206
G1 X86.58 Y110.842 E.02453
G1 X86.479 Y110.267 E.02219
G1 X86.479 Y69.733 E1.54055
G1 X86.619 Y69.03 E.02724
M73 P28 R1
G1 X86.787 Y68.624 E.0167
G1 X86.931 Y68.379 E.0108
G1 X87.323 Y68.612 F6000
G1 F2400
G1 X87.395 Y68.491 E.00535
G1 X87.863 Y67.99 E.02606
G1 X88.231 Y67.725 E.01724
G1 X88.727 Y67.503 E.02065
G1 X89.162 Y67.401 E.01698
G1 X90.793 Y67.396 E.06199
G1 X91.286 Y67.507 E.01921
G1 X91.746 Y67.71 E.01911
G1 X92.103 Y67.961 E.01659
G1 X92.472 Y68.326 E.01973
G1 X92.752 Y68.729 E.01865
G1 X92.95 Y69.183 E.01882
G1 X93.064 Y69.755 E.02217
G1 X93.064 Y110.245 E1.53888
G1 X92.95 Y110.816 E.02213
M73 P30 R1
G1 X92.797 Y111.185 E.01518
G1 X92.605 Y111.509 E.01431
G1 X92.137 Y112.01 E.02606
G1 X91.769 Y112.275 E.01724
G1 X91.273 Y112.497 E.02065
G1 X90.838 Y112.599 E.01698
G1 X89.308 Y112.614 E.05815
G1 X88.733 Y112.5 E.02228
G1 X88.279 Y112.302 E.01882
G1 X87.876 Y112.022 E.01865
G1 X87.507 Y111.649 E.01994
G1 X87.233 Y111.245 E.01855
G1 X87.025 Y110.735 E.02093
G1 X86.936 Y110.246 E.01889
G1 X86.936 Y69.755 E1.53891
G1 X87.05 Y69.184 E.02213
M73 P31 R1
G1 X87.203 Y68.815 E.01518
G1 X87.293 Y68.664 E.00668
G1 X87.683 Y68.899 F6000
G1 F2400
G1 X87.773 Y68.749 E.00665
G1 X88.178 Y68.322 E.02237
G1 X88.474 Y68.112 E.01379
G1 X88.888 Y67.931 E.01717
G1 X89.237 Y67.852 E.0136
G1 X90.721 Y67.848 E.0564
G1 X91.123 Y67.935 E.01563
G1 X91.539 Y68.119 E.01729
G1 X91.82 Y68.32 E.01313
G1 X92.133 Y68.633 E.01682
G1 X92.361 Y68.967 E.01537
G1 X92.52 Y69.34 E.01541
G1 X92.607 Y69.778 E.01697
G1 X92.607 Y110.222 E1.53713
G1 X92.519 Y110.662 E.01705
M73 P32 R1
G1 X92.382 Y110.994 E.01365
G1 X92.227 Y111.25 E.01137
G1 X91.822 Y111.678 E.0224
G1 X91.526 Y111.888 E.01379
G1 X91.112 Y112.069 E.01717
G1 X90.763 Y112.147 E.01359
G1 X89.328 Y112.157 E.05454
G1 X88.89 Y112.07 E.01697
G1 X88.517 Y111.911 E.01541
G1 X88.183 Y111.683 E.01537
G1 X87.87 Y111.37 E.01682
G1 X87.645 Y111.045 E.01502
G1 X87.47 Y110.625 E.01729
G1 X87.393 Y110.223 E.01556
G1 X87.393 Y69.778 E1.53717
G1 X87.481 Y69.338 E.01705
M73 P33 R1
G1 X87.618 Y69.006 E.01365
G1 X87.652 Y68.95 E.00249
G1 X88.039 Y69.189 F6000
G1 F2400
G1 X88.148 Y69.011 E.00793
G1 X88.49 Y68.657 E.01871
G1 X88.713 Y68.502 E.01032
G1 X89.045 Y68.361 E.01371
G1 X89.308 Y68.305 E.01022
G1 X90.696 Y68.305 E.05275
G1 X90.959 Y68.362 E.01023
M73 P34 R1
G1 X91.331 Y68.527 E.01547
G1 X91.51 Y68.656 E.00839
G1 X91.793 Y68.939 E.01521
G1 X91.967 Y69.2 E.01192
G1 X92.089 Y69.493 E.01206
G1 X92.15 Y69.8 E.0119
G1 X92.15 Y110.2 E1.53546
G1 X92.089 Y110.507 E.0119
M73 P35 R1
G1 X91.967 Y110.801 E.0121
G1 X91.852 Y110.989 E.00838
G1 X91.51 Y111.343 E.01871
G1 X91.287 Y111.498 E.01032
G1 X90.955 Y111.639 E.01371
G1 X90.692 Y111.695 E.01022
G1 X89.35 Y111.7 E.051
G1 X89.043 Y111.639 E.0119
G1 X88.75 Y111.517 E.01206
G1 X88.489 Y111.343 E.01192
G1 X88.207 Y111.061 E.01516
G1 X88.055 Y110.843 E.0101
G1 X87.912 Y110.51 E.01377
G1 X87.85 Y110.2 E.01202
G1 X87.85 Y69.8 E1.53546
G1 X87.911 Y69.493 E.0119
M73 P36 R1
G1 X88.015 Y69.243 E.01029
G1 X88.437 Y69.418 F6000
G1 F2400
G1 X88.52 Y69.278 E.00619
G1 X88.798 Y68.995 E.01508
G1 X88.946 Y68.896 E.00677
G1 X89.197 Y68.792 E.01033
G1 X89.372 Y68.757 E.00678
G1 X90.669 Y68.762 E.04929
G1 X90.799 Y68.791 E.00506
G1 X91.09 Y68.916 E.01204
G1 X91.201 Y68.994 E.00516
G1 X91.454 Y69.247 E.0136
G1 X91.554 Y69.396 E.00682
G1 X91.658 Y69.647 E.01033
G1 X91.693 Y69.823 E.00682
G1 X91.693 Y110.177 E1.53371
G1 X91.658 Y110.353 E.00682
M73 P37 R0
G1 X91.553 Y110.607 E.01045
G1 X91.48 Y110.722 E.00518
G1 X91.202 Y111.005 E.01508
G1 X91.054 Y111.104 E.00677
G1 X90.803 Y111.208 E.01033
G1 X90.627 Y111.243 E.00682
G1 X89.373 Y111.243 E.04766
G1 X89.197 Y111.208 E.00682
G1 X88.946 Y111.104 E.01033
G1 X88.797 Y111.004 E.00682
G1 X88.544 Y110.751 E.0136
G1 X88.466 Y110.64 E.00516
G1 X88.342 Y110.352 E.01192
G1 X88.307 Y110.177 E.00678
G1 X88.307 Y69.823 E1.53371
G1 X88.342 Y69.647 E.00682
M73 P38 R0
G1 X88.414 Y69.474 E.00712
G1 X88.836 Y69.649 F6000
G1 F2400
G1 X88.885 Y69.554 E.00406
G1 X89.104 Y69.335 E.01177
G1 X89.351 Y69.223 E.01031
G1 X89.395 Y69.214 E.00171
G1 X90.605 Y69.214 E.04599
G1 X90.859 Y69.31 E.01032
G1 X91.115 Y69.554 E.01344
G1 X91.227 Y69.801 E.01031
G1 X91.236 Y69.845 E.00171
G1 X91.236 Y110.155 E1.53203
G1 X91.227 Y110.199 E.00171
M73 P39 R0
G1 X91.115 Y110.446 E.01031
G1 X90.859 Y110.69 E.01344
M73 P40 R0
G1 X90.605 Y110.786 E.01032
G1 X89.395 Y110.786 E.04599
G1 X89.351 Y110.777 E.00171
G1 X89.104 Y110.665 E.01031
G1 X88.885 Y110.446 E.01177
G1 X88.86 Y110.409 E.0017
G1 X88.764 Y110.155 E.01032
G1 X88.764 Y69.845 E1.53203
G1 X88.813 Y69.704 E.00567
M73 P41 R0
G1 X89.236 Y69.879 F6000
G1 F2400
G1 X89.256 Y69.829 E.00205
G1 X89.379 Y69.706 E.00661
G1 X89.463 Y69.671 E.00346
G1 X90.537 Y69.671 E.04082
G1 X90.621 Y69.706 E.00346
G1 X90.744 Y69.829 E.00661
G1 X90.779 Y69.913 E.00346
G1 X90.779 Y110.087 E1.52687
G1 X90.744 Y110.171 E.00346
M73 P42 R0
G1 X90.621 Y110.294 E.00661
G1 X90.537 Y110.329 E.00346
G1 X89.463 Y110.329 E.04082
G1 X89.379 Y110.294 E.00346
G1 X89.256 Y110.171 E.00661
G1 X89.221 Y110.087 E.00346
G1 X89.221 Y69.936 E1.52599
; printing object Shape-Box id:0 copy 0
G1 X90.214 Y109.764 F6000
;TYPE:External perimeter
;WIDTH:0.47146
M73 P43 R0
G1 F2400
G1 X89.786 Y109.764 E.01525
G1 X89.786 Y70.236 E1.40851
G1 X90.214 Y70.236 E.01525
M73 P44 R0
G1 X90.214 Y109.704 E1.40637
G1 X89.867 Y109.566 F6000
; stop printing object Shape-Box id:0 copy 0
M106 S84.15
;LAYER_CHANGE
;Z:0.4
;HEIGHT:0.2
;BEFORE_LAYER_CHANGE
G92 E0.0
;0.4
M201 X3999.73 Y3999.73
M74 W0.118199

M73 P46 R0
G1 Z.4 F720
;AFTER_LAYER_CHANGE
;0.4
M104 S220 ; set temperature
; printing object Shape-Box id:0 copy 0
G1 X90.214 Y109.764 F6000
G1 X89.786 Y109.764 E.01525
G1 X89.786 Y70.236 E1.40851
G1 X90.214 Y70.236 E.01525
G1 X90.214 Y109.704 E1.40637
G1 X89.867 Y109.566
; stop printing object Shape-Box id:0 copy 0
M106 S170.85
;LAYER_CHANGE
;Z:0.6
;HEIGHT:0.2
;BEFORE_LAYER_CHANGE
G92 E0.0
;0.6
M201 X3999.71 Y3999.71
M74 W0.126685

M73 P47 R0
G1 Z.6 F720
;AFTER_LAYER_CHANGE
;0.6
; printing object Shape-Box id:0 copy 0
G1 X90.214 Y109.764 F6000
G1 X89.786 Y109.764 E.01525
G1 X89.786 Y70.236 E1.40851
G1 X90.214 Y70.236 E.01525
G1 X90.214 Y109.704 E1.40637
G1 X89.867 Y109.566
; stop printing object Shape-Box id:0 copy 0
M106 S255
;LAYER_CHANGE
;Z:0.8
;HEIGHT:0.2
;BEFORE_LAYER_CHANGE
G92 E0.0
;0.8
M201 X3999.69 Y3999.69
M74 W0.135172

M73 P48 R0
G1 Z.8 F720
;AFTER_LAYER_CHANGE
;0.8
; printing object Shape-Box id:0 copy 0
G1 X90.214 Y109.764 F6000
G1 X89.786 Y109.764 E.01525
G1 X89.786 Y70.236 E1.40851
G1 X90.214 Y70.236 E.01525
G1 X90.214 Y109.704 E1.40637
G1 X89.867 Y109.566
; stop printing object Shape-Box id:0 copy 0
;LAYER_CHANGE
;Z:1
;HEIGHT:0.2
;BEFORE_LAYER_CHANGE
G92 E0.0
;1
M201 X3999.67 Y3999.67
M74 W0.143658

M73 P49 R0
G1 Z1 F720
;AFTER_LAYER_CHANGE
;1
; printing object Shape-Box id:0 copy 0
G1 X90.214 Y109.764 F6000
G1 X89.786 Y109.764 E.01525
G1 X89.786 Y70.236 E1.40851
G1 X90.214 Y70.236 E.01525
G1 X90.214 Y109.704 E1.40637
G1 X89.867 Y109.566
; stop printing object Shape-Box id:0 copy 0
;LAYER_CHANGE
;Z:1.2
;HEIGHT:0.2
;BEFORE_LAYER_CHANGE
G92 E0.0
;1.2
M201 X3999.65 Y3999.65
M74 W0.152145

M73 P50 R0
G1 Z1.2 F720
;AFTER_LAYER_CHANGE
;1.2
; printing object Shape-Box id:0 copy 0
G1 X90.214 Y109.764 F6000
G1 X89.786 Y109.764 E.01525
G1 X89.786 Y70.236 E1.40851
G1 X90.214 Y70.236 E.01525
G1 X90.214 Y109.704 E1.40637
G1 X89.867 Y109.566
; stop printing object Shape-Box id:0 copy 0
;LAYER_CHANGE
;Z:1.4
;HEIGHT:0.2
;BEFORE_LAYER_CHANGE
G92 E0.0
;1.4
M201 X3999.63 Y3999.63
M74 W0.160631

M73 P51 R0
G1 Z1.4 F720
;AFTER_LAYER_CHANGE
;1.4
; printing object Shape-Box id:0 copy 0
G1 X90.214 Y109.764 F6000
G1 X89.786 Y109.764 E.01525
G1 X89.786 Y70.236 E1.40851
G1 X90.214 Y70.236 E.01525
G1 X90.214 Y109.704 E1.40637
G1 X89.867 Y109.566
; stop printing object Shape-Box id:0 copy 0
;LAYER_CHANGE
;Z:1.6
;HEIGHT:0.2
;BEFORE_LAYER_CHANGE
G92 E0.0
;1.6
M201 X3999.61 Y3999.61
M74 W0.169118

M73 P52 R0
G1 Z1.6 F720
;AFTER_LAYER_CHANGE
;1.6
; printing object Shape-Box id:0 copy 0
G1 X90.214 Y109.764 F6000
G1 X89.786 Y109.764 E.01525
G1 X89.786 Y70.236 E1.40851
G1 X90.214 Y70.236 E.01525
G1 X90.214 Y109.704 E1.40637
G1 X89.867 Y109.566
; stop printing object Shape-Box id:0 copy 0
;LAYER_CHANGE
;Z:1.8
;HEIGHT:0.2
;BEFORE_LAYER_CHANGE
G92 E0.0
;1.8
M201 X3999.59 Y3999.59
M74 W0.177604

M73 P53 R0
G1 Z1.8 F720
;AFTER_LAYER_CHANGE
;1.8
; printing object Shape-Box id:0 copy 0
G1 X90.214 Y109.764 F6000
G1 X89.786 Y109.764 E.01525
G1 X89.786 Y70.236 E1.40851
G1 X90.214 Y70.236 E.01525
G1 X90.214 Y109.704 E1.40637
G1 X89.867 Y109.566
; stop printing object Shape-Box id:0 copy 0
;LAYER_CHANGE
;Z:2
;HEIGHT:0.2
;BEFORE_LAYER_CHANGE
G92 E0.0
;2
M201 X3999.57 Y3999.57
M74 W0.186091

M73 P54 R0
G1 Z2 F720
;AFTER_LAYER_CHANGE
;2
; printing object Shape-Box id:0 copy 0
G1 X90.214 Y109.764 F6000
G1 X89.786 Y109.764 E.01525
G1 X89.786 Y70.236 E1.40851
G1 X90.214 Y70.236 E.01525
G1 X90.214 Y109.704 E1.40637
G1 X89.867 Y109.566
; stop printing object Shape-Box id:0 copy 0
;LAYER_CHANGE
;Z:2.2
;HEIGHT:0.2
;BEFORE_LAYER_CHANGE
G92 E0.0
;2.2
M201 X3999.55 Y3999.55
M74 W0.194577

M73 P55 R0
G1 Z2.2 F720
;AFTER_LAYER_CHANGE
;2.2
; printing object Shape-Box id:0 copy 0
G1 X90.214 Y109.764 F6000
G1 X89.786 Y109.764 E.01525
G1 X89.786 Y70.236 E1.40851
G1 X90.214 Y70.236 E.01525
G1 X90.214 Y109.704 E1.40637
G1 X89.867 Y109.566
; stop printing object Shape-Box id:0 copy 0
;LAYER_CHANGE
;Z:2.4
;HEIGHT:0.2
;BEFORE_LAYER_CHANGE
G92 E0.0
;2.4
M201 X3999.53 Y3999.53
M74 W0.203064

M73 P56 R0
G1 Z2.4 F720
;AFTER_LAYER_CHANGE
;2.4
; printing object Shape-Box id:0 copy 0
G1 X90.214 Y109.764 F6000
G1 X89.786 Y109.764 E.01525
G1 X89.786 Y70.236 E1.40851
G1 X90.214 Y70.236 E.01525
G1 X90.214 Y109.704 E1.40637
G1 X89.867 Y109.566
; stop printing object Shape-Box id:0 copy 0
;LAYER_CHANGE
;Z:2.6
;HEIGHT:0.2
;BEFORE_LAYER_CHANGE
G92 E0.0
;2.6
M201 X3999.51 Y3999.51
M74 W0.21155

M73 P57 R0
G1 Z2.6 F720
;AFTER_LAYER_CHANGE
;2.6
; printing object Shape-Box id:0 copy 0
G1 X90.214 Y109.764 F6000
G1 X89.786 Y109.764 E.01525
G1 X89.786 Y70.236 E1.40851
G1 X90.214 Y70.236 E.01525
G1 X90.214 Y109.704 E1.40637
G1 X89.867 Y109.566
; stop printing object Shape-Box id:0 copy 0
;LAYER_CHANGE
;Z:2.8
;HEIGHT:0.2
;BEFORE_LAYER_CHANGE
G92 E0.0
;2.8
M201 X3999.49 Y3999.49
M74 W0.220037

M73 P58 R0
G1 Z2.8 F720
;AFTER_LAYER_CHANGE
;2.8
; printing object Shape-Box id:0 copy 0
G1 X90.214 Y109.764 F6000
G1 X89.786 Y109.764 E.01525
G1 X89.786 Y70.236 E1.40851
G1 X90.214 Y70.236 E.01525
