; generated by PrusaSlicer 2.5.2+win64 on 2023-11-02 at 09:17:26 UTC

; 

; external perimeters extrusion width = 0.45mm
; perimeters extrusion width = 0.45mm
; infill extrusion width = 0.45mm
; solid infill extrusion width = 0.45mm
; top infill extrusion width = 0.40mm
; first layer extrusion width = 0.45mm

M107
M190 S55 ; set bed temperature and wait for it to be reached
M104 S215 ; set temperature
;TYPE:Custom
;CUSTOM SLICING PROFILE FOR ANISOPRINT A4
T0 R ; switch extruder
G28 ; home all axes
G1 Z10 F900 ; lift nozzle

M106 P1 S255; max Fanspeed as workaround
M109 S215 ; set temperature and wait for it to be reached
G21 ; set units to millimeters
G90 ; use absolute coordinates
M82 ; use absolute distances for extrusion
G92 E0
; Filament gcode
M107
;LAYER_CHANGE
;Z:0.25
;HEIGHT:0.25
G1 Z.25 F7800
G1 E-6.5 F2400
G92 E0
G1 X128.356 Y93.321 F7800
G1 E6.5 F2400
;TYPE:Skirt/Brim
;WIDTH:0.45
G1 F1800
G1 X129.821 Y91.856 E6.58532
G1 X131.86 Y90.378 E6.68909
G1 X135.464 Y89.518 E6.84173
G1 X152.536 Y89.518 E7.54498
G1 X155.023 Y89.916 E7.64876
G1 X158.179 Y91.856 E7.80139
G1 X159.644 Y93.321 E7.88671
G1 X161.122 Y95.36 E7.99049
G1 X161.982 Y98.964 E8.14312
G1 X161.982 Y116.036 E8.84638
G1 X161.584 Y118.523 E8.95015
G1 X159.644 Y121.679 E9.10279
G1 X158.179 Y123.144 E9.18811
G1 X156.14 Y124.622 E9.29188
G1 X152.536 Y125.482 E9.44452
G1 X135.464 Y125.482 E10.14777
G1 X132.977 Y125.084 E10.25154
G1 X129.821 Y123.144 E10.40418
G1 X128.356 Y121.679 E10.4895
G1 X126.878 Y119.64 E10.59327
G1 X126.018 Y116.036 E10.74591
G1 X126.018 Y98.964 E11.44917
G1 X126.416 Y96.477 E11.55294
G1 X128.325 Y93.372 E11.7031
G1 X128.636 Y93.601 F7800
G1 F1800
G1 X130.101 Y92.136 E11.78842
G1 X132.095 Y90.704 E11.88957
G1 X135.464 Y89.915 E12.03214
G1 X152.536 Y89.915 E12.73539
G1 X154.958 Y90.312 E12.83654
G1 X157.899 Y92.136 E12.9791
G1 X159.364 Y93.601 E13.06442
G1 X160.796 Y95.595 E13.16557
G1 X161.585 Y98.964 E13.30814
G1 X161.585 Y116.036 E14.01139
G1 X161.188 Y118.458 E14.11254
G1 X159.364 Y121.399 E14.2551
G1 X157.899 Y122.864 E14.34042
G1 X155.905 Y124.296 E14.44157
G1 X152.536 Y125.085 E14.58414
G1 X135.464 Y125.085 E15.28739
G1 X133.042 Y124.688 E15.38854
G1 X130.101 Y122.864 E15.5311
G1 X128.636 Y121.399 E15.61642
G1 X127.204 Y119.405 E15.71757
G1 X126.415 Y116.036 E15.86014
G1 X126.415 Y98.964 E16.56339
G1 X126.812 Y96.542 E16.66454
G1 X128.605 Y93.652 E16.80463
G1 X128.917 Y93.881 F7800
G1 F1800
G1 X130.381 Y92.417 E16.88995
G1 X132.328 Y91.031 E16.9884
G1 X135.464 Y90.311 E17.12096
G1 X152.536 Y90.311 E17.82422
G1 X154.892 Y90.708 E17.92267
G1 X157.619 Y92.417 E18.05523
G1 X159.083 Y93.881 E18.14055
G1 X160.469 Y95.828 E18.239
G1 X161.189 Y98.964 E18.37156
G1 X161.189 Y116.036 E19.07481
G1 X160.792 Y118.392 E19.17326
G1 X159.083 Y121.119 E19.30582
G1 X157.619 Y122.583 E19.39114
G1 X155.672 Y123.969 E19.48959
G1 X152.536 Y124.689 E19.62215
G1 X135.464 Y124.689 E20.32541
G1 X133.108 Y124.292 E20.42386
G1 X130.381 Y122.583 E20.55642
G1 X128.917 Y121.119 E20.64174
G1 X127.531 Y119.172 E20.74019
G1 X126.811 Y116.036 E20.87275
G1 X126.811 Y98.964 E21.57601
G1 X127.208 Y96.608 E21.67446
G1 X128.885 Y93.932 E21.80455
G1 X129.197 Y94.161 F7800
G1 F1800
G1 X130.661 Y92.697 E21.88986
G1 X132.56 Y91.359 E21.98554
G1 X135.464 Y90.707 E22.10817
G1 X152.536 Y90.707 E22.81142
G1 X154.824 Y91.104 E22.9071
G1 X157.339 Y92.697 E23.02973
G1 X158.803 Y94.161 E23.11504
G1 X160.141 Y96.06 E23.21072
G1 X160.793 Y98.964 E23.33335
G1 X160.793 Y116.036 E24.0366
G1 X160.396 Y118.324 E24.13228
G1 X158.803 Y120.839 E24.25491
G1 X157.339 Y122.303 E24.34023
G1 X155.44 Y123.641 E24.4359
G1 X152.536 Y124.293 E24.55853
G1 X135.464 Y124.293 E25.26178
G1 X133.176 Y123.896 E25.35746
G1 X130.661 Y122.303 E25.48009
G1 X129.197 Y120.839 E25.56541
G1 X127.859 Y118.94 E25.66108
G1 X127.207 Y116.036 E25.78371
G1 X127.207 Y98.964 E26.48696
G1 X127.604 Y96.676 E26.58264
G1 X129.165 Y94.212 E26.7028
G1 X129.477 Y94.442 F7800
G1 F1800
G1 X130.942 Y92.977 E26.78811
G1 X132.791 Y91.689 E26.88094
G1 X135.464 Y91.104 E26.9937
G1 X152.536 Y91.104 E27.69696
G1 X154.754 Y91.501 E27.78978
G1 X157.058 Y92.977 E27.90255
G1 X158.523 Y94.442 E27.98787
G1 X159.811 Y96.291 E28.08069
G1 X160.396 Y98.964 E28.19346
G1 X160.396 Y116.036 E28.89671
G1 X159.999 Y118.254 E28.98953
G1 X158.523 Y120.558 E29.1023
G1 X157.058 Y122.023 E29.18762
G1 X155.209 Y123.311 E29.28044
G1 X152.536 Y123.896 E29.39321
G1 X135.464 Y123.896 E30.09646
G1 X133.246 Y123.499 E30.18929
G1 X130.942 Y122.023 E30.30205
G1 X129.477 Y120.558 E30.38737
G1 X128.189 Y118.709 E30.48019
G1 X127.604 Y116.036 E30.59296
G1 X127.604 Y98.964 E31.29621
G1 X128.001 Y96.746 E31.38904
G1 X129.445 Y94.492 E31.49933
G1 E24.99933 F2400
G92 E0
G1 X134.731 Y98.686 F7800
G1 E6.5 F2400
G1 F1800
G1 X135.184 Y98.233 E6.5264
G1 X135.403 Y98.072 E6.53756
G1 X136.151 Y97.82 E6.57008
G1 X151.863 Y97.824 E7.21737
G1 X152.241 Y97.911 E7.23335
G1 X152.626 Y98.093 E7.25086
G1 X153.262 Y98.679 E7.28649
G1 X153.506 Y99.059 E7.30509
G1 X153.68 Y99.651 E7.33053
G1 X153.68 Y115.349 E7.97721
G1 X153.506 Y115.941 E8.00265
G1 X153.269 Y116.314 E8.02085
G1 X152.816 Y116.767 E8.04724
G1 X152.597 Y116.928 E8.05841
G1 X151.849 Y117.18 E8.09092
G1 X136.151 Y117.18 E8.73762
G1 X135.559 Y117.006 E8.76306
G1 X135.186 Y116.769 E8.78126
G1 X134.733 Y116.316 E8.80765
G1 X134.572 Y116.097 E8.81882
G1 X134.32 Y115.349 E8.85133
G1 X134.32 Y99.651 E9.49803
G1 X134.494 Y99.059 E9.52347
G1 X134.699 Y98.736 E9.5392
G1 X135.026 Y98.951 F7800
G1 F1800
G1 X135.453 Y98.525 E9.56405
G1 X135.61 Y98.411 E9.57205
G1 X136.184 Y98.216 E9.59699
G1 X151.841 Y98.22 E10.24199
G1 X152.091 Y98.278 E10.25259
G1 X152.427 Y98.437 E10.26791
G1 X152.972 Y98.95 E10.29874
G1 X153.136 Y99.203 E10.31115
G1 X153.284 Y99.682 E10.3318
G1 X153.284 Y115.318 E10.97592
G1 X153.136 Y115.797 E10.99657
G1 X152.974 Y116.049 E11.0089
G1 X152.547 Y116.475 E11.03376
G1 X152.39 Y116.589 E11.04175
G1 X151.816 Y116.784 E11.06669
G1 X136.182 Y116.784 E11.71076
G1 X135.703 Y116.636 E11.73142
G1 X135.451 Y116.474 E11.74374
G1 X135.025 Y116.047 E11.7686
G1 X134.911 Y115.89 E11.7766
G1 X134.716 Y115.316 E11.80154
G1 X134.716 Y99.682 E12.4456
G1 X134.864 Y99.203 E12.46626
G1 X134.994 Y99.002 E12.47611
G1 X135.32 Y99.218 F7800
G1 F1800
G1 X135.72 Y98.818 E12.4994
G1 X135.815 Y98.752 E12.50416
G1 X136.217 Y98.613 E12.52169
G1 X151.817 Y98.617 E13.16436
G1 X151.94 Y98.646 E13.16956
G1 X152.227 Y98.781 E13.18265
G1 X152.681 Y99.219 E13.20861
G1 X152.768 Y99.354 E13.21522
G1 X152.887 Y99.715 E13.23091
G1 X152.887 Y115.285 E13.87229
G1 X152.768 Y115.646 E13.88798
G1 X152.68 Y115.782 E13.89467
G1 X152.28 Y116.182 E13.91796
G1 X152.185 Y116.248 E13.92272
G1 X151.783 Y116.387 E13.94025
G1 X136.215 Y116.387 E14.58156
G1 X135.854 Y116.268 E14.59726
G1 X135.718 Y116.18 E14.60394
G1 X135.318 Y115.78 E14.62723
G1 X135.252 Y115.685 E14.63199
G1 X135.113 Y115.283 E14.64952
G1 X135.113 Y99.715 E15.29084
G1 X135.232 Y99.354 E15.30653
G1 X135.288 Y99.268 E15.31074
G1 X135.613 Y99.486 F7800
G1 F1800
G1 X135.985 Y99.114 E15.3324
G1 X136.252 Y99.009 E15.34423
G1 X151.763 Y99.009 E15.98318
G1 X152.026 Y99.124 E15.99501
G1 X152.386 Y99.485 E16.01603
G1 X152.491 Y99.752 E16.02786
G1 X152.491 Y115.248 E16.6662
G1 X152.386 Y115.515 E16.67802
G1 X152.015 Y115.886 E16.69965
G1 X151.748 Y115.991 E16.71148
G1 X136.252 Y115.991 E17.34982
G1 X135.985 Y115.886 E17.36165
G1 X135.614 Y115.515 E17.38328
G1 X135.509 Y115.248 E17.39511
G1 X135.509 Y99.752 E18.03344
G1 X135.586 Y99.538 E18.04281
G1 X135.936 Y99.724 F7800
G1 F1800
G1 X136.224 Y99.436 E18.05958
G1 X136.296 Y99.405 E18.06283
G1 X151.704 Y99.405 E18.69754
G1 X151.776 Y99.436 E18.70079
G1 X152.064 Y99.724 E18.71756
G1 X152.095 Y99.796 E18.72081
G1 X152.095 Y115.204 E19.35552
G1 X152.064 Y115.276 E19.35877
G1 X151.776 Y115.564 E19.37554
G1 X151.704 Y115.595 E19.37879
G1 X136.296 Y115.595 E20.0135
G1 X136.224 Y115.564 E20.01675
G1 X135.936 Y115.276 E20.03352
G1 X135.905 Y115.204 E20.03677
G1 X135.913 Y99.779 E20.6722
G1 X136.302 Y99.918 F7800
G1 F1800
G1 X136.418 Y99.802 E20.67896
G1 X151.582 Y99.802 E21.30366
G1 X151.698 Y99.918 E21.31042
G1 X151.698 Y115.082 E21.93512
G1 X151.582 Y115.198 E21.94189
G1 X136.418 Y115.198 E22.56658
G1 X136.302 Y115.082 E22.57335
G1 X136.302 Y99.978 E23.19558
G1 E16.69558 F2400
G92 E0
G1 X150.879 Y114.379 F7800
G1 E6.5 F2400
;TYPE:Perimeter
;WIDTH:0.449999
G1 F1800
G1 X137.121 Y114.379 E7.06674
G1 X137.121 Y100.621 E7.63348
G1 X150.879 Y100.621 E8.20023
G1 X150.879 Y114.319 E8.76449
G1 X151.275 Y114.775 F7800
;TYPE:External perimeter
G1 F1800
G1 X136.725 Y114.775 E9.36389
G1 X136.725 Y100.225 E9.96329
G1 X151.275 Y100.225 E10.56269
G1 X151.275 Y114.715 E11.15961
G1 X150.889 Y114.671 F7800
G1 E4.65961 F2400
G92 E0
G1 X149.952 Y100.74 F7800
G1 E6.5 F2400
;TYPE:Solid infill
;WIDTH:0.45314
G1 F1800
G1 X150.581 Y101.37 E6.53697
G1 X150.581 Y101.935 E6.56043
G1 X149.565 Y100.919 E6.62009
G1 X149 Y100.919 E6.64355
G1 X150.581 Y102.5 E6.7364
G1 X150.581 Y103.065 E6.75985
G1 X148.435 Y100.919 E6.88587
G1 X147.87 Y100.919 E6.90933
G1 X150.581 Y103.63 E7.06853
G1 X150.581 Y104.195 E7.09199
G1 X147.305 Y100.919 E7.28436
G1 X146.74 Y100.919 E7.30781
G1 X150.581 Y104.76 E7.53336
G1 X150.581 Y105.325 E7.55682
G1 X146.175 Y100.919 E7.81554
G1 X145.611 Y100.919 E7.839
G1 X150.581 Y105.889 E8.13089
G1 X150.581 Y106.454 E8.15435
G1 X145.046 Y100.919 E8.47942
G1 X144.481 Y100.919 E8.50288
G1 X150.581 Y107.019 E8.86113
G1 X150.581 Y107.584 E8.88459
G1 X143.916 Y100.919 E9.27601
G1 X143.351 Y100.919 E9.29947
G1 X150.581 Y108.149 E9.72407
G1 X150.581 Y108.714 E9.74753
G1 X142.786 Y100.919 E10.2053
G1 X142.221 Y100.919 E10.22876
G1 X150.581 Y109.279 E10.71971
G1 X150.581 Y109.844 E10.74316
G1 X141.656 Y100.919 E11.26729
G1 X141.091 Y100.919 E11.29075
G1 X150.581 Y110.409 E11.84805
G1 X150.581 Y110.974 E11.8715
G1 X140.526 Y100.919 E12.46198
G1 X139.961 Y100.919 E12.48544
G1 X150.581 Y111.539 E13.10909
G1 X150.581 Y112.104 E13.13255
G1 X139.396 Y100.919 E13.78937
G1 X138.831 Y100.919 E13.81283
G1 X150.581 Y112.669 E14.50283
G1 X150.581 Y113.234 E14.52629
G1 X138.266 Y100.919 E15.24946
G1 X137.701 Y100.919 E15.27292
G1 X150.581 Y113.799 E16.02927
G1 X150.581 Y114.081 E16.041
G1 X150.299 Y114.081 E16.05273
G1 X137.419 Y101.201 E16.80908
G1 X137.419 Y101.766 E16.83254
G1 X149.734 Y114.081 E17.55571
G1 X149.169 Y114.081 E17.57916
G1 X137.419 Y102.331 E18.26916
G1 X137.419 Y102.896 E18.29262
G1 X148.604 Y114.081 E18.94943
G1 X148.039 Y114.081 E18.97289
G1 X137.419 Y103.461 E19.59654
G1 X137.419 Y104.026 E19.61999
G1 X147.474 Y114.081 E20.21046
G1 X146.909 Y114.081 E20.23392
G1 X137.419 Y104.591 E20.79121
G1 X137.419 Y105.156 E20.81467
G1 X146.344 Y114.081 E21.33879
G1 X145.779 Y114.081 E21.36225
G1 X137.419 Y105.721 E21.85319
G1 X137.419 Y106.286 E21.87665
G1 X145.214 Y114.081 E22.33441
G1 X144.649 Y114.081 E22.35787
G1 X137.419 Y106.851 E22.78246
G1 X137.419 Y107.416 E22.80592
G1 X144.084 Y114.081 E23.19734
G1 X143.519 Y114.081 E23.2208
G1 X137.419 Y107.981 E23.57904
G1 X137.419 Y108.546 E23.60249
G1 X142.954 Y114.081 E23.92756
G1 X142.389 Y114.081 E23.95102
G1 X137.419 Y109.111 E24.24291
G1 X137.419 Y109.676 E24.26636
G1 X141.824 Y114.081 E24.52508
G1 X141.259 Y114.081 E24.54854
G1 X137.419 Y110.241 E24.77408
G1 X137.419 Y110.806 E24.79753
G1 X140.694 Y114.081 E24.9899
G1 X140.13 Y114.081 E25.01336
G1 X137.419 Y111.37 E25.17254
G1 X137.419 Y111.935 E25.196
G1 X139.565 Y114.081 E25.32201
G1 X139 Y114.081 E25.34547
G1 X137.419 Y112.5 E25.43831
G1 X137.419 Y113.065 E25.46177
G1 X138.435 Y114.081 E25.52143
G1 X137.87 Y114.081 E25.54489
G1 X137.24 Y113.452 E25.58185
;LAYER_CHANGE
;LAYER_CHANGE
;Z:0.65
;HEIGHT:0.2
G1 Z.65 F7800
G1 E19.03009 F2400
G92 E0
G1 X150.868 Y114.368 F7800
G1 E6.5 F2400
;TYPE:Perimeter
;WIDTH:0.449999
G1 F3600
G1 X137.132 Y114.368 E6.96494
G1 X137.132 Y100.632 E7.42988
G1 X150.868 Y100.632 E7.89482
G1 X150.868 Y114.308 E8.35773
G1 X151.275 Y114.775 F7800
;TYPE:External perimeter
G1 F1800
G1 X136.725 Y114.775 E8.85023
G1 X136.725 Y100.225 E9.34273
G1 X151.275 Y100.225 E9.83523
G1 X151.275 Y114.715 E10.3257
G1 X150.889 Y114.671 F7800
G1 E3.8257 F2400
G92 E0
G1 X149.923 Y100.754 F7800
G1 E6.5 F2400
;TYPE:Solid infill
;WIDTH:0.450102
G1 F1200
G1 X150.563 Y101.394 E6.53064
G1 X150.563 Y101.97 E6.55014
G1 X149.53 Y100.937 E6.59958
G1 X148.954 Y100.937 E6.61908
G1 X150.563 Y102.546 E6.69609
G1 X150.563 Y103.122 E6.71559
G1 X148.378 Y100.937 E6.82017
G1 X147.802 Y100.937 E6.83967
G1 X150.563 Y103.698 E6.97183
G1 X150.563 Y104.273 E6.99133
G1 X147.227 Y100.937 E7.15106
G1 X146.651 Y100.937 E7.17055
G1 X150.563 Y104.849 E7.35786
G1 X150.563 Y105.425 E7.37735
G1 X146.075 Y100.937 E7.59223
G1 X145.499 Y100.937 E7.61173
G1 X150.563 Y106.001 E7.85417
G1 X150.563 Y106.577 E7.87367
G1 X144.923 Y100.937 E8.14369
G1 X144.347 Y100.937 E8.16319
G1 X150.563 Y107.153 E8.46078
G1 X150.563 Y107.728 E8.48027
G1 X143.772 Y100.937 E8.80544
G1 X143.196 Y100.937 E8.82493
G1 X150.563 Y108.304 E9.17767
G1 X150.563 Y108.88 E9.19717
G1 X142.62 Y100.937 E9.57748
G1 X142.044 Y100.937 E9.59697
G1 X150.563 Y109.456 E10.00485
G1 X150.563 Y110.032 E10.02435
G1 X141.468 Y100.937 E10.4598
G1 X140.892 Y100.937 E10.4793
G1 X150.563 Y110.608 E10.94232
G1 X150.563 Y111.183 E10.96182
G1 X140.317 Y100.937 E11.45242
G1 X139.741 Y100.937 E11.47191
G1 X150.563 Y111.759 E11.99008
G1 X150.563 Y112.335 E12.00958
G1 X139.165 Y100.937 E12.55532
G1 X138.589 Y100.937 E12.57482
G1 X150.563 Y112.911 E13.14813
G1 X150.563 Y113.487 E13.16763
G1 X138.013 Y100.937 E13.76851
G1 X137.437 Y100.937 E13.78801
G1 X150.563 Y114.063 E14.41646
G1 X149.987 Y114.063 E14.43596
G1 X137.437 Y101.513 E15.03684
G1 X137.437 Y102.089 E15.05634
G1 X149.411 Y114.063 E15.62965
G1 X148.835 Y114.063 E15.64915
G1 X137.437 Y102.665 E16.19488
G1 X137.437 Y103.241 E16.21438
G1 X148.259 Y114.063 E16.73255
G1 X147.683 Y114.063 E16.75204
G1 X137.437 Y103.817 E17.24264
G1 X137.437 Y104.392 E17.26213
G1 X147.108 Y114.063 E17.72515
G1 X146.532 Y114.063 E17.74465
G1 X137.437 Y104.968 E18.1801
G1 X137.437 Y105.544 E18.1996
G1 X145.956 Y114.063 E18.60747
G1 X145.38 Y114.063 E18.62697
G1 X137.437 Y106.12 E19.00727
G1 X137.437 Y106.696 E19.02677
G1 X144.804 Y114.063 E19.3795
G1 X144.228 Y114.063 E19.399
G1 X137.437 Y107.272 E19.72416
G1 X137.437 Y107.848 E19.74366
G1 X143.652 Y114.063 E20.04124
G1 X143.077 Y114.063 E20.06074
G1 X137.437 Y108.423 E20.33076
G1 X137.437 Y108.999 E20.35025
G1 X142.501 Y114.063 E20.5927
G1 X141.925 Y114.063 E20.61219
G1 X137.437 Y109.575 E20.82706
G1 X137.437 Y110.151 E20.84656
G1 X141.349 Y114.063 E21.03386
G1 X140.773 Y114.063 E21.05336
G1 X137.437 Y110.727 E21.21308
G1 X137.437 Y111.303 E21.23258
G1 X140.197 Y114.063 E21.36474
G1 X139.622 Y114.063 E21.38423
G1 X137.437 Y111.878 E21.48882
G1 X137.437 Y112.454 E21.50831
G1 X139.046 Y114.063 E21.58532
G1 X138.47 Y114.063 E21.60482
G1 X137.437 Y113.03 E21.65426
G1 X137.437 Y113.606 E21.67375
G1 X138.077 Y114.246 E21.70439
M106 S242.25
;LAYER_CHANGE
;Z:0.85
;HEIGHT:0.2
G1 Z.85 F7800
G1 E15.20439 F2400
G92 E0
G1 X150.868 Y114.368 F7800
G1 E6.5 F2400
;TYPE:Perimeter
;WIDTH:0.449999
G1 F3600
G1 X137.132 Y114.368 E6.96494
G1 X137.132 Y100.632 E7.42988
G1 X150.868 Y100.632 E7.89482
G1 X150.868 Y114.308 E8.35773
G1 X151.275 Y114.775 F7800
;TYPE:External perimeter
G1 F1800
G1 X136.725 Y114.775 E8.85023
G1 X136.725 Y100.225 E9.34273
G1 X151.275 Y100.225 E9.83523
G1 X151.275 Y114.715 E10.3257
G1 X150.889 Y114.671 F7800
G1 X149.923 Y114.246
;TYPE:Internal infill
;WIDTH:0.45
G1 F4800
G1 X150.563 Y113.606 E10.35634
G1 X150.563 Y113.03 E10.37583
G1 X149.53 Y114.063 E10.42526
G1 X148.954 Y114.063 E10.44475
G1 X150.563 Y112.454 E10.52174
G1 X150.563 Y111.878 E10.54123
G1 X148.378 Y114.063 E10.6458
G1 X147.802 Y114.063 E10.66529
G1 X150.563 Y111.302 E10.79741
G1 X150.563 Y110.727 E10.8169
G1 X147.227 Y114.063 E10.97659
G1 X146.651 Y114.063 E10.99609
G1 X150.563 Y110.151 E11.18334
G1 X150.563 Y109.575 E11.20283
G1 X146.075 Y114.063 E11.41766
G1 X145.499 Y114.063 E11.43715
G1 X150.563 Y108.999 E11.67953
