; generated by PrusaSlicer 2.5.2+win64 on 2023-11-02 at 09:39:06 UTC

; 

; external perimeters extrusion width = 0.45mm
; perimeters extrusion width = 0.45mm
; infill extrusion width = 0.45mm
; solid infill extrusion width = 0.45mm
; top infill extrusion width = 0.40mm
; first layer extrusion width = 0.45mm

M107
M190 S55 ; set bed temperature and wait for it to be reached
M104 S215 ; set temperature
;TYPE:Custom
;CUSTOM SLICING PROFILE FOR ANISOPRINT A4
T0 R ; switch extruder
G28 ; home all axes
G1 Z10 F900 ; lift nozzle

M106 P1 S255; max Fanspeed as workaround
M109 S215 ; set temperature and wait for it to be reached
G21 ; set units to millimeters
G90 ; use absolute coordinates
M82 ; use absolute distances for extrusion
G92 E0
; Filament gcode
M107
;LAYER_CHANGE
;Z:0.25
;HEIGHT:0.25
G1 Z.25 F7800
G1 E-6.5 F2400
G92 E0
G1 X117.498 Y85.368 F7800
G1 E6.5 F2400
;TYPE:Skirt/Brim
;WIDTH:0.45
G1 F1800
G1 X121.336 Y80.085 E6.76897
G1 X123.043 Y78.412 E6.86742
G1 X124.931 Y77.474 E6.95428
G1 X141.778 Y72 E7.68405
G1 X144.142 Y71.649 E7.7825
G1 X146.222 Y72 E7.86936
G1 X163.069 Y77.474 E8.59913
G1 X165.188 Y78.58 E8.69758
G1 X166.664 Y80.085 E8.78444
G1 X177.076 Y94.417 E9.51421
G1 X178.14 Y96.557 E9.61266
G1 X178.449 Y98.643 E9.69952
G1 X178.449 Y116.357 E10.42929
G1 X178.052 Y118.714 E10.52774
G1 X177.076 Y120.583 E10.6146
G1 X166.664 Y134.915 E11.34437
G1 X164.957 Y136.588 E11.44282
G1 X163.069 Y137.526 E11.52968
G1 X146.222 Y143 E12.25945
G1 X143.858 Y143.351 E12.3579
G1 X141.778 Y143 E12.44476
G1 X124.931 Y137.526 E13.17453
G1 X122.812 Y136.42 E13.27298
G1 X121.336 Y134.915 E13.35984
G1 X110.924 Y120.583 E14.08961
G1 X109.86 Y118.443 E14.18806
G1 X109.551 Y116.357 E14.27492
G1 X109.551 Y98.643 E15.00469
G1 X109.948 Y96.286 E15.10314
G1 X110.924 Y94.417 E15.19
G1 X117.463 Y85.416 E15.64833
G1 X117.784 Y85.649 F7800
G1 F1800
G1 X121.657 Y80.318 E15.91977
G1 X123.323 Y78.701 E16.01545
G1 X125.053 Y77.851 E16.09486
G1 X141.901 Y72.377 E16.82463
G1 X144.2 Y72.047 E16.92031
G1 X146.099 Y72.377 E16.99971
G1 X162.947 Y77.851 E17.72948
G1 X165 Y78.936 E17.82516
G1 X166.343 Y80.318 E17.90456
G1 X176.756 Y94.65 E18.63433
G1 X177.779 Y96.735 E18.73001
G1 X178.053 Y98.643 E18.80941
G1 X178.053 Y116.357 E19.53919
G1 X177.656 Y118.646 E19.63487
G1 X176.756 Y120.35 E19.71427
G1 X166.343 Y134.682 E20.44404
G1 X164.677 Y136.299 E20.53972
G1 X162.947 Y137.149 E20.61912
G1 X146.099 Y142.623 E21.34889
G1 X143.8 Y142.953 E21.44457
G1 X141.901 Y142.623 E21.52397
G1 X125.053 Y137.149 E22.25375
G1 X123 Y136.064 E22.34942
G1 X121.657 Y134.682 E22.42883
G1 X111.244 Y120.35 E23.1586
G1 X110.221 Y118.265 E23.25428
G1 X109.947 Y116.357 E23.33368
G1 X109.947 Y98.643 E24.06345
G1 X110.344 Y96.354 E24.15913
G1 X111.244 Y94.65 E24.23853
G1 X117.749 Y85.698 E24.69439
G1 X118.069 Y85.931 F7800
G1 F1800
G1 X121.978 Y80.551 E24.96831
G1 X123.602 Y78.99 E25.06113
G1 X125.176 Y78.228 E25.13316
G1 X142.023 Y72.754 E25.86293
G1 X144.256 Y72.446 E25.95575
G1 X145.977 Y72.754 E26.02778
G1 X162.824 Y78.228 E26.75755
G1 X164.811 Y79.291 E26.85037
G1 X166.022 Y80.551 E26.9224
G1 X176.435 Y94.883 E27.65217
G1 X177.418 Y96.911 E27.745
G1 X177.657 Y98.643 E27.81702
G1 X177.657 Y116.357 E28.54679
G1 X177.26 Y118.575 E28.63962
G1 X176.435 Y120.117 E28.71165
G1 X166.022 Y134.449 E29.44142
G1 X164.398 Y136.01 E29.53424
G1 X162.824 Y136.772 E29.60627
G1 X145.977 Y142.246 E30.33604
G1 X143.744 Y142.554 E30.42886
G1 X142.023 Y142.246 E30.50089
G1 X125.176 Y136.772 E31.23066
G1 X123.189 Y135.709 E31.32349
G1 X121.978 Y134.449 E31.39551
G1 X111.565 Y120.117 E32.12528
G1 X110.582 Y118.089 E32.21811
G1 X110.343 Y116.357 E32.29013
G1 X110.343 Y98.643 E33.01991
G1 X110.74 Y96.425 E33.11273
G1 X111.565 Y94.883 E33.18476
G1 X118.034 Y85.979 E33.63814
G1 E27.13814 F2400
G92 E0
G1 X166.428 Y107.427 F7800
G1 E6.5 F2400
;TYPE:External perimeter
;WIDTH:0.449999
G1 F1800
G1 X166.437 Y107.592 E6.50677
G1 X170.955 Y116.258 E6.90939
G1 X162.188 Y120.624 E7.31287
G1 X162.098 Y120.762 E7.31964
G1 X160.659 Y130.429 E7.72226
G1 X151 Y128.808 E8.12574
G1 X150.846 Y128.867 E8.13251
G1 X144 Y135.842 E8.53513
G1 X137.138 Y128.853 E8.93861
G1 X136.979 Y128.811 E8.94538
G1 X127.341 Y130.429 E9.348
G1 X125.898 Y120.742 E9.75148
G1 X125.794 Y120.614 E9.75825
G1 X117.045 Y116.258 E10.16087
G1 X121.572 Y107.573 E10.56435
G1 X121.563 Y107.408 E10.57112
G1 X117.045 Y98.742 E10.97374
G1 X125.812 Y94.376 E11.37722
G1 X125.902 Y94.238 E11.384
G1 X127.341 Y84.571 E11.78661
G1 X137 Y86.192 E12.19009
G1 X137.154 Y86.133 E12.19687
G1 X144 Y79.159 E12.59947
G1 X150.862 Y86.147 E13.00291
G1 X151.021 Y86.189 E13.00968
G1 X160.659 Y84.571 E13.4123
G1 X162.102 Y94.258 E13.81578
G1 X162.206 Y94.386 E13.82255
G1 X170.955 Y98.742 E14.22517
G1 X166.455 Y107.374 E14.62618
;LAYER_CHANGE
;Z:0.45
;HEIGHT:0.2
M204 P20 S20
G1 Z.45 F7800
M104 S212 ; set temperature
G1 X165.996 Y107.432
;WIDTH:0.449999
G1 F4800
G1 X166.009 Y107.597 E14.63179
G1 X170.657 Y116.162 E14.96163
G1 X161.835 Y120.374 E15.29256
G1 X161.748 Y120.515 E15.29816
G1 X160.475 Y130.176 E15.62801
G1 X150.862 Y128.398 E15.95893
G1 X150.709 Y128.462 E15.96454
G1 X144 Y135.529 E16.29438
G1 X137.268 Y128.44 E16.62531
G1 X137.107 Y128.402 E16.63091
G1 X127.525 Y130.176 E16.96076
G1 X126.245 Y120.484 E17.29168
G1 X126.138 Y120.358 E17.29729
G1 X117.343 Y116.162 E17.62713
G1 X122.004 Y107.568 E17.95806
G1 X121.991 Y107.403 E17.96366
G1 X117.343 Y98.838 E18.29351
G1 X126.165 Y94.626 E18.62443
G1 X126.252 Y94.485 E18.63004
G1 X127.525 Y84.824 E18.95988
G1 X137.138 Y86.602 E19.29081
G1 X137.291 Y86.539 E19.29641
G1 X144.001 Y79.474 E19.6262
G1 X150.733 Y86.56 E19.95702
G1 X150.893 Y86.598 E19.96262
G1 X160.475 Y84.824 E20.29247
G1 X161.755 Y94.516 E20.6234
G1 X161.862 Y94.642 E20.629
G1 X170.657 Y98.838 E20.95885
G1 X166.022 Y107.378 E21.28774
;LAYER_CHANGE
;Z:0.65
;HEIGHT:0.2
G1 Z.65 F7800
G1 X165.613 Y107.43
G1 F4800
G1 X165.627 Y107.6 E21.29349
G1 X170.393 Y116.076 E21.62264
G1 X161.526 Y120.148 E21.9529
G1 X161.438 Y120.293 E21.95865
G1 X160.312 Y129.951 E22.28779
G1 X150.745 Y128.034 E22.61806
G1 X150.588 Y128.099 E22.62381
G1 X144 Y135.251 E22.95295
G1 X137.387 Y128.077 E23.28321
G1 X137.222 Y128.038 E23.28897
G1 X127.688 Y129.951 E23.61811
G1 X126.556 Y120.26 E23.94837
G1 X126.445 Y120.131 E23.95412
G1 X117.607 Y116.076 E24.28327
G1 X122.387 Y107.57 E24.61353
G1 X122.373 Y107.4 E24.61928
G1 X117.607 Y98.924 E24.94842
G1 X126.474 Y94.852 E25.27869
G1 X126.562 Y94.707 E25.28444
G1 X127.688 Y85.049 E25.61358
G1 X137.255 Y86.966 E25.94384
G1 X137.412 Y86.901 E25.94959
G1 X144.002 Y79.754 E26.27865
G1 X150.613 Y86.923 E26.60874
G1 X150.778 Y86.962 E26.61449
G1 X160.312 Y85.049 E26.94363
G1 X161.444 Y94.74 E27.2739
G1 X161.555 Y94.869 E27.27965
G1 X170.393 Y98.924 E27.60879
G1 X165.64 Y107.377 E27.93703
M106 S249.9
;LAYER_CHANGE
;Z:0.85
;HEIGHT:0.2
G1 Z.85 F7800
G1 X165.227 Y107.437
G1 F4800
G1 X165.245 Y107.602 E27.94265
G1 X170.128 Y115.99 E28.27115
G1 X161.21 Y119.926 E28.60112
G1 X161.127 Y120.07 E28.60674
G1 X160.148 Y129.726 E28.93525
G1 X150.619 Y127.669 E29.26522
G1 X150.468 Y127.737 E29.27084
G1 X144 Y134.973 E29.59934
G1 X137.5 Y127.708 E29.92931
G1 X137.338 Y127.674 E29.93493
G1 X127.852 Y129.726 E30.26344
G1 X126.864 Y120.028 E30.59341
G1 X126.752 Y119.905 E30.59903
G1 X117.872 Y115.99 E30.92754
G1 X122.773 Y107.563 E31.2575
G1 X122.755 Y107.398 E31.26313
G1 X117.872 Y99.01 E31.59163
G1 X126.79 Y95.074 E31.9216
G1 X126.873 Y94.93 E31.92722
G1 X127.852 Y85.274 E32.25573
G1 X137.381 Y87.331 E32.58569
G1 X137.532 Y87.263 E32.59131
G1 X144.002 Y80.034 E32.9197
G1 X150.5 Y87.292 E33.24943
G1 X150.662 Y87.326 E33.25505
G1 X160.148 Y85.274 E33.58356
G1 X161.136 Y94.972 E33.91353
G1 X161.248 Y95.095 E33.91915
G1 X170.128 Y99.01 E34.24765
G1 X165.253 Y107.383 E34.5756
;LAYER_CHANGE
;Z:1.05
;HEIGHT:0.2
G1 Z1.05 F7800
G1 X164.842 Y107.444
G1 F4800
G1 X164.863 Y107.605 E34.5811
G1 X169.863 Y115.903 E34.90904
G1 X160.895 Y119.705 E35.23876
G1 X160.817 Y119.848 E35.24427
G1 X159.984 Y129.5 E35.5722
G1 X150.494 Y127.305 E35.90193
G1 X150.347 Y127.375 E35.90743
G1 X144 Y134.694 E36.23537
G1 X137.613 Y127.339 E36.56509
G1 X137.453 Y127.31 E36.57059
G1 X128.016 Y129.5 E36.89853
G1 X127.172 Y119.796 E37.22825
G1 X127.06 Y119.678 E37.23376
G1 X118.137 Y115.903 E37.56169
G1 X123.158 Y107.556 E37.89141
G1 X123.137 Y107.395 E37.89692
G1 X118.137 Y99.097 E38.22485
G1 X127.105 Y95.295 E38.55458
G1 X127.183 Y95.152 E38.56008
G1 X128.016 Y85.5 E38.88802
G1 X137.498 Y87.696 E39.21747
G1 X137.653 Y87.626 E39.22322
G1 X144.003 Y80.315 E39.551
G1 X150.387 Y87.661 E39.88043
G1 X150.547 Y87.69 E39.88593
G1 X159.984 Y85.5 E40.21387
G1 X160.828 Y95.204 E40.54359
G1 X160.94 Y95.322 E40.54909
G1 X169.863 Y99.097 E40.87703
G1 X164.867 Y107.389 E41.20474
;LAYER_CHANGE
;Z:1.25
;HEIGHT:0.2
G1 Z1.25 F7800
G1 X164.459 Y107.443
G1 F4800
G1 X164.482 Y107.608 E41.21037
G1 X169.598 Y115.817 E41.53781
G1 X160.585 Y119.479 E41.86709
G1 X160.507 Y119.626 E41.87272
G1 X159.82 Y129.275 E42.20015
G1 X150.377 Y126.94 E42.52943
G1 X150.227 Y127.012 E42.53507
G1 X144 Y134.415 E42.8625
G1 X137.732 Y126.975 E43.19178
G1 X137.568 Y126.946 E43.19742
G1 X128.18 Y129.275 E43.52485
G1 X127.482 Y119.572 E43.85413
G1 X127.367 Y119.452 E43.85977
G1 X118.402 Y115.817 E44.1872
G1 X123.541 Y107.557 E44.51648
G1 X123.518 Y107.392 E44.52211
G1 X118.402 Y99.183 E44.84954
G1 X127.415 Y95.521 E45.17882
G1 X127.493 Y95.374 E45.18446
G1 X128.18 Y85.725 E45.51189
G1 X137.623 Y88.06 E45.84117
G1 X137.773 Y87.988 E45.84681
G1 X144.003 Y80.594 E46.17405
G1 X150.268 Y88.025 E46.50303
G1 X150.432 Y88.054 E46.50866
G1 X159.82 Y85.725 E46.83609
G1 X160.518 Y95.428 E47.16537
G1 X160.633 Y95.548 E47.17101
G1 X169.598 Y99.183 E47.49844
G1 X164.484 Y107.388 E47.82571
;LAYER_CHANGE
;Z:1.45
;HEIGHT:0.2
G1 Z1.45 F7800
G1 X164.075 Y107.449
G1 F4800
G1 X164.101 Y107.61 E47.83123
G1 X169.332 Y115.731 E48.15821
G1 X160.271 Y119.258 E48.48735
G1 X160.197 Y119.404 E48.49288
G1 X159.656 Y129.049 E48.81986
G1 X150.252 Y126.577 E49.149
G1 X150.107 Y126.651 E49.15452
G1 X144 Y134.136 E49.4815
G1 X137.845 Y126.608 E49.81064
G1 X137.684 Y126.583 E49.81617
G1 X128.344 Y129.049 E50.14314
G1 X127.789 Y119.341 E50.47228
G1 X127.673 Y119.226 E50.47781
G1 X118.668 Y115.731 E50.80479
G1 X123.925 Y107.551 E51.13393
G1 X123.899 Y107.39 E51.13945
G1 X118.668 Y99.269 E51.46643
G1 X127.729 Y95.742 E51.79557
G1 X127.803 Y95.596 E51.8011
G1 X128.344 Y85.951 E52.12808
G1 X137.748 Y88.423 E52.45722
G1 X137.893 Y88.349 E52.46274
G1 X143.997 Y80.868 E52.78956
G1 X150.155 Y88.392 E53.11868
G1 X150.316 Y88.417 E53.1242
G1 X159.656 Y85.951 E53.45118
G1 X160.211 Y95.659 E53.78032
G1 X160.327 Y95.774 E53.78585
G1 X169.332 Y99.269 E54.11282
G1 X164.099 Y107.394 E54.43996
;LAYER_CHANGE
;Z:1.65
;HEIGHT:0.2
G1 Z1.65 F7800
G1 X163.695 Y107.448
G1 F4800
G1 X163.723 Y107.613 E54.44561
G1 X169.066 Y115.645 E54.77215
G1 X159.964 Y119.035 E55.10092
G1 X159.89 Y119.184 E55.10657
G1 X159.492 Y128.823 E55.43312
G1 X150.136 Y126.215 E55.76189
G1 X149.987 Y126.292 E55.76754
G1 X144 Y133.856 E56.09408
G1 X137.963 Y126.247 E56.42286
G1 X137.798 Y126.222 E56.4285
G1 X128.508 Y128.823 E56.75505
G1 X128.097 Y119.119 E57.08382
G1 X127.978 Y119.001 E57.08947
G1 X118.934 Y115.645 E57.41601
G1 X124.305 Y107.552 E57.74479
G1 X124.277 Y107.387 E57.75044
G1 X118.934 Y99.355 E58.07698
G1 X128.036 Y95.965 E58.40575
G1 X128.11 Y95.816 E58.4114
G1 X128.508 Y86.177 E58.73794
G1 X137.865 Y88.785 E59.06672
G1 X138.013 Y88.708 E59.07236
G1 X143.994 Y81.144 E59.39877
G1 X150.037 Y88.753 E59.72768
G1 X150.202 Y88.778 E59.73333
G1 X159.492 Y86.177 E60.05987
G1 X159.903 Y95.881 E60.38864
G1 X160.022 Y95.999 E60.39429
G1 X169.066 Y99.355 E60.72084
G1 X163.72 Y107.393 E61.0476
;LAYER_CHANGE
;Z:1.85
;HEIGHT:0.2
G1 Z1.85 F7800
G1 X163.314 Y107.454
G1 F4800
G1 X163.345 Y107.615 E61.05315
G1 X168.8 Y115.558 E61.37931
G1 X159.718 Y118.777 E61.70548
G1 X159.653 Y118.816 E61.70805
G1 X159.583 Y118.964 E61.71359
G1 X159.327 Y128.596 E62.03976
G1 X150.088 Y125.863 E62.36592
G1 X150.012 Y125.855 E62.36849
G1 X149.868 Y125.934 E62.37404
G1 X144 Y133.577 E62.7002
G1 X138.132 Y125.934 E63.02637
G1 X138.075 Y125.883 E63.02894
G1 X137.912 Y125.863 E63.03448
G1 X128.673 Y128.596 E63.36065
G1 X128.417 Y118.964 E63.68681
G1 X128.401 Y118.89 E63.68939
G1 X128.282 Y118.777 E63.69493
G1 X119.2 Y115.558 E64.02109
G1 X124.655 Y107.615 E64.34726
G1 X124.686 Y107.546 E64.34983
G1 X124.655 Y107.385 E64.35538
G1 X119.2 Y99.442 E64.68154
G1 X128.282 Y96.223 E65.00771
G1 X128.347 Y96.184 E65.01028
G1 X128.417 Y96.036 E65.01582
G1 X128.673 Y86.404 E65.34199
G1 X137.912 Y89.137 E65.66815
G1 X137.988 Y89.145 E65.67072
G1 X138.132 Y89.066 E65.67626
G1 X143.997 Y81.428 E66.00224
G1 X149.866 Y89.063 E66.32821
G1 X150.005 Y89.144 E66.33368
G1 X150.088 Y89.137 E66.33647
G1 X159.327 Y86.404 E66.66264
G1 X159.583 Y96.036 E66.9888
G1 X159.599 Y96.11 E66.99137
G1 X159.718 Y96.223 E66.99692
G1 X168.8 Y99.442 E67.32308
G1 X163.339 Y107.399 E67.64978
;LAYER_CHANGE
;Z:2.05
;HEIGHT:0.2
G1 Z2.05 F7800
G1 X162.935 Y107.454
G1 F4800
G1 X162.967 Y107.618 E67.65544
G1 X168.534 Y115.472 E67.98129
G1 X159.414 Y118.554 E68.30713
G1 X159.346 Y118.592 E68.30978
G1 X159.276 Y118.744 E68.31544
G1 X159.163 Y128.37 E68.64129
G1 X149.973 Y125.503 E68.96713
G1 X149.895 Y125.494 E68.96978
G1 X149.749 Y125.575 E68.97544
G1 X144 Y133.297 E69.30129
G1 X138.251 Y125.575 E69.62714
G1 X138.193 Y125.523 E69.62978
G1 X138.027 Y125.503 E69.63544
G1 X128.837 Y128.37 E69.96129
G1 X128.724 Y118.744 E70.28714
G1 X128.708 Y118.667 E70.28978
G1 X128.586 Y118.554 E70.29544
G1 X119.466 Y115.472 E70.62129
G1 X125.033 Y107.618 E70.94714
G1 X125.065 Y107.546 E70.94978
G1 X125.033 Y107.382 E70.95544
G1 X119.466 Y99.528 E71.28129
G1 X128.586 Y96.446 E71.60714
G1 X128.654 Y96.408 E71.60978
G1 X128.724 Y96.256 E71.61545
G1 X128.837 Y86.63 E71.94129
G1 X138.027 Y89.497 E72.26714
G1 X138.105 Y89.506 E72.26979
G1 X138.251 Y89.425 E72.27544
G1 X143.996 Y81.708 E72.60109
G1 X149.747 Y89.421 E72.92673
G1 X149.807 Y89.477 E72.92952
G1 X149.973 Y89.497 E72.93518
G1 X159.163 Y86.63 E73.26103
G1 X159.276 Y96.256 E73.58687
G1 X159.292 Y96.333 E73.58952
G1 X159.414 Y96.446 E73.59518
G1 X168.534 Y99.528 E73.92103
G1 X162.96 Y107.399 E74.24748
;LAYER_CHANGE
;Z:2.25
;HEIGHT:0.2
G1 Z2.25 F7800
G1 X162.555 Y107.459
G1 F4800
G1 X162.59 Y107.62 E74.25304
G1 X168.267 Y115.385 E74.57863
G1 X159.11 Y118.33 E74.90423
G1 X159.035 Y118.373 E74.90717
G1 X158.969 Y118.524 E74.91274
G1 X158.998 Y128.143 E75.23833
G1 X149.859 Y125.143 E75.56392
G1 X149.772 Y125.134 E75.56687
G1 X149.63 Y125.217 E75.57243
G1 X144 Y133.016 E75.89802
G1 X138.37 Y125.217 E76.22361
G1 X138.305 Y125.159 E76.22656
G1 X138.141 Y125.143 E76.23213
G1 X129.002 Y128.143 E76.55772
G1 X129.031 Y118.524 E76.88331
G1 X129.013 Y118.439 E76.88625
G1 X128.89 Y118.33 E76.89182
G1 X119.733 Y115.385 E77.21741
G1 X125.41 Y107.62 E77.543
G1 X125.445 Y107.541 E77.54595
G1 X125.41 Y107.38 E77.55151
G1 X119.733 Y99.615 E77.8771
G1 X128.89 Y96.67 E78.20269
G1 X128.965 Y96.627 E78.20564
G1 X129.031 Y96.476 E78.21121
G1 X129.002 Y86.857 E78.5368
G1 X138.141 Y89.857 E78.86239
G1 X138.228 Y89.866 E78.86533
G1 X138.37 Y89.783 E78.8709
G1 X143.996 Y81.989 E79.19627
G1 X149.628 Y89.779 E79.52164
G1 X149.695 Y89.841 E79.52474
G1 X149.859 Y89.857 E79.5303
G1 X158.998 Y86.857 E79.85589
G1 X158.969 Y96.476 E80.18148
G1 X158.987 Y96.561 E80.18443
G1 X159.11 Y96.67 E80.19
G1 X168.267 Y99.615 E80.51559
G1 X162.579 Y107.405 E80.84207
;LAYER_CHANGE
;Z:2.45
;HEIGHT:0.2
G1 Z2.45 F7800
G1 X162.179 Y107.459
G1 F4800
G1 X162.216 Y107.622 E80.84775
G1 X168 Y115.298 E81.17307
G1 X158.809 Y118.108 E81.49839
G1 X158.731 Y118.152 E81.50142
G1 X158.665 Y118.306 E81.50709
G1 X158.833 Y127.916 E81.83242
G1 X149.746 Y124.787 E82.15774
G1 X149.657 Y124.777 E82.16076
G1 X149.513 Y124.862 E82.16644
G1 X144 Y132.735 E82.49176
G1 X138.487 Y124.862 E82.81709
G1 X138.421 Y124.802 E82.82011
G1 X138.254 Y124.787 E82.82579
G1 X129.167 Y127.916 E83.15111
G1 X129.335 Y118.306 E83.47643
