; generated by PrusaSlicer 2.5.2+win64 on 2023-10-31 at 08:35:24 UTC

; 

; external perimeters extrusion width = 0.45mm
; perimeters extrusion width = 0.45mm
; infill extrusion width = 0.45mm
; solid infill extrusion width = 0.45mm
; top infill extrusion width = 0.40mm
; first layer extrusion width = 0.45mm

M107
M190 S55 ; set bed temperature and wait for it to be reached
M104 S215 ; set temperature
;TYPE:Custom
;CUSTOM SLICING PROFILE FOR ANISOPRINT A4
T0 R ; switch extruder
G28 ; home all axes
G1 Z10 F900 ; lift nozzle
M204 P20
M106 P1 S255; max Fanspeed as workaround
M109 S215 ; set temperature and wait for it to be reached
G21 ; set units to millimeters
G90 ; use absolute coordinates
M82 ; use absolute distances for extrusion
G92 E0
; Filament gcode
M107
;LAYER_CHANGE
;Z:0.25
;HEIGHT:0.25
G1 Z.25 F7800
G1 E-6.5 F2400
G92 E0
G1 X117.411 Y85.304 F7800
G1 E6.5 F2400
;TYPE:Skirt/Brim
;WIDTH:0.45
G1 F1800
G1 X121.269 Y79.994 E6.77042
G1 X122.976 Y78.32 E6.86887
G1 X124.864 Y77.382 E6.95573
G1 X141.778 Y71.886 E7.6884
G1 X144.142 Y71.536 E7.78685
G1 X146.222 Y71.886 E7.8737
G1 X163.136 Y77.382 E8.60637
G1 X165.255 Y78.488 E8.70482
G1 X166.731 Y79.994 E8.79168
G1 X177.184 Y94.382 E9.52434
G1 X178.248 Y96.522 E9.6228
G1 X178.557 Y98.607 E9.70965
G1 X178.557 Y116.393 E10.44232
G1 X178.16 Y118.749 E10.54077
G1 X177.184 Y120.618 E10.62763
G1 X166.731 Y135.006 E11.36029
G1 X165.024 Y136.68 E11.45874
G1 X163.136 Y137.618 E11.5456
G1 X146.222 Y143.114 E12.27827
G1 X143.858 Y143.464 E12.37672
G1 X141.778 Y143.114 E12.46358
G1 X124.864 Y137.618 E13.19624
G1 X122.745 Y136.512 E13.29469
G1 X121.269 Y135.006 E13.38155
G1 X110.816 Y120.618 E14.11422
G1 X109.752 Y118.478 E14.21267
G1 X109.443 Y116.393 E14.29953
G1 X109.443 Y98.607 E15.03219
G1 X109.84 Y96.251 E15.13064
G1 X110.816 Y94.382 E15.2175
G1 X117.376 Y85.353 E15.67728
G1 X117.696 Y85.586 F7800
G1 F1800
G1 X121.59 Y80.226 E15.95017
G1 X123.256 Y78.609 E16.04585
G1 X124.986 Y77.759 E16.12525
G1 X141.901 Y72.263 E16.85792
G1 X144.2 Y71.934 E16.95359
G1 X146.099 Y72.263 E17.033
G1 X163.014 Y77.759 E17.76566
G1 X165.067 Y78.844 E17.86134
G1 X166.41 Y80.226 E17.94074
G1 X176.864 Y94.615 E18.67341
G1 X177.888 Y96.7 E18.76909
G1 X178.161 Y98.607 E18.84849
G1 X178.161 Y116.393 E19.58116
G1 X177.764 Y118.681 E19.67684
G1 X176.864 Y120.385 E19.75624
G1 X166.41 Y134.774 E20.48891
G1 X164.744 Y136.391 E20.58459
G1 X163.014 Y137.241 E20.66399
G1 X146.099 Y142.737 E21.39665
G1 X143.8 Y143.066 E21.49233
G1 X141.901 Y142.737 E21.57174
G1 X124.986 Y137.241 E22.3044
G1 X122.933 Y136.156 E22.40008
G1 X121.59 Y134.774 E22.47948
G1 X111.136 Y120.385 E23.21215
G1 X110.112 Y118.3 E23.30783
G1 X109.839 Y116.393 E23.38723
G1 X109.839 Y98.607 E24.1199
G1 X110.236 Y96.319 E24.21558
G1 X111.136 Y94.615 E24.29498
G1 X117.661 Y85.634 E24.75228
G1 X117.982 Y85.867 F7800
G1 F1800
G1 X121.911 Y80.459 E25.02765
G1 X123.535 Y78.898 E25.12047
G1 X125.109 Y78.136 E25.1925
G1 X142.023 Y72.64 E25.92516
G1 X144.256 Y72.332 E26.01799
G1 X145.977 Y72.64 E26.09001
G1 X162.891 Y78.136 E26.82268
G1 X164.878 Y79.199 E26.9155
G1 X166.089 Y80.459 E26.98753
G1 X176.543 Y94.848 E27.7202
G1 X177.526 Y96.876 E27.81302
G1 X177.765 Y98.607 E27.88505
G1 X177.765 Y116.393 E28.61771
G1 X177.368 Y118.611 E28.71054
G1 X176.543 Y120.152 E28.78256
G1 X166.089 Y134.541 E29.51523
G1 X164.465 Y136.102 E29.60806
G1 X162.891 Y136.864 E29.68008
G1 X145.977 Y142.36 E30.41275
G1 X143.744 Y142.668 E30.50557
G1 X142.023 Y142.36 E30.5776
G1 X125.109 Y136.864 E31.31026
G1 X123.122 Y135.801 E31.40309
G1 X121.911 Y134.541 E31.47512
G1 X111.457 Y120.152 E32.20778
G1 X110.474 Y118.124 E32.30061
G1 X110.235 Y116.393 E32.37263
G1 X110.235 Y98.607 E33.1053
G1 X110.632 Y96.389 E33.19812
G1 X111.457 Y94.848 E33.27015
G1 X117.947 Y85.916 E33.72498
G1 E27.22498 F2400
G92 E0
G1 X126.836 Y87.296 F7800
G1 E6.5 F2400
;TYPE:External perimeter
G1 F1800
G1 X127.273 Y84.477 E6.6175
G1 X137.032 Y86.054 E7.02472
G1 X144 Y79.043 E7.43193
G1 X150.968 Y86.054 E7.83913
G1 X160.727 Y84.477 E8.24635
G1 X162.243 Y94.245 E8.65358
G1 X171.065 Y98.706 E9.0608
G1 X166.55 Y107.5 E9.46802
G1 X171.065 Y116.294 E9.87524
G1 X162.243 Y120.755 E10.28246
G1 X160.727 Y130.523 E10.68968
G1 X150.968 Y128.946 E11.09691
G1 X144 Y135.958 E11.50413
G1 X137.032 Y128.947 E11.91134
G1 X127.273 Y130.523 E12.31857
G1 X125.757 Y120.755 E12.72579
G1 X116.935 Y116.294 E13.13301
G1 X121.45 Y107.5 E13.54023
G1 X116.935 Y98.706 E13.94745
G1 X125.757 Y94.245 E14.35468
G1 X126.826 Y87.355 E14.64193
;LAYER_CHANGE
;Z:0.45
;HEIGHT:0.2
G1 Z0.250 F7800
M104 S212 ; set temperature
G1 F4800
G1 Z0.253 X127.334 Y84.562 E14.73799
G1 Z0.263 X137.076 Y86.191 E15.07233
G1 Z0.273 X144 Y79.147 E15.40665
G1 Z0.283 X150.924 Y86.191 E15.74097
G1 Z0.293 X160.666 Y84.562 E16.07531
G1 Z0.303 X162.126 Y94.33 E16.40965
G1 Z0.313 X170.966 Y98.738 E16.74399
G1 Z0.323 X166.405 Y107.5 E17.07833
G1 Z0.333 X170.966 Y116.262 E17.41267
G1 Z0.343 X162.126 Y120.67 E17.74701
G1 Z0.353 X160.666 Y130.438 E18.08135
G1 Z0.363 X150.924 Y128.809 E18.41569
G1 Z0.373 X144 Y135.853 E18.75003
G1 Z0.383 X137.076 Y128.809 E19.08437
G1 Z0.393 X127.334 Y130.438 E19.41871
G1 Z0.403 X125.874 Y120.67 E19.75305
G1 Z0.413 X117.034 Y116.262 E20.08739
G1 Z0.423 X121.595 Y107.5 E20.42173
G1 Z0.433 X117.034 Y98.738 E20.75607
G1 Z0.443 X125.874 Y94.33 E21.09041
G1 Z0.450 X126.915 Y87.368 E21.3287
;LAYER_CHANGE
;Z:0.65
;HEIGHT:0.2
G1 Z0.450 F7800
G1 F4800
G1 Z0.453 X127.389 Y84.636 E21.42251
G1 Z0.463 X137.116 Y86.313 E21.75662
G1 Z0.473 X144 Y79.24 E22.09072
G1 Z0.483 X150.884 Y86.313 E22.42479
G1 Z0.493 X160.611 Y84.636 E22.75891
G1 Z0.503 X162.022 Y94.406 E23.09302
G1 Z0.513 X170.878 Y98.767 E23.42714
G1 Z0.523 X166.277 Y107.5 E23.76125
G1 Z0.533 X170.878 Y116.233 E24.09537
G1 Z0.543 X162.022 Y120.594 E24.42948
G1 Z0.553 X160.611 Y130.364 E24.7636
G1 Z0.563 X150.884 Y128.687 E25.09772
G1 Z0.573 X144 Y135.761 E25.43183
G1 Z0.583 X137.116 Y128.687 E25.76595
G1 Z0.593 X127.389 Y130.364 E26.10006
G1 Z0.603 X125.978 Y120.594 E26.43418
G1 Z0.613 X117.122 Y116.233 E26.76829
G1 Z0.623 X121.723 Y107.5 E27.10241
G1 Z0.633 X117.122 Y98.767 E27.43653
G1 Z0.643 X125.978 Y94.406 E27.77064
G1 Z0.650 X126.992 Y87.379 E28.01095
M106 S249.9
;LAYER_CHANGE
;Z:0.85
;HEIGHT:0.2
G1 Z0.650 F7800
G1 F4800
G1 Z0.653 X127.443 Y84.711 E28.1025
G1 Z0.663 X137.156 Y86.435 E28.4364
G1 Z0.673 X144.001 Y79.334 E28.77027
G1 Z0.683 X150.844 Y86.435 E29.10411
G1 Z0.693 X160.557 Y84.711 E29.438
G1 Z0.703 X161.919 Y94.481 E29.7719
G1 Z0.713 X170.79 Y98.796 E30.1058
G1 Z0.723 X166.149 Y107.5 E30.4397
G1 Z0.733 X170.79 Y116.204 E30.7736
G1 Z0.743 X161.919 Y120.519 E31.1075
G1 Z0.753 X160.557 Y130.289 E31.4414
G1 Z0.763 X150.844 Y128.565 E31.77529
G1 Z0.773 X144 Y135.668 E32.10919
G1 Z0.783 X137.156 Y128.565 E32.44309
G1 Z0.793 X127.443 Y130.289 E32.77699
G1 Z0.803 X126.081 Y120.519 E33.11089
G1 Z0.813 X117.21 Y116.204 E33.44479
G1 Z0.823 X121.851 Y107.5 E33.77868
G1 Z0.833 X117.21 Y98.796 E34.11258
G1 Z0.843 X126.081 Y94.481 E34.44648
G1 Z0.850 X127.07 Y87.39 E34.68883
;LAYER_CHANGE
;Z:1.05
;HEIGHT:0.2
G1 Z0.850 F7800
G1 F4800
G1 Z0.853 X127.498 Y84.786 E34.77811
G1 Z0.863 X137.195 Y86.557 E35.1118
G1 Z0.873 X144.001 Y79.427 E35.44545
G1 Z0.883 X150.805 Y86.557 E35.77907
G1 Z0.893 X160.502 Y84.786 E36.11276
G1 Z0.903 X161.815 Y94.557 E36.44644
G1 Z0.913 X170.702 Y98.824 E36.78013
G1 Z0.923 X166.02 Y107.5 E37.11382
G1 Z0.933 X170.702 Y116.176 E37.44751
G1 Z0.943 X161.815 Y120.443 E37.7812
G1 Z0.953 X160.502 Y130.214 E38.11489
G1 Z0.963 X150.805 Y128.443 E38.44858
G1 Z0.973 X144 Y135.576 E38.78227
G1 Z0.983 X137.195 Y128.443 E39.11596
G1 Z0.993 X127.498 Y130.214 E39.44965
G1 Z1.003 X126.185 Y120.443 E39.78334
G1 Z1.013 X117.298 Y116.176 E40.11702
G1 Z1.023 X121.98 Y107.5 E40.45071
G1 Z1.033 X117.298 Y98.824 E40.7844
G1 Z1.043 X126.185 Y94.557 E41.11809
G1 Z1.050 X127.146 Y87.401 E41.3625
;LAYER_CHANGE
;Z:1.25
;HEIGHT:0.2
G1 Z1.050 F7800
G1 F4800
G1 Z1.053 X127.552 Y84.861 E41.4495
G1 Z1.063 X137.235 Y86.68 E41.78299
G1 Z1.073 X144.001 Y79.521 E42.11641
G1 Z1.083 X150.765 Y86.68 E42.44978
G1 Z1.093 X160.448 Y84.861 E42.78327
G1 Z1.103 X161.711 Y94.632 E43.11676
G1 Z1.113 X170.613 Y98.853 E43.45024
G1 Z1.123 X165.892 Y107.5 E43.78373
G1 Z1.133 X170.613 Y116.147 E44.11722
G1 Z1.143 X161.711 Y120.368 E44.45071
G1 Z1.153 X160.448 Y130.139 E44.78419
G1 Z1.163 X150.765 Y128.32 E45.11768
G1 Z1.173 X144 Y135.483 E45.45117
G1 Z1.183 X137.235 Y128.32 E45.78466
G1 Z1.193 X127.552 Y130.139 E46.11814
G1 Z1.203 X126.289 Y120.368 E46.45163
G1 Z1.213 X117.387 Y116.147 E46.78512
G1 Z1.223 X122.108 Y107.5 E47.11861
G1 Z1.233 X117.387 Y98.853 E47.45209
G1 Z1.243 X126.289 Y94.632 E47.78558
G1 Z1.250 X127.223 Y87.41 E48.03207
;LAYER_CHANGE
;Z:1.45
;HEIGHT:0.2
G1 Z1.250 F7800
G1 F4800
G1 Z1.253 X127.606 Y84.936 E48.11678
G1 Z1.263 X137.275 Y86.802 E48.45007
G1 Z1.273 X144.001 Y79.614 E48.78329
G1 Z1.283 X150.725 Y86.802 E49.11645
G1 Z1.293 X160.394 Y84.936 E49.44974
G1 Z1.303 X161.607 Y94.708 E49.78303
G1 Z1.313 X170.525 Y98.881 E50.11633
G1 Z1.323 X165.763 Y107.5 E50.44962
G1 Z1.333 X170.525 Y116.119 E50.78291
G1 Z1.343 X161.607 Y120.292 E51.11621
G1 Z1.353 X160.394 Y130.064 E51.4495
G1 Z1.363 X150.725 Y128.198 E51.78279
G1 Z1.373 X144 Y135.39 E52.11609
G1 Z1.383 X137.275 Y128.198 E52.44938
G1 Z1.393 X127.606 Y130.064 E52.78268
G1 Z1.403 X126.393 Y120.292 E53.11597
G1 Z1.413 X117.475 Y116.119 E53.44926
G1 Z1.423 X122.237 Y107.5 E53.78256
G1 Z1.433 X117.475 Y98.881 E54.11585
G1 Z1.443 X126.393 Y94.708 E54.44914
G1 Z1.450 X127.298 Y87.42 E54.69773
;LAYER_CHANGE
;Z:1.65
;HEIGHT:0.2
G1 Z1.450 F7800
G1 F4800
G1 Z1.452 X127.661 Y85.011 E54.78013
G1 Z1.462 X137.314 Y86.924 E55.11324
G1 Z1.472 X144.002 Y79.707 E55.44626
G1 Z1.482 X150.686 Y86.924 E55.77921
G1 Z1.492 X160.339 Y85.011 E56.11232
G1 Z1.502 X161.503 Y94.783 E56.44543
G1 Z1.512 X170.437 Y98.91 E56.77853
G1 Z1.522 X165.635 Y107.5 E57.11164
G1 Z1.532 X170.437 Y116.09 E57.44475
G1 Z1.542 X161.503 Y120.217 E57.77786
G1 Z1.552 X160.339 Y129.989 E58.11096
G1 Z1.562 X150.686 Y128.076 E58.44407
G1 Z1.572 X144 Y135.298 E58.77718
G1 Z1.582 X137.314 Y128.076 E59.11029
G1 Z1.592 X127.661 Y129.989 E59.44339
G1 Z1.602 X126.497 Y120.217 E59.7765
G1 Z1.612 X117.563 Y116.09 E60.10961
G1 Z1.622 X122.365 Y107.5 E60.44272
G1 Z1.632 X117.563 Y98.91 E60.77582
G1 Z1.642 X126.497 Y94.783 E61.10893
G1 Z1.650 X127.373 Y87.429 E61.35963
;LAYER_CHANGE
;Z:1.85
;HEIGHT:0.2
G1 Z1.650 F7800
G1 F4800
G1 Z1.652 X127.715 Y85.086 E61.43972
G1 Z1.662 X137.354 Y87.046 E61.77265
G1 Z1.672 X144.002 Y79.801 E62.10549
G1 Z1.682 X150.646 Y87.046 E62.43823
G1 Z1.692 X160.285 Y85.086 E62.77116
G1 Z1.702 X161.399 Y94.859 E63.10409
G1 Z1.712 X170.349 Y98.939 E63.43702
G1 Z1.722 X165.507 Y107.5 E63.76995
G1 Z1.732 X170.349 Y116.061 E64.10288
G1 Z1.742 X161.399 Y120.141 E64.43581
G1 Z1.752 X160.285 Y129.914 E64.76874
G1 Z1.762 X150.646 Y127.954 E65.10167
G1 Z1.772 X144 Y135.205 E65.4346
G1 Z1.782 X137.354 Y127.954 E65.76752
G1 Z1.792 X127.715 Y129.914 E66.10045
G1 Z1.802 X126.601 Y120.141 E66.43338
G1 Z1.812 X117.651 Y116.061 E66.76631
G1 Z1.822 X122.493 Y107.5 E67.09924
G1 Z1.832 X117.651 Y98.939 E67.43217
G1 Z1.842 X126.601 Y94.859 E67.7651
G1 Z1.850 X127.447 Y87.437 E68.01794
;LAYER_CHANGE
;Z:2.05
;HEIGHT:0.2
G1 Z1.850 F7800
G1 F4800
G1 Z1.852 X127.77 Y85.161 E68.0957
G1 Z1.862 X137.394 Y87.168 E68.42846
G1 Z1.872 X144.002 Y79.894 E68.76111
G1 Z1.882 X150.606 Y87.168 E69.09367
G1 Z1.892 X160.23 Y85.161 E69.42643
G1 Z1.902 X161.295 Y94.934 E69.75918
G1 Z1.912 X170.261 Y98.967 E70.09194
G1 Z1.922 X165.378 Y107.5 E70.4247
G1 Z1.932 X170.261 Y116.033 E70.75746
G1 Z1.942 X161.295 Y120.066 E71.09022
G1 Z1.952 X160.23 Y129.839 E71.42298
G1 Z1.962 X150.606 Y127.832 E71.75574
G1 Z1.972 X144 Y135.112 E72.08849
G1 Z1.982 X137.394 Y127.832 E72.42125
G1 Z1.992 X127.77 Y129.839 E72.75401
G1 Z2.002 X126.705 Y120.066 E73.08677
G1 Z2.012 X117.739 Y116.033 E73.41953
G1 Z2.022 X122.622 Y107.5 E73.75229
G1 Z2.032 X117.739 Y98.967 E74.08505
G1 Z2.042 X126.705 Y94.934 E74.4178
G1 Z2.050 X127.521 Y87.445 E74.6728
;LAYER_CHANGE
;Z:2.25
;HEIGHT:0.2
G1 Z2.050 F7800
G1 F4800
G1 Z2.052 X127.825 Y85.236 E74.74823
G1 Z2.062 X137.433 Y87.29 E75.08082
G1 Z2.072 X144.002 Y79.988 E75.4133
G1 Z2.082 X150.567 Y87.29 E75.74567
G1 Z2.092 X160.175 Y85.236 E76.07826
G1 Z2.102 X161.191 Y95.01 E76.41086
G1 Z2.112 X170.172 Y98.996 E76.74346
G1 Z2.122 X165.25 Y107.5 E77.07605
G1 Z2.132 X170.172 Y116.004 E77.40865
G1 Z2.142 X161.191 Y119.99 E77.74124
G1 Z2.152 X160.175 Y129.764 E78.07384
G1 Z2.162 X150.567 Y127.71 E78.40643
G1 Z2.172 X144 Y135.019 E78.73903
G1 Z2.182 X137.433 Y127.71 E79.07162
G1 Z2.192 X127.825 Y129.764 E79.40422
G1 Z2.202 X126.809 Y119.99 E79.73682
G1 Z2.212 X117.828 Y116.004 E80.06941
G1 Z2.222 X122.75 Y107.5 E80.40201
G1 Z2.232 X117.828 Y98.996 E80.7346
G1 Z2.242 X126.809 Y95.01 E81.0672
G1 Z2.250 X127.594 Y87.453 E81.32437
;LAYER_CHANGE
;Z:2.45
;HEIGHT:0.2
G1 Z2.250 F7800
G1 F4800
G1 Z2.252 X127.879 Y85.312 E81.39745
G1 Z2.262 X137.473 Y87.412 E81.72988
G1 Z2.272 X144.003 Y80.081 E82.0622
G1 Z2.282 X150.527 Y87.412 E82.39439
G1 Z2.292 X160.121 Y85.312 E82.72683
G1 Z2.302 X161.088 Y95.085 E83.05927
G1 Z2.312 X170.084 Y99.025 E83.39171
G1 Z2.322 X165.121 Y107.5 E83.72415
G1 Z2.332 X170.084 Y115.975 E84.05659
G1 Z2.342 X161.088 Y119.915 E84.38903
G1 Z2.352 X160.121 Y129.688 E84.72147
G1 Z2.362 X150.527 Y127.588 E85.05391
G1 Z2.372 X144 Y134.926 E85.38635
G1 Z2.382 X137.473 Y127.588 E85.71879
G1 Z2.392 X127.879 Y129.688 E86.05124
G1 Z2.402 X126.912 Y119.915 E86.38368
G1 Z2.412 X117.916 Y115.975 E86.71612
G1 Z2.422 X122.879 Y107.5 E87.04856
G1 Z2.432 X117.916 Y99.025 E87.381
G1 Z2.442 X126.912 Y95.085 E87.71344
G1 Z2.450 X127.667 Y87.46 E87.9728
;LAYER_CHANGE
;Z:2.65
;HEIGHT:0.2
G1 Z2.450 F7800
G1 F4800
G1 Z2.452 X127.934 Y85.387 E88.04352
G1 Z2.462 X137.513 Y87.535 E88.37581
G1 Z2.472 X144.003 Y80.174 E88.70796
G1 Z2.482 X150.487 Y87.535 E89.03999
G1 Z2.492 X160.066 Y85.387 E89.37228
G1 Z2.502 X160.984 Y95.161 E89.70457
G1 Z2.512 X169.996 Y99.053 E90.03687
G1 Z2.522 X164.993 Y107.5 E90.36916
G1 Z2.532 X169.996 Y115.947 E90.70145
G1 Z2.542 X160.984 Y119.839 E91.03374
G1 Z2.552 X160.066 Y129.613 E91.36604
G1 Z2.562 X150.487 Y127.465 E91.69833
G1 Z2.572 X144 Y134.834 E92.03062
G1 Z2.582 X137.513 Y127.465 E92.36292
G1 Z2.592 X127.934 Y129.613 E92.69521
G1 Z2.602 X127.016 Y119.839 E93.0275
G1 Z2.612 X118.004 Y115.947 E93.3598
G1 Z2.622 X123.007 Y107.5 E93.69209
G1 Z2.632 X118.004 Y99.053 E94.02438
G1 Z2.642 X127.016 Y95.161 E94.35668
G1 Z2.650 X127.739 Y87.467 E94.61825
;LAYER_CHANGE
;Z:2.85
;HEIGHT:0.2
G1 Z2.650 F7800
G1 F4800
G1 Z2.652 X127.988 Y85.462 E94.6866
G1 Z2.662 X137.552 Y87.657 E95.01875
G1 Z2.672 X144.003 Y80.268 E95.35075
G1 Z2.682 X150.448 Y87.657 E95.68261
G1 Z2.692 X160.012 Y85.462 E96.01477
G1 Z2.702 X160.88 Y95.236 E96.34692
G1 Z2.712 X169.907 Y99.082 E96.67907
G1 Z2.722 X164.864 Y107.5 E97.01123
G1 Z2.732 X169.907 Y115.918 E97.34338
G1 Z2.742 X160.88 Y119.764 E97.67553
G1 Z2.752 X160.012 Y129.538 E98.00769
G1 Z2.762 X150.447 Y127.343 E98.33984
G1 Z2.772 X144 Y134.741 E98.67199
G1 Z2.782 X137.553 Y127.343 E99.00415
G1 Z2.792 X127.988 Y129.538 E99.3363
G1 Z2.802 X127.12 Y119.764 E99.66845
G1 Z2.812 X118.093 Y115.918 E100.00061
G1 Z2.822 X123.136 Y107.5 E100.33276
G1 Z2.832 X118.093 Y99.082 E100.66491
G1 Z2.842 X127.12 Y95.236 E100.99707
G1 Z2.850 X127.81 Y87.473 E101.26087
;LAYER_CHANGE
;Z:3.05
;HEIGHT:0.2
G1 Z2.850 F7800
G1 F4800
G1 Z2.852 X128.043 Y85.537 E101.32684
G1 Z2.862 X137.592 Y87.779 E101.65885
G1 Z2.872 X144.003 Y80.362 E101.99071
G1 Z2.882 X150.408 Y87.779 E102.32242
G1 Z2.892 X159.957 Y85.537 E102.65444
G1 Z2.902 X160.776 Y95.312 E102.98646
G1 Z2.912 X169.819 Y99.111 E103.31849
G1 Z2.922 X164.736 Y107.5 E103.65051
G1 Z2.932 X169.819 Y115.889 E103.98253
G1 Z2.942 X160.776 Y119.688 E104.31455
G1 Z2.952 X159.957 Y129.463 E104.64657
G1 Z2.962 X150.408 Y127.221 E104.97859
G1 Z2.972 X144 Y134.648 E105.31062
G1 Z2.982 X137.592 Y127.221 E105.64264
G1 Z2.992 X128.043 Y129.463 E105.97466
