; generated by PrusaSlicer 2.6.1+win64 on 2023-11-09 at 10:31:59 UTC


;
;

;
;

;
;
; 

; external perimeters extrusion width = 0.45mm
; perimeters extrusion width = 0.45mm
; infill extrusion width = 0.45mm
; solid infill extrusion width = 0.45mm
; top infill extrusion width = 0.42mm
; first layer extrusion width = 0.50mm

M73 P0 R2
M201 X4000 Y4000 Z400 E5000 ; sets maximum accelerations, mm/sec^2
M203 X400 Y400 Z12 E80 ; sets maximum feedrates, mm / sec
M204 P4000 R1250 T4000 ; sets acceleration (P, T) and retract acceleration (R), mm/sec^2
M205 X8.00 Y8.00 Z2.00 E10.00 ; sets the jerk limits, mm/sec
M205 S0 T0 ; sets the minimum extruding and travel feed rate, mm/sec
;TYPE:Custom
M862.3 P "MINI" ; printer model check
M862.1 P0.4 ; nozzle diameter check
M862.5 P2 ; g-code level check
M862.6 P"Input shaper" ; FW feature check
G90 ; use absolute coordinates
M83 ; extruder relative mode
M104 S170 ; set extruder temp for bed leveling
M140 S60 ; set bed temp
M109 R170 ; wait for bed leveling temp
M190 S60 ; wait for bed temp
M569 S1 X Y ; set stealthchop for X Y
M204 T1250 ; set travel acceleration
G28 ; home all without mesh bed level
G29 ; mesh bed leveling 
M104 S230 ; set extruder temp
G92 E0
G1 Y-2 X179 F2400
G1 Z3 F720
M109 S230 ; wait for extruder temp

; intro line
M73 P3 R1
G1 X170 F1000
G1 Z0.2 F720
M73 P4 R1
G1 X110 E8 F900
G1 X40 E10 F700
G92 E0

M569 S0 X Y ; set spreadcycle for X Y
M204 T4000 ; restore travel acceleration
M572 W0.06 ; set smooth time
M221 S95 ; set flow
G21 ; set units to millimeters
G90 ; use absolute coordinates
M83 ; use relative distances for extrusion
M572 S0.3
M107
;LAYER_CHANGE
;Z:0.2
;HEIGHT:0.2
;BEFORE_LAYER_CHANGE
G92 E0.0
;0.2
M201 X4000 Y4000
M74 W0

M73 P7 R1
G1 E-2.5 F4200
M73 P12 R1
G1 Z.2 F720
;AFTER_LAYER_CHANGE
;0.2
G1 Z.4
M204 T4000
G1 X86.394 Y67.073 F24000
G1 Z.2 F720
G1 E2.5 F2400
M204 P500
;TYPE:Skirt/Brim
;WIDTH:0.5
M73 P13 R1
G1 X86.845 Y66.625 E.02416
G1 X87.347 Y66.241 E.02402
G1 X88.207 Y65.82 E.03639
G1 X88.967 Y65.607 E.03
G1 X89.058 Y65.596 E.00348
G1 X91.002 Y65.604 E.07388
G1 X91.744 Y65.801 E.02918
G1 X92.47 Y66.132 E.03033
G1 X93.087 Y66.568 E.02871
G1 X93.618 Y67.086 E.02819
G1 X94.1 Y67.752 E.03125
G1 X94.461 Y68.533 E.0327
G1 X94.692 Y69.665 E.04391
G1 X94.692 Y110.337 E1.54579
G1 X94.497 Y111.352 E.03928
M73 P14 R1
G1 X94.086 Y112.274 E.03837
G1 X93.649 Y112.876 E.02827
G1 X93.1 Y113.422 E.02943
G1 X92.526 Y113.835 E.02688
G1 X91.667 Y114.226 E.03587
G1 X90.908 Y114.409 E.02967
G1 X89.455 Y114.444 E.05524
G1 X88.284 Y114.212 E.04537
G1 X87.502 Y113.849 E.03277
G1 X86.827 Y113.36 E.03168
G1 X86.233 Y112.734 E.0328
G1 X85.771 Y112.013 E.03255
G1 X85.466 Y111.236 E.03172
G1 X85.315 Y110.405 E.0321
G1 X85.308 Y69.664 E1.54842
G1 X85.519 Y68.597 E.04134
M73 P15 R1
G1 X85.964 Y67.641 E.04008
G1 X86.358 Y67.121 E.0248
M204 P2000
G1 X86.722 Y67.395 F24000
M204 P500
G1 F2400
G1 X87.135 Y66.979 E.02228
G1 X87.606 Y66.619 E.02253
G1 X88.387 Y66.24 E.03299
G1 X89.045 Y66.057 E.02596
G1 X90.969 Y66.061 E.07312
G1 X91.603 Y66.236 E.025
G1 X92.258 Y66.538 E.02741
G1 X92.807 Y66.929 E.02562
G1 X93.283 Y67.397 E.02537
G1 X93.715 Y68 E.02819
G1 X94.034 Y68.699 E.0292
G1 X94.235 Y69.688 E.03836
G1 X94.235 Y110.315 E1.54408
G1 X94.054 Y111.237 E.03571
M73 P16 R1
G1 X93.68 Y112.063 E.03446
G1 X93.292 Y112.591 E.0249
G1 X92.816 Y113.063 E.02548
G1 X92.314 Y113.43 E.02363
G1 X91.535 Y113.788 E.03258
G1 X90.871 Y113.952 E.02599
G1 X89.469 Y113.987 E.0533
G1 X88.449 Y113.785 E.03952
G1 X87.749 Y113.465 E.02925
G1 X87.142 Y113.028 E.02843
G1 X86.604 Y112.466 E.02957
G1 X86.188 Y111.824 E.02907
G1 X85.9 Y111.091 E.02993
G1 X85.768 Y110.345 E.02879
G1 X85.765 Y69.685 E1.54534
G1 X85.946 Y68.763 E.03571
M73 P17 R1
G1 X86.345 Y67.896 E.03627
G1 X86.686 Y67.443 E.02155
M204 P2000
G1 X87.047 Y67.718 F24000
M204 P500
G1 F2400
G1 X87.447 Y67.313 E.02163
G1 X87.863 Y66.997 E.01985
G1 X88.565 Y66.662 E.02956
G1 X89.121 Y66.51 E.02191
G1 X90.879 Y66.51 E.06682
G1 X91.43 Y66.66 E.0217
G1 X92.046 Y66.943 E.02576
G1 X92.524 Y67.288 E.0224
G1 X92.947 Y67.708 E.02266
G1 X93.329 Y68.245 E.02505
G1 X93.607 Y68.862 E.02572
G1 X93.778 Y69.71 E.03288
G1 X93.778 Y110.291 E1.54233
G1 X93.612 Y111.12 E.03213
M73 P18 R1
G1 X93.276 Y111.849 E.03051
G1 X92.957 Y112.28 E.02038
G1 X92.53 Y112.707 E.02295
G1 X92.099 Y113.026 E.02038
G1 X91.4 Y113.351 E.0293
G1 X90.833 Y113.496 E.02224
G1 X89.483 Y113.529 E.05132
G1 X88.613 Y113.357 E.03371
G1 X87.995 Y113.079 E.02575
G1 X87.455 Y112.695 E.02518
G1 X86.974 Y112.196 E.02634
G1 X86.605 Y111.634 E.02555
G1 X86.335 Y110.946 E.02809
G1 X86.222 Y110.288 E.02537
G1 X86.222 Y69.709 E1.54226
G1 X86.388 Y68.881 E.0321
M73 P19 R1
G1 X86.748 Y68.112 E.03227
G1 X87.011 Y67.766 E.01652
M204 P2000
G1 X87.375 Y68.04 F24000
M204 P500
G1 F2400
G1 X87.759 Y67.648 E.02086
G1 X88.118 Y67.377 E.0171
G1 X88.739 Y67.085 E.02608
G1 X89.209 Y66.96 E.01848
G1 X90.791 Y66.96 E.06013
G1 X91.26 Y67.084 E.01844
G1 X91.8 Y67.329 E.02254
G1 X92.215 Y67.626 E.0194
G1 X92.61 Y68.017 E.02112
G1 X92.941 Y68.488 E.02188
G1 X93.179 Y69.024 E.02229
G1 X93.321 Y69.733 E.02748
G1 X93.321 Y110.267 E1.54055
G1 X93.17 Y111 E.02844
M73 P20 R1
G1 X92.873 Y111.632 E.02654
G1 X92.602 Y111.991 E.0171
G1 X92.241 Y112.352 E.0194
G1 X91.882 Y112.623 E.0171
G1 X91.261 Y112.915 E.02608
G1 X90.794 Y113.04 E.01837
G1 X89.497 Y113.071 E.04931
G1 X88.774 Y112.929 E.028
G1 X88.239 Y112.691 E.02225
G1 X87.767 Y112.359 E.02193
G1 X87.342 Y111.924 E.02311
G1 X87.02 Y111.441 E.02206
G1 X86.78 Y110.842 E.02453
G1 X86.679 Y110.267 E.02219
G1 X86.679 Y69.733 E1.54055
G1 X86.83 Y69 E.02844
M73 P21 R1
G1 X87.127 Y68.368 E.02654
G1 X87.339 Y68.088 E.01335
M204 P2000
G1 X87.703 Y68.36 F24000
M204 P500
G1 F2400
G1 X88.07 Y67.983 E.02
G1 X88.372 Y67.758 E.01431
G1 X88.911 Y67.509 E.02257
G1 X89.295 Y67.409 E.01508
G1 X90.705 Y67.409 E.05359
G1 X91.09 Y67.509 E.01512
G1 X91.589 Y67.735 E.02082
G1 X91.931 Y67.984 E.01608
G1 X92.272 Y68.325 E.01833
G1 X92.552 Y68.729 E.01868
G1 X92.75 Y69.183 E.01882
G1 X92.864 Y69.755 E.02217
G1 X92.864 Y110.245 E1.53888
G1 X92.744 Y110.833 E.02281
M73 P22 R1
G1 X92.492 Y111.378 E.02282
G1 X92.267 Y111.68 E.01431
G1 X91.93 Y112.017 E.01811
G1 X91.628 Y112.242 E.01431
G1 X91.089 Y112.491 E.02257
G1 X90.706 Y112.591 E.01504
G1 X89.513 Y112.614 E.04535
G1 X88.933 Y112.5 E.02247
G1 X88.479 Y112.302 E.01882
G1 X88.076 Y112.022 E.01865
G1 X87.707 Y111.649 E.01994
G1 X87.433 Y111.245 E.01855
G1 X87.225 Y110.735 E.02093
G1 X87.136 Y110.246 E.01889
G1 X87.136 Y69.755 E1.53891
G1 X87.256 Y69.167 E.02281
M73 P23 R1
G1 X87.508 Y68.622 E.02282
G1 X87.668 Y68.408 E.01016
M204 P2000
G1 X88.034 Y68.678 F24000
M204 P500
G1 F2400
G1 X88.381 Y68.319 E.01898
G1 X88.622 Y68.141 E.01139
G1 X89.079 Y67.934 E.01907
G1 X89.378 Y67.859 E.01172
G1 X90.622 Y67.859 E.04728
G1 X90.921 Y67.934 E.01172
G1 X91.378 Y68.141 E.01907
G1 X91.619 Y68.319 E.01139
G1 X91.933 Y68.633 E.01688
G1 X92.161 Y68.967 E.01537
G1 X92.32 Y69.34 E.01541
G1 X92.407 Y69.778 E.01697
G1 X92.407 Y110.222 E1.53713
G1 X92.316 Y110.669 E.01734
M73 P24 R1
G1 X92.109 Y111.128 E.01914
G1 X91.931 Y111.369 E.01139
G1 X91.619 Y111.681 E.01677
G1 X91.378 Y111.859 E.01139
G1 X90.921 Y112.066 E.01907
G1 X90.622 Y112.141 E.01172
G1 X89.531 Y112.157 E.04147
G1 X89.09 Y112.07 E.01708
G1 X88.717 Y111.911 E.01541
G1 X88.383 Y111.683 E.01537
G1 X88.07 Y111.37 E.01682
G1 X87.845 Y111.045 E.01502
G1 X87.67 Y110.625 E.01729
G1 X87.593 Y110.223 E.01556
G1 X87.593 Y69.778 E1.53717
G1 X87.684 Y69.331 E.01734
M73 P25 R1
G1 X87.891 Y68.872 E.01914
G1 X87.999 Y68.726 E.0069
M204 P2000
G1 X88.367 Y68.993 F24000
M204 P500
G1 F2400
G1 X88.406 Y68.94 E.0025
G1 X88.69 Y68.656 E.01526
G1 X88.869 Y68.527 E.00839
G1 X89.243 Y68.362 E.01554
G1 X89.457 Y68.31 E.00837
G1 X90.543 Y68.31 E.04127
G1 X90.757 Y68.362 E.00837
G1 X91.131 Y68.527 E.01554
G1 X91.31 Y68.656 E.00839
G1 X91.593 Y68.939 E.01521
G1 X91.767 Y69.2 E.01192
G1 X91.889 Y69.493 E.01206
G1 X91.95 Y69.8 E.0119
G1 X91.95 Y110.2 E1.53546
G1 X91.888 Y110.509 E.01198
M73 P26 R1
G1 X91.723 Y110.881 E.01547
G1 X91.594 Y111.06 E.00839
G1 X91.31 Y111.344 E.01526
G1 X91.131 Y111.473 E.00839
G1 X90.757 Y111.638 E.01554
G1 X90.542 Y111.69 E.00841
G1 X89.551 Y111.7 E.03767
G1 X89.243 Y111.639 E.01193
G1 X88.95 Y111.517 E.01206
G1 X88.689 Y111.343 E.01192
G1 X88.407 Y111.061 E.01516
G1 X88.255 Y110.843 E.0101
G1 X88.112 Y110.51 E.01377
G1 X88.05 Y110.2 E.01202
G1 X88.05 Y69.8 E1.53546
G1 X88.112 Y69.491 E.01198
M73 P27 R1
G1 X88.277 Y69.119 E.01547
G1 X88.332 Y69.042 E.0036
M204 P2000
G1 X88.705 Y69.304 F24000
M204 P500
G1 F2400
G1 X88.744 Y69.249 E.00256
G1 X88.999 Y68.994 E.01371
G1 X89.11 Y68.916 E.00516
G1 X89.401 Y68.791 E.01204
G1 X89.531 Y68.762 E.00506
G1 X90.469 Y68.762 E.03565
G1 X90.599 Y68.791 E.00506
G1 X90.89 Y68.916 E.01204
G1 X91.001 Y68.994 E.00516
G1 X91.254 Y69.247 E.0136
G1 X91.354 Y69.396 E.00682
G1 X91.458 Y69.647 E.01033
G1 X91.493 Y69.823 E.00682
G1 X91.493 Y110.177 E1.53371
G1 X91.458 Y110.352 E.00678
M73 P28 R1
G1 X91.334 Y110.64 E.01192
G1 X91.256 Y110.751 E.00516
G1 X91.001 Y111.006 E.01371
G1 X90.89 Y111.084 E.00516
G1 X90.599 Y111.209 E.01204
G1 X90.469 Y111.238 E.00506
G1 X89.572 Y111.243 E.03409
G1 X89.397 Y111.208 E.00678
G1 X89.146 Y111.104 E.01033
G1 X88.997 Y111.004 E.00682
G1 X88.744 Y110.751 E.0136
G1 X88.666 Y110.64 E.00516
G1 X88.542 Y110.352 E.01192
G1 X88.507 Y110.177 E.00678
G1 X88.507 Y69.823 E1.53371
G1 X88.542 Y69.648 E.00678
M73 P29 R1
G1 X88.67 Y69.353 E.01222
M204 P2000
G1 X89.06 Y69.591 F24000
M204 P500
G1 F2400
G1 X89.304 Y69.335 E.01344
G1 X89.551 Y69.223 E.01031
G1 X89.595 Y69.214 E.00171
G1 X90.405 Y69.214 E.03079
G1 X90.659 Y69.31 E.01032
G1 X90.915 Y69.554 E.01344
G1 X91.027 Y69.801 E.01031
G1 X91.036 Y69.845 E.00171
G1 X91.036 Y110.155 E1.53203
G1 X91.027 Y110.199 E.00171
M73 P30 R1
G1 X90.915 Y110.446 E.01031
G1 X90.659 Y110.69 E.01344
G1 X90.405 Y110.786 E.01032
G1 X89.595 Y110.786 E.03079
G1 X89.341 Y110.69 E.01032
G1 X89.085 Y110.446 E.01344
G1 X89.06 Y110.409 E.0017
G1 X88.964 Y110.155 E.01032
G1 X88.964 Y69.845 E1.53203
G1 X89.037 Y69.647 E.00802
M204 P2000
M73 P31 R1
G1 X89.456 Y69.829 F24000
M204 P500
G1 F2400
G1 X89.579 Y69.706 E.00661
G1 X89.663 Y69.671 E.00346
G1 X90.337 Y69.671 E.02562
G1 X90.421 Y69.706 E.00346
G1 X90.544 Y69.829 E.00661
G1 X90.579 Y69.913 E.00346
G1 X90.579 Y110.087 E1.52687
G1 X90.544 Y110.171 E.00346
M73 P32 R1
G1 X90.421 Y110.294 E.00661
G1 X90.337 Y110.329 E.00346
G1 X89.663 Y110.329 E.02562
G1 X89.579 Y110.294 E.00346
G1 X89.456 Y110.171 E.00661
G1 X89.421 Y110.087 E.00346
G1 X89.421 Y69.913 E1.52687
G1 X89.433 Y69.885 E.00116
M204 P2000
; printing object Shape-Box id:0 copy 0
M73 P33 R1
G1 E-2.5 F4200
G1 Z.4 F720
G1 X90 Y109.75 F24000
G1 Z.2 F720
G1 E2.5 F2400
M204 P500
;TYPE:External perimeter
;WIDTH:0.5
G1 X90 Y70.25 E1.50125
M204 P2000
; stop printing object Shape-Box id:0 copy 0
M106 S84.15
;LAYER_CHANGE
;Z:0.4
;HEIGHT:0.2
;BEFORE_LAYER_CHANGE
G92 E0.0
;0.4
M201 X3999.74 Y3999.74
M74 W0.113283

G1 E-2.5 F4200
M73 P34 R1
G1 Z.4 F720
;AFTER_LAYER_CHANGE
;0.4
M104 S220 ; set temperature
; printing object Shape-Box id:0 copy 0
G1 Z.6
G1 X90 Y109.75 F24000
G1 Z.4 F720
G1 E2.5 F2400
M204 P2500
G1 F5999.996

G1 X90 Y109.25 E.019
G1 X90 Y70.75 E1.46324
G1 X90 Y70.25 E.019

M204 P2000
; stop printing object Shape-Box id:0 copy 0
M106 S170.85
;LAYER_CHANGE
;Z:0.6
;HEIGHT:0.2
;BEFORE_LAYER_CHANGE
G92 E0.0
;0.6
M201 X3999.73 Y3999.73
M74 W0.117761

M73 P35 R1
G1 E-2.5 F4200
G1 Z.6 F720
;AFTER_LAYER_CHANGE
;0.6
; printing object Shape-Box id:0 copy 0
G1 Z.8
G1 X90 Y109.75 F24000
G1 Z.6 F720
G1 E2.5 F2400
M204 P2500
G1 F5999.996

G1 X90 Y109.25 E.019
G1 X90 Y70.75 E1.46324
G1 X90 Y70.25 E.019

M204 P2000
; stop printing object Shape-Box id:0 copy 0
M106 S255
;LAYER_CHANGE
;Z:0.8
;HEIGHT:0.2
;BEFORE_LAYER_CHANGE
G92 E0.0
;0.8
M201 X3999.72 Y3999.72
M74 W0.122238

G1 E-2.5 F4200
G1 Z.8 F720
G1 Z.8
;AFTER_LAYER_CHANGE
;0.8
; printing object Shape-Box id:0 copy 0
G1 Z1
G1 X90 Y109.75 F24000
G1 Z.8 F720
M73 P36 R1
G1 E2.5 F2400
M204 P2500
G1 F5999.996

G1 X90 Y109.25 E.019
G1 X90 Y70.75 E1.46324
G1 X90 Y70.25 E.019

M204 P2000
; stop printing object Shape-Box id:0 copy 0
;LAYER_CHANGE
;Z:1
;HEIGHT:0.2
;BEFORE_LAYER_CHANGE
G92 E0.0
;1
M201 X3999.71 Y3999.71
M74 W0.126716

G1 E-2.5 F4200
G1 Z1 F720
;AFTER_LAYER_CHANGE
;1
; printing object Shape-Box id:0 copy 0
G1 Z1.2
G1 X90 Y109.75 F24000
G1 Z1 F720
G1 E2.5 F2400
M204 P2500
G1 F5999.996

G1 X90 Y109.25 E.019
G1 X90 Y70.75 E1.46324
G1 X90 Y70.25 E.019

M204 P2000
; stop printing object Shape-Box id:0 copy 0
;LAYER_CHANGE
;Z:1.2
;HEIGHT:0.2
;BEFORE_LAYER_CHANGE
G92 E0.0
;1.2
M201 X3999.7 Y3999.7
M74 W0.131193

M73 P37 R1
G1 E-2.5 F4200
G1 Z1.2 F720
;AFTER_LAYER_CHANGE
;1.2
; printing object Shape-Box id:0 copy 0
G1 Z1.4
G1 X90 Y109.75 F24000
G1 Z1.2 F720
G1 E2.5 F2400
M204 P2500
G1 F5999.996

G1 X90 Y109.25 E.019
G1 X90 Y70.75 E1.46324
G1 X90 Y70.25 E.019

M204 P2000
; stop printing object Shape-Box id:0 copy 0
;LAYER_CHANGE
;Z:1.4
;HEIGHT:0.2
;BEFORE_LAYER_CHANGE
G92 E0.0
;1.4
M201 X3999.69 Y3999.69
M74 W0.135671

G1 E-2.5 F4200
G1 Z1.4 F720
;AFTER_LAYER_CHANGE
;1.4
; printing object Shape-Box id:0 copy 0
G1 Z1.6
G1 X90 Y109.75 F24000
G1 Z1.4 F720
M73 P38 R1
G1 E2.5 F2400
M204 P2500
G1 F5999.996

G1 X90 Y109.25 E.019
G1 X90 Y70.75 E1.46324
G1 X90 Y70.25 E.019

M204 P2000
; stop printing object Shape-Box id:0 copy 0
;LAYER_CHANGE
;Z:1.6
;HEIGHT:0.2
;BEFORE_LAYER_CHANGE
G92 E0.0
;1.6
M201 X3999.68 Y3999.68
M74 W0.140148

G1 E-2.5 F4200
G1 Z1.6 F720
;AFTER_LAYER_CHANGE
;1.6
; printing object Shape-Box id:0 copy 0
G1 Z1.8
G1 X90 Y109.75 F24000
G1 Z1.6 F720
G1 E2.5 F2400
M204 P2500
G1 F5999.996

G1 X90 Y109.25 E.019
G1 X90 Y70.75 E1.46324
G1 X90 Y70.25 E.019

M204 P2000
; stop printing object Shape-Box id:0 copy 0
;LAYER_CHANGE
;Z:1.8
;HEIGHT:0.2
;BEFORE_LAYER_CHANGE
G92 E0.0
;1.8
M201 X3999.67 Y3999.67
M74 W0.144626

M73 P39 R1
G1 E-2.5 F4200
G1 Z1.8 F720
;AFTER_LAYER_CHANGE
;1.8
; printing object Shape-Box id:0 copy 0
G1 Z2
G1 X90 Y109.75 F24000
G1 Z1.8 F720
G1 E2.5 F2400
M204 P2500
G1 F5999.996

G1 X90 Y109.25 E.019
G1 X90 Y70.75 E1.46324
G1 X90 Y70.25 E.019

M204 P2000
; stop printing object Shape-Box id:0 copy 0
;LAYER_CHANGE
;Z:2
;HEIGHT:0.2
;BEFORE_LAYER_CHANGE
G92 E0.0
;2
M201 X3999.66 Y3999.66
M74 W0.149103

G1 E-2.5 F4200
G1 Z2 F720
;AFTER_LAYER_CHANGE
;2
; printing object Shape-Box id:0 copy 0
G1 Z2.2
M73 P40 R1
G1 X90 Y109.75 F24000
G1 Z2 F720
G1 E2.5 F2400
M204 P2500
G1 F5999.996

G1 X90 Y109.25 E.019
G1 X90 Y70.75 E1.46324
G1 X90 Y70.25 E.019

M204 P2000
; stop printing object Shape-Box id:0 copy 0
;LAYER_CHANGE
;Z:2.2
;HEIGHT:0.2
;BEFORE_LAYER_CHANGE
G92 E0.0
;2.2
M201 X3999.65 Y3999.65
M74 W0.153581

G1 E-2.5 F4200
G1 Z2.2 F720
;AFTER_LAYER_CHANGE
;2.2
; printing object Shape-Box id:0 copy 0
G1 Z2.4
G1 X90 Y109.75 F24000
G1 Z2.2 F720
G1 E2.5 F2400
M204 P2500
G1 F5999.996

G1 X90 Y109.25 E.019
G1 X90 Y70.75 E1.46324
G1 X90 Y70.25 E.019

M204 P2000
; stop printing object Shape-Box id:0 copy 0
;LAYER_CHANGE
;Z:2.4
;HEIGHT:0.2
;BEFORE_LAYER_CHANGE
G92 E0.0
;2.4
M201 X3999.64 Y3999.64
M74 W0.158058

M73 P41 R1
G1 E-2.5 F4200
G1 Z2.4 F720
;AFTER_LAYER_CHANGE
;2.4
; printing object Shape-Box id:0 copy 0
G1 Z2.6
G1 X90 Y109.75 F24000
G1 Z2.4 F720
G1 E2.5 F2400
M204 P2500
G1 F5999.996

G1 X90 Y109.25 E.019
G1 X90 Y70.75 E1.46324
G1 X90 Y70.25 E.019

M204 P2000
; stop printing object Shape-Box id:0 copy 0
;LAYER_CHANGE
;Z:2.6
;HEIGHT:0.2
;BEFORE_LAYER_CHANGE
G92 E0.0
;2.6
M201 X3999.63 Y3999.63
M74 W0.162536

G1 E-2.5 F4200
G1 Z2.6 F720
;AFTER_LAYER_CHANGE
;2.6
; printing object Shape-Box id:0 copy 0
M73 P42 R1
G1 Z2.8
G1 X90 Y109.75 F24000
G1 Z2.6 F720
G1 E2.5 F2400
M204 P2500
G1 F5999.996

G1 X90 Y109.25 E.019
G1 X90 Y70.75 E1.46324
G1 X90 Y70.25 E.019

M204 P2000
; stop printing object Shape-Box id:0 copy 0
;LAYER_CHANGE
;Z:2.8
;HEIGHT:0.2
;BEFORE_LAYER_CHANGE
G92 E0.0
;2.8
M201 X3999.62 Y3999.62
M74 W0.167013

G1 E-2.5 F4200
G1 Z2.8 F720
;AFTER_LAYER_CHANGE
;2.8
