; generated by PrusaSlicer 2.6.1+win64 on 2023-11-09 at 09:09:38 UTC


;
;

;
;

;
;
; 

; external perimeters extrusion width = 0.45mm
; perimeters extrusion width = 0.45mm
; infill extrusion width = 0.45mm
; solid infill extrusion width = 0.45mm
; top infill extrusion width = 0.42mm
; first layer extrusion width = 0.50mm

M73 P0 R3
M201 X4000 Y4000 Z400 E5000 ; sets maximum accelerations, mm/sec^2
M203 X400 Y400 Z12 E80 ; sets maximum feedrates, mm / sec
M204 P4000 R1250 T4000 ; sets acceleration (P, T) and retract acceleration (R), mm/sec^2
M205 X8.00 Y8.00 Z2.00 E10.00 ; sets the jerk limits, mm/sec
M205 S0 T0 ; sets the minimum extruding and travel feed rate, mm/sec
;TYPE:Custom
M862.3 P "MINI" ; printer model check
M862.1 P0.4 ; nozzle diameter check
M862.5 P2 ; g-code level check
M862.6 P"Input shaper" ; FW feature check
G90 ; use absolute coordinates
M83 ; extruder relative mode
M104 S170 ; set extruder temp for bed leveling
M140 S60 ; set bed temp
M109 R170 ; wait for bed leveling temp
M190 S60 ; wait for bed temp
M569 S1 X Y ; set stealthchop for X Y
M204 T1250 ; set travel acceleration
G28 ; home all without mesh bed level
G29 ; mesh bed leveling 
M104 S230 ; set extruder temp
G92 E0
G1 Y-2 X179 F2400
G1 Z3 F720
M109 S230 ; wait for extruder temp

; intro line
M73 P2 R3
G1 X170 F1000
G1 Z0.2 F720
G1 X110 E8 F900
G1 X40 E10 F700
G92 E0

M569 S0 X Y ; set spreadcycle for X Y
M204 T4000 ; restore travel acceleration
M572 W0.06 ; set smooth time
M221 S95 ; set flow
G21 ; set units to millimeters
G90 ; use absolute coordinates
M83 ; use relative distances for extrusion
M572 S0.3
M107
;LAYER_CHANGE
;Z:0.2
;HEIGHT:0.2
;BEFORE_LAYER_CHANGE
G92 E0.0
;0.2
M201 X4000 Y4000
M74 W0

M73 P4 R3
G1 E-2.5 F4200
M73 P7 R3
G1 Z.2 F720
;AFTER_LAYER_CHANGE
;0.2
G1 Z.4
M204 T4000
G1 X86.395 Y74.573 F24000
G1 Z.2 F720
G1 E2.5 F2400
M204 P500
;TYPE:Skirt/Brim
;WIDTH:0.5
G1 X86.845 Y74.125 E.02413
G1 X87.347 Y73.741 E.02402
G1 X88.207 Y73.32 E.03639
G1 X88.967 Y73.107 E.03
G1 X89.058 Y73.096 E.00348
G1 X91.002 Y73.104 E.07388
G1 X91.744 Y73.301 E.02918
G1 X92.47 Y73.632 E.03033
G1 X93.087 Y74.068 E.02871
G1 X93.618 Y74.586 E.02819
G1 X94.1 Y75.252 E.03125
G1 X94.461 Y76.033 E.0327
G1 X94.678 Y77.026 E.03863
G1 X94.692 Y102.837 E.98098
G1 X94.497 Y103.852 E.03928
G1 X94.086 Y104.774 E.03837
G1 X93.649 Y105.376 E.02827
G1 X93.1 Y105.922 E.02943
G1 X92.526 Y106.335 E.02688
G1 X91.667 Y106.726 E.03587
G1 X90.908 Y106.909 E.02967
G1 X89.455 Y106.944 E.05524
G1 X88.284 Y106.712 E.04537
G1 X87.502 Y106.349 E.03277
G1 X86.828 Y105.861 E.03163
G1 X86.261 Y105.269 E.03115
G1 X85.797 Y104.563 E.03211
G1 X85.485 Y103.8 E.03133
G1 X85.324 Y103.005 E.03083
G1 X85.308 Y77.163 E.98216
G1 X85.503 Y76.147 E.03932
M73 P8 R3
G1 X85.94 Y75.181 E.0403
G1 X86.359 Y74.621 E.02658
M204 P2000
G1 X86.722 Y74.894 F24000
M204 P500
G1 F2400
G1 X87.135 Y74.479 E.02225
G1 X87.606 Y74.119 E.02253
G1 X88.387 Y73.74 E.03299
G1 X89.045 Y73.557 E.02596
G1 X90.969 Y73.561 E.07312
G1 X91.603 Y73.736 E.025
G1 X92.258 Y74.038 E.02741
G1 X92.807 Y74.429 E.02562
G1 X93.283 Y74.897 E.02537
G1 X93.715 Y75.5 E.02819
G1 X94.035 Y76.199 E.02922
G1 X94.226 Y77.097 E.03489
G1 X94.235 Y102.815 E.97745
G1 X94.054 Y103.737 E.03571
G1 X93.68 Y104.563 E.03446
G1 X93.292 Y105.091 E.0249
G1 X92.816 Y105.563 E.02548
G1 X92.314 Y105.93 E.02363
G1 X91.535 Y106.288 E.03258
G1 X90.871 Y106.452 E.02599
G1 X89.469 Y106.487 E.0533
G1 X88.449 Y106.285 E.03952
G1 X87.749 Y105.965 E.02925
G1 X87.141 Y105.528 E.02846
G1 X86.63 Y104.998 E.02798
G1 X86.21 Y104.367 E.02881
G1 X85.929 Y103.687 E.02796
G1 X85.777 Y102.936 E.02912
G1 X85.765 Y77.186 E.97866
G1 X85.946 Y76.263 E.03575
M73 P9 R3
G1 X86.345 Y75.396 E.03627
G1 X86.686 Y74.942 E.02158
M204 P2000
G1 X87.048 Y75.217 F24000
M204 P500
G1 F2400
G1 X87.447 Y74.813 E.02158
G1 X87.863 Y74.497 E.01985
G1 X88.565 Y74.162 E.02956
G1 X89.121 Y74.01 E.02191
G1 X90.879 Y74.01 E.06682
G1 X91.43 Y74.16 E.0217
G1 X92.046 Y74.443 E.02576
G1 X92.524 Y74.788 E.0224
G1 X92.947 Y75.208 E.02266
G1 X93.329 Y75.745 E.02505
G1 X93.607 Y76.363 E.02575
G1 X93.774 Y77.166 E.03117
G1 X93.778 Y102.791 E.97391
G1 X93.612 Y103.62 E.03213
G1 X93.276 Y104.349 E.03051
G1 X92.957 Y104.78 E.02038
G1 X92.53 Y105.207 E.02295
G1 X92.099 Y105.526 E.02038
G1 X91.4 Y105.851 E.0293
G1 X90.833 Y105.996 E.02224
G1 X89.483 Y106.029 E.05132
G1 X88.613 Y105.857 E.03371
G1 X87.995 Y105.579 E.02575
G1 X87.455 Y105.195 E.02518
G1 X86.974 Y104.696 E.02634
G1 X86.605 Y104.135 E.02552
G1 X86.361 Y103.536 E.02458
G1 X86.23 Y102.87 E.0258
G1 X86.222 Y77.209 E.97528
G1 X86.388 Y76.381 E.0321
M73 P10 R3
G1 X86.748 Y75.612 E.03227
G1 X87.012 Y75.265 E.01657
M204 P2000
G1 X87.375 Y75.539 F24000
M204 P500
G1 F2400
G1 X87.759 Y75.148 E.02083
G1 X88.118 Y74.877 E.0171
G1 X88.739 Y74.585 E.02608
G1 X89.209 Y74.46 E.01848
G1 X90.791 Y74.46 E.06013
G1 X91.26 Y74.584 E.01844
G1 X91.8 Y74.829 E.02254
G1 X92.215 Y75.126 E.0194
G1 X92.61 Y75.517 E.02112
G1 X92.941 Y75.988 E.02188
G1 X93.179 Y76.524 E.02229
G1 X93.321 Y77.233 E.02748
G1 X93.321 Y102.767 E.97045
G1 X93.17 Y103.5 E.02844
G1 X92.873 Y104.132 E.02654
G1 X92.602 Y104.491 E.0171
G1 X92.241 Y104.852 E.0194
G1 X91.882 Y105.123 E.0171
G1 X91.261 Y105.415 E.02608
G1 X90.794 Y105.54 E.01837
G1 X89.497 Y105.571 E.04931
G1 X88.774 Y105.429 E.028
G1 X88.239 Y105.191 E.02225
G1 X87.767 Y104.859 E.02193
G1 X87.342 Y104.424 E.02311
G1 X87.019 Y103.941 E.02208
G1 X86.793 Y103.385 E.02281
G1 X86.683 Y102.807 E.02236
G1 X86.679 Y77.233 E.97197
G1 X86.83 Y76.5 E.02844
G1 X87.127 Y75.868 E.02654
G1 X87.339 Y75.587 E.01338
M204 P2000
G1 X87.704 Y75.859 F24000
M204 P500
G1 F2400
G1 X88.07 Y75.483 E.01994
G1 X88.372 Y75.258 E.01431
G1 X88.911 Y75.009 E.02257
G1 X89.295 Y74.909 E.01508
G1 X90.705 Y74.909 E.05359
G1 X91.09 Y75.009 E.01512
G1 X91.589 Y75.235 E.02082
G1 X91.931 Y75.484 E.01608
G1 X92.272 Y75.825 E.01833
G1 X92.552 Y76.229 E.01868
G1 X92.75 Y76.683 E.01882
G1 X92.864 Y77.255 E.02217
G1 X92.864 Y102.745 E.96878
G1 X92.744 Y103.333 E.02281
M73 P11 R3
G1 X92.492 Y103.878 E.02282
G1 X92.267 Y104.18 E.01431
G1 X91.93 Y104.517 E.01811
G1 X91.628 Y104.742 E.01431
G1 X91.089 Y104.991 E.02257
G1 X90.706 Y105.091 E.01504
G1 X89.513 Y105.114 E.04535
G1 X88.933 Y105 E.02247
G1 X88.479 Y104.802 E.01882
G1 X88.076 Y104.522 E.01865
G1 X87.707 Y104.149 E.01994
G1 X87.433 Y103.745 E.01855
G1 X87.225 Y103.235 E.02093
G1 X87.136 Y102.746 E.01889
G1 X87.136 Y77.255 E.96882
G1 X87.256 Y76.667 E.02281
G1 X87.508 Y76.122 E.02282
G1 X87.668 Y75.908 E.01016
M204 P2000
G1 X88.035 Y76.178 F24000
M204 P500
G1 F2400
G1 X88.381 Y75.819 E.01895
G1 X88.622 Y75.641 E.01139
G1 X89.079 Y75.434 E.01907
G1 X89.378 Y75.359 E.01172
G1 X90.622 Y75.359 E.04728
G1 X90.921 Y75.434 E.01172
G1 X91.378 Y75.641 E.01907
G1 X91.619 Y75.819 E.01139
G1 X91.933 Y76.133 E.01688
G1 X92.161 Y76.467 E.01537
G1 X92.32 Y76.84 E.01541
G1 X92.407 Y77.278 E.01697
G1 X92.407 Y102.722 E.96703
G1 X92.316 Y103.169 E.01734
M73 P12 R3
G1 X92.109 Y103.628 E.01914
G1 X91.931 Y103.869 E.01139
G1 X91.619 Y104.181 E.01677
G1 X91.378 Y104.359 E.01139
G1 X90.921 Y104.566 E.01907
G1 X90.622 Y104.641 E.01172
G1 X89.531 Y104.657 E.04147
G1 X89.09 Y104.57 E.01708
G1 X88.717 Y104.411 E.01541
G1 X88.383 Y104.183 E.01537
G1 X88.07 Y103.87 E.01682
G1 X87.845 Y103.545 E.01502
G1 X87.67 Y103.125 E.01729
G1 X87.593 Y102.723 E.01556
G1 X87.593 Y77.278 E.96707
G1 X87.684 Y76.831 E.01734
G1 X87.891 Y76.372 E.01914
G1 X87.999 Y76.226 E.0069
M204 P2000
G1 X88.368 Y76.493 F24000
M204 P500
G1 F2400
G1 X88.406 Y76.44 E.00248
G1 X88.69 Y76.156 E.01526
G1 X88.869 Y76.027 E.00839
G1 X89.243 Y75.862 E.01554
G1 X89.457 Y75.81 E.00837
G1 X90.543 Y75.81 E.04127
G1 X90.757 Y75.862 E.00837
G1 X91.131 Y76.027 E.01554
G1 X91.31 Y76.156 E.00839
G1 X91.593 Y76.439 E.01521
G1 X91.767 Y76.7 E.01192
G1 X91.889 Y76.993 E.01206
G1 X91.95 Y77.3 E.0119
G1 X91.95 Y102.7 E.96536
G1 X91.888 Y103.009 E.01198
G1 X91.723 Y103.381 E.01547
G1 X91.594 Y103.56 E.00839
G1 X91.31 Y103.844 E.01526
G1 X91.131 Y103.973 E.00839
G1 X90.757 Y104.138 E.01554
G1 X90.542 Y104.19 E.00841
G1 X89.551 Y104.2 E.03767
G1 X89.243 Y104.139 E.01193
G1 X88.95 Y104.017 E.01206
G1 X88.689 Y103.843 E.01192
G1 X88.407 Y103.561 E.01516
G1 X88.255 Y103.343 E.0101
G1 X88.112 Y103.01 E.01377
G1 X88.05 Y102.7 E.01202
G1 X88.05 Y77.3 E.96536
G1 X88.112 Y76.991 E.01198
M73 P13 R3
G1 X88.277 Y76.619 E.01547
G1 X88.333 Y76.541 E.00365
M204 P2000
G1 X88.705 Y76.804 F24000
M204 P500
G1 F2400
G1 X88.744 Y76.749 E.00256
G1 X88.999 Y76.494 E.01371
G1 X89.11 Y76.416 E.00516
G1 X89.401 Y76.291 E.01204
G1 X89.531 Y76.262 E.00506
G1 X90.469 Y76.262 E.03565
G1 X90.599 Y76.291 E.00506
G1 X90.89 Y76.416 E.01204
G1 X91.001 Y76.494 E.00516
G1 X91.254 Y76.747 E.0136
G1 X91.354 Y76.896 E.00682
G1 X91.458 Y77.147 E.01033
G1 X91.493 Y77.323 E.00682
G1 X91.493 Y102.677 E.96361
G1 X91.458 Y102.852 E.00678
G1 X91.334 Y103.14 E.01192
G1 X91.256 Y103.251 E.00516
G1 X91.001 Y103.506 E.01371
G1 X90.89 Y103.584 E.00516
G1 X90.599 Y103.709 E.01204
G1 X90.469 Y103.738 E.00506
G1 X89.572 Y103.743 E.03409
G1 X89.397 Y103.708 E.00678
G1 X89.146 Y103.604 E.01033
G1 X88.997 Y103.504 E.00682
G1 X88.744 Y103.251 E.0136
G1 X88.666 Y103.14 E.00516
G1 X88.542 Y102.852 E.01192
G1 X88.507 Y102.677 E.00678
G1 X88.507 Y77.323 E.96361
G1 X88.542 Y77.148 E.00678
G1 X88.671 Y76.853 E.01224
M204 P2000
G1 X89.06 Y77.091 F24000
M204 P500
G1 F2400
G1 X89.304 Y76.835 E.01344
G1 X89.551 Y76.723 E.01031
G1 X89.595 Y76.714 E.00171
G1 X90.405 Y76.714 E.03079
G1 X90.659 Y76.81 E.01032
G1 X90.915 Y77.054 E.01344
G1 X91.027 Y77.301 E.01031
G1 X91.036 Y77.345 E.00171
G1 X91.036 Y102.655 E.96194
G1 X91.027 Y102.699 E.00171
M73 P14 R3
G1 X90.915 Y102.946 E.01031
G1 X90.659 Y103.19 E.01344
G1 X90.405 Y103.286 E.01032
G1 X89.595 Y103.286 E.03079
G1 X89.341 Y103.19 E.01032
G1 X89.085 Y102.946 E.01344
G1 X89.06 Y102.909 E.0017
G1 X88.964 Y102.655 E.01032
G1 X88.964 Y77.345 E.96194
G1 X89.037 Y77.147 E.00802
M204 P2000
G1 X89.456 Y77.329 F24000
M204 P500
G1 F2400
G1 X89.579 Y77.206 E.00661
G1 X89.663 Y77.171 E.00346
G1 X90.337 Y77.171 E.02562
G1 X90.421 Y77.206 E.00346
G1 X90.544 Y77.329 E.00661
G1 X90.579 Y77.413 E.00346
G1 X90.579 Y102.587 E.95677
G1 X90.544 Y102.671 E.00346
G1 X90.421 Y102.794 E.00661
G1 X90.337 Y102.829 E.00346
G1 X89.663 Y102.829 E.02562
G1 X89.579 Y102.794 E.00346
G1 X89.456 Y102.671 E.00661
G1 X89.421 Y102.587 E.00346
G1 X89.421 Y77.413 E.95677
G1 X89.433 Y77.385 E.00116
M204 P2000
; printing object Shape-Box id:0 copy 0
M73 P15 R3
G1 E-2.5 F4200
G1 Z.4 F720
G1 X90 Y102.25 F24000
G1 Z.2 F720
G1 E2.5 F2400
M204 P500
;TYPE:External perimeter
;WIDTH:0.5
G1 X90 Y77.75 E.93116
M204 P2000
; stop printing object Shape-Box id:0 copy 0
M106 S84.15
;LAYER_CHANGE
;Z:0.4
;HEIGHT:0.2
;BEFORE_LAYER_CHANGE
G92 E0.0
;0.4
M201 X3999.82 Y3999.82
M74 W0.0775758

G1 E-2.5 F4200
G1 Z.4 F720
;AFTER_LAYER_CHANGE
;0.4
M104 S220 ; set temperature
; printing object Shape-Box id:0 copy 0
G1 Z.6
G1 X90 Y102.25 F24000
G1 Z.4 F720
G1 E2.5 F2400
M204 P2500
G1 F900

G1 X90 Y101.75 E.019
G1 X90 Y78.25 E.89315
G1 X90 Y77.75 E.019

M204 P2000
; stop printing object Shape-Box id:0 copy 0
M106 S170.85
;LAYER_CHANGE
;Z:0.6
;HEIGHT:0.2
;BEFORE_LAYER_CHANGE
G92 E0.0
;0.6
M201 X3999.82 Y3999.82
M74 W0.080353

M73 P16 R3
G1 E-2.5 F4200
G1 Z.6 F720
;AFTER_LAYER_CHANGE
;0.6
; printing object Shape-Box id:0 copy 0
G1 Z.8
G1 X90 Y102.25 F24000
G1 Z.6 F720
G1 E2.5 F2400
M204 P2500
G1 F900

G1 X90 Y101.75 E.019
G1 X90 Y78.25 E.89315
G1 X90 Y77.75 E.019

M204 P2000
; stop printing object Shape-Box id:0 copy 0
M106 S255
;LAYER_CHANGE
;Z:0.8
;HEIGHT:0.2
;BEFORE_LAYER_CHANGE
G92 E0.0
;0.8
M201 X3999.81 Y3999.81
M74 W0.0831302

M73 P17 R3
G1 E-2.5 F4200
G1 Z.8 F720
G1 Z.8
;AFTER_LAYER_CHANGE
;0.8
; printing object Shape-Box id:0 copy 0
G1 Z1
G1 X90 Y102.25 F24000
G1 Z.8 F720
G1 E2.5 F2400
M204 P2500
G1 F900

G1 X90 Y101.75 E.019
G1 X90 Y78.25 E.89315
G1 X90 Y77.75 E.019

M204 P2000
; stop printing object Shape-Box id:0 copy 0
;LAYER_CHANGE
;Z:1
;HEIGHT:0.2
;BEFORE_LAYER_CHANGE
G92 E0.0
;1
M201 X3999.8 Y3999.8
M74 W0.0859074

M73 P18 R2
G1 E-2.5 F4200
G1 Z1 F720
;AFTER_LAYER_CHANGE
;1
; printing object Shape-Box id:0 copy 0
G1 Z1.2
G1 X90 Y102.25 F24000
G1 Z1 F720
G1 E2.5 F2400
M204 P2500
G1 F900

G1 X90 Y101.75 E.019
G1 X90 Y78.25 E.89315
G1 X90 Y77.75 E.019

M204 P2000
; stop printing object Shape-Box id:0 copy 0
;LAYER_CHANGE
;Z:1.2
;HEIGHT:0.2
;BEFORE_LAYER_CHANGE
G92 E0.0
;1.2
M201 X3999.8 Y3999.8
M74 W0.0886846

M73 P19 R2
G1 E-2.5 F4200
G1 Z1.2 F720
;AFTER_LAYER_CHANGE
;1.2
; printing object Shape-Box id:0 copy 0
G1 Z1.4
G1 X90 Y102.25 F24000
G1 Z1.2 F720
G1 E2.5 F2400
M204 P2500
G1 F900

G1 X90 Y101.75 E.019
G1 X90 Y78.25 E.89315
G1 X90 Y77.75 E.019

M204 P2000
; stop printing object Shape-Box id:0 copy 0
;LAYER_CHANGE
;Z:1.4
;HEIGHT:0.2
;BEFORE_LAYER_CHANGE
G92 E0.0
;1.4
M201 X3999.79 Y3999.79
M74 W0.0914618

M73 P20 R2
G1 E-2.5 F4200
G1 Z1.4 F720
;AFTER_LAYER_CHANGE
;1.4
; printing object Shape-Box id:0 copy 0
G1 Z1.6
G1 X90 Y102.25 F24000
G1 Z1.4 F720
G1 E2.5 F2400
M204 P2500
G1 F900

G1 X90 Y101.75 E.019
G1 X90 Y78.25 E.89315
G1 X90 Y77.75 E.019

M204 P2000
; stop printing object Shape-Box id:0 copy 0
;LAYER_CHANGE
;Z:1.6
;HEIGHT:0.2
;BEFORE_LAYER_CHANGE
G92 E0.0
;1.6
M201 X3999.78 Y3999.78
M74 W0.094239

M73 P21 R2
G1 E-2.5 F4200
G1 Z1.6 F720
;AFTER_LAYER_CHANGE
;1.6
; printing object Shape-Box id:0 copy 0
G1 Z1.8
G1 X90 Y102.25 F24000
G1 Z1.6 F720
G1 E2.5 F2400
M204 P2500
G1 F900

G1 X90 Y101.75 E.019
G1 X90 Y78.25 E.89315
G1 X90 Y77.75 E.019

M204 P2000
; stop printing object Shape-Box id:0 copy 0
;LAYER_CHANGE
;Z:1.8
;HEIGHT:0.2
;BEFORE_LAYER_CHANGE
G92 E0.0
;1.8
M201 X3999.78 Y3999.78
M74 W0.0970162

M73 P22 R2
G1 E-2.5 F4200
G1 Z1.8 F720
;AFTER_LAYER_CHANGE
;1.8
; printing object Shape-Box id:0 copy 0
G1 Z2
G1 X90 Y102.25 F24000
G1 Z1.8 F720
G1 E2.5 F2400
M204 P2500
G1 F900

G1 X90 Y101.75 E.019
G1 X90 Y78.25 E.89315
G1 X90 Y77.75 E.019

M204 P2000
; stop printing object Shape-Box id:0 copy 0
;LAYER_CHANGE
;Z:2
;HEIGHT:0.2
;BEFORE_LAYER_CHANGE
G92 E0.0
;2
M201 X3999.77 Y3999.77
M74 W0.0997934

M73 P23 R2
G1 E-2.5 F4200
G1 Z2 F720
;AFTER_LAYER_CHANGE
;2
; printing object Shape-Box id:0 copy 0
G1 Z2.2
G1 X90 Y102.25 F24000
G1 Z2 F720
G1 E2.5 F2400
M204 P2500
G1 F900

G1 X90 Y101.75 E.019
G1 X90 Y78.25 E.89315
G1 X90 Y77.75 E.019

M204 P2000
; stop printing object Shape-Box id:0 copy 0
;LAYER_CHANGE
;Z:2.2
;HEIGHT:0.2
;BEFORE_LAYER_CHANGE
G92 E0.0
;2.2
M201 X3999.76 Y3999.76
M74 W0.102571

G1 E-2.5 F4200
G1 Z2.2 F720
;AFTER_LAYER_CHANGE
;2.2
; printing object Shape-Box id:0 copy 0
M73 P24 R2
G1 Z2.4
G1 X90 Y102.25 F24000
G1 Z2.2 F720
G1 E2.5 F2400
M204 P2500
G1 F900

G1 X90 Y101.75 E.019
G1 X90 Y78.25 E.89315
G1 X90 Y77.75 E.019

M204 P2000
; stop printing object Shape-Box id:0 copy 0
;LAYER_CHANGE
;Z:2.4
;HEIGHT:0.2
;BEFORE_LAYER_CHANGE
G92 E0.0
;2.4
M201 X3999.76 Y3999.76
M74 W0.105348

G1 E-2.5 F4200
G1 Z2.4 F720
;AFTER_LAYER_CHANGE
;2.4
; printing object Shape-Box id:0 copy 0
G1 Z2.6
G1 X90 Y102.25 F24000
G1 Z2.4 F720
M73 P25 R2
G1 E2.5 F2400
M204 P2500
G1 F900

G1 X90 Y101.75 E.019
G1 X90 Y78.25 E.89315
G1 X90 Y77.75 E.019

M204 P2000
; stop printing object Shape-Box id:0 copy 0
;LAYER_CHANGE
;Z:2.6
;HEIGHT:0.2
;BEFORE_LAYER_CHANGE
G92 E0.0
;2.6
M201 X3999.75 Y3999.75
M74 W0.108125

G1 E-2.5 F4200
G1 Z2.6 F720
;AFTER_LAYER_CHANGE
;2.6
; printing object Shape-Box id:0 copy 0
G1 Z2.8
G1 X90 Y102.25 F24000
G1 Z2.6 F720
G1 E2.5 F2400
M204 P2500
G1 F900

M73 P26 R2
G1 X90 Y101.75 E.019
G1 X90 Y78.25 E.89315
G1 X90 Y77.75 E.019

M204 P2000
; stop printing object Shape-Box id:0 copy 0
;LAYER_CHANGE
;Z:2.8
;HEIGHT:0.2
;BEFORE_LAYER_CHANGE
G92 E0.0
;2.8
M201 X3999.74 Y3999.74
M74 W0.110902

G1 E-2.5 F4200
G1 Z2.8 F720
;AFTER_LAYER_CHANGE
;2.8
; printing object Shape-Box id:0 copy 0
G1 Z3
G1 X90 Y102.25 F24000
G1 Z2.8 F720
G1 E2.5 F2400
M204 P2500
G1 F900

G1 X90 Y101.75 E.019
G1 X90 Y78.25 E.89315
G1 X90 Y77.75 E.019

M204 P2000
