; generated by PrusaSlicer 2.6.1+win64 on 2023-11-06 at 13:16:06 UTC


;
;

;
;

;
;
; 

; external perimeters extrusion width = 0.45mm
; perimeters extrusion width = 0.45mm
; infill extrusion width = 0.45mm
; solid infill extrusion width = 0.45mm
; top infill extrusion width = 0.40mm
; first layer extrusion width = 0.42mm

M73 P0 R4
M201 X2500 Y2500 Z400 E5000 ; sets maximum accelerations, mm/sec^2
M203 X180 Y180 Z12 E80 ; sets maximum feedrates, mm / sec
M204 P2000 R1250 T2500 ; sets acceleration (P, T) and retract acceleration (R), mm/sec^2
;M205 X8.00 Y8.00 Z2.00 E10.00 ; sets the jerk limits, mm/sec
;M205 S0 T0 ; sets the minimum extruding and travel feed rate, mm/sec
;TYPE:Custom
M862.3 P "MINI" ; printer model check
G90 ; use absolute coordinates
M83 ; extruder relative mode
M104 S170 ; set extruder temp for bed leveling
M140 S60 ; set bed temp
M109 R170 ; wait for bed leveling temp
M190 S60 ; wait for bed temp
M204 T1250 ; set travel acceleration
G28 ; home all without mesh bed level
G29 ; mesh bed leveling 
M204 T2500 ; restore travel acceleration
M104 S215 ; set extruder temp
G92 E0
G1 Y-2 X179 F2400
G1 Z3 F720
M109 S215 ; wait for extruder temp

; intro line
M73 P1 R4
G1 X170 F1000
G1 Z0.2 F720
M73 P2 R4
G1 X110 E8 F900
G1 X40 E10 F700
G92 E0

M221 S95 ; set flow
G21 ; set units to millimeters
G90 ; use absolute coordinates
M83 ; use relative distances for extrusion
M900 K0.2 ; Filament gcode LA 1.5
; ; Filament gcode LA 1.0
M107
;LAYER_CHANGE
;Z:0.2
;HEIGHT:0.2
;BEFORE_LAYER_CHANGE
G92 E0.0
;0.2


M73 P3 R3
G1 Z.2 F720
;AFTER_LAYER_CHANGE
;0.2
M73 P6 R3
G1 E-3.2 F4200
G1 Z.4 F720
G1 X71.209 Y65.386 F9000
G1 Z.2 F720
G1 E3.2 F2400
M204 P600
;TYPE:Skirt/Brim
;WIDTH:0.42
G1 F1200
G1 X72.398 Y64.523 E.04607
G1 X89.265 Y59.042 E.55607
G1 X90.735 Y59.042 E.04609
G1 X107.602 Y64.523 E.55607
M73 P7 R3
G1 X108.791 Y65.386 E.04607
G1 X119.216 Y79.735 E.55611
G1 X119.67 Y81.132 E.04606
G1 X119.67 Y98.868 E.5561
G1 X119.216 Y100.265 E.04606
M73 P8 R3
G1 X108.791 Y114.614 E.55611
G1 X107.602 Y115.477 E.04607
G1 X90.735 Y120.958 E.55607
G1 X89.265 Y120.958 E.04609
G1 X72.398 Y115.477 E.55607
G1 X71.209 Y114.614 E.04607
M73 P9 R3
G1 X60.784 Y100.265 E.55611
G1 X60.33 Y98.868 E.04606
G1 X60.33 Y81.132 E.5561
G1 X60.784 Y79.735 E.04606
M73 P10 R3
G1 X71.174 Y65.435 E.55422
M204 P1000
; printing object Part Studio 1 - iso_circ id:0 copy 0
G1 E-2.24 F4200
;WIPE_START
G1 F7200
G1 X72.398 Y64.523 E-.84588
G1 X72.594 Y64.459 E-.11412
;WIPE_END
G1 Z.4 F720
G1 X73.478 Y67.26 F9000
G1 Z.2 F720
G1 E3.2 F2400
M204 P600
;TYPE:External perimeter
;WIDTH:0.419999
G1 F1200
G1 X83.055 Y68.848 E.30438
G1 X83.2 Y68.792 E.00487
G1 X90 Y61.891 E.30377
G1 X96.814 Y68.805 E.30437
M73 P11 R3
G1 X96.965 Y68.846 E.00491
G1 X106.522 Y67.26 E.30375
G1 X107.971 Y76.858 E.30435
G1 X108.069 Y76.979 E.00488
G1 X116.733 Y81.314 E.30376
G1 X112.263 Y89.931 E.30437
G1 X112.271 Y90.087 E.0049
G1 X116.733 Y98.686 E.30375
G1 X108.052 Y103.03 E.30436
M73 P12 R3
G1 X107.967 Y103.161 E.0049
G1 X106.522 Y112.74 E.30374
G1 X96.945 Y111.152 E.30438
G1 X96.8 Y111.208 E.00487
G1 X90 Y118.109 E.30377
G1 X83.184 Y111.193 E.30446
G1 X83.033 Y111.152 E.00491
M73 P13 R3
G1 X73.478 Y112.74 E.3037
G1 X72.029 Y103.142 E.30435
G1 X71.931 Y103.021 E.00488
G1 X63.267 Y98.686 E.30376
G1 X67.737 Y90.069 E.30437
G1 X67.729 Y89.913 E.0049
G1 X63.267 Y81.314 E.30375
G1 X71.948 Y76.97 E.30436
M73 P14 R3
G1 X72.033 Y76.839 E.0049
G1 X73.469 Y67.319 E.30187
M204 P1000
; stop printing object Part Studio 1 - iso_circ id:0 copy 0
M106 S84.15
;LAYER_CHANGE
;Z:0.4
;HEIGHT:0.2
;BEFORE_LAYER_CHANGE
G92 E0.0
;0.4


G1 Z.4 F720
;AFTER_LAYER_CHANGE
;0.4
M104 S210 ; set temperature
G1 E-3.2 F4200
G1 Z.6 F720
G1 X71.769 Y64.979 F9000
G1 Z.4 F720
G1 E3.2 F2400
;TYPE:Skirt/Brim
;WIDTH:0.42
G1 X72.398 Y64.523 E.02436
G1 X89.265 Y59.042 E.55607
G1 X90.735 Y59.042 E.04609
G1 X107.602 Y64.523 E.55607
G1 X108.791 Y65.386 E.04607
M73 P15 R3
G1 X119.216 Y79.735 E.55611
G1 X119.67 Y81.132 E.04606
G1 X119.67 Y98.868 E.5561
G1 X119.216 Y100.265 E.04606
G1 X108.791 Y114.614 E.55611
G1 X107.602 Y115.477 E.04607
G1 X90.735 Y120.958 E.55607
G1 X89.265 Y120.958 E.04609
G1 X72.398 Y115.477 E.55607
G1 X71.209 Y114.614 E.04607
M73 P16 R3
G1 X60.784 Y100.265 E.55611
G1 X60.33 Y98.868 E.04606
G1 X60.33 Y81.132 E.5561
G1 X60.784 Y79.735 E.04606
G1 X71.209 Y65.386 E.55611
G1 X71.721 Y65.015 E.01982
; printing object Part Studio 1 - iso_circ id:0 copy 0
G1 E-2.24 F4200
;WIPE_START
G1 F7200
G1 X72.398 Y64.523 E-.46378
G1 X73.25 Y64.246 E-.49622
;WIPE_END
G1 Z.6 F720
G1 X73.484 Y67.268 F9000
G1 Z.4 F720
G1 E3.2 F2400
M204 P800
;TYPE:External perimeter
;WIDTH:0.449999
G1 F4800
G1 X83.109 Y69.011 E.33109
G1 X83.261 Y68.948 E.00557
G1 X90.001 Y61.903 E.33002
G1 X96.762 Y68.969 E.33103
G1 X96.922 Y69.007 E.00557
M73 P17 R3
G1 X106.516 Y67.268 E.33004
G1 X107.833 Y76.96 E.33108
G1 X107.939 Y77.086 E.00557
G1 X116.724 Y81.317 E.33005
G1 X112.091 Y89.933 E.33113
G1 X112.104 Y90.096 E.00553
G1 X116.724 Y98.683 E.33006
G1 X107.912 Y102.93 E.33111
G1 X107.826 Y103.071 E.00559
G1 X106.516 Y112.732 E.33001
G1 X96.891 Y110.989 E.33109
G1 X96.739 Y111.052 E.00557
G1 X90 Y118.099 E.33005
G1 X83.238 Y111.031 E.3311
G1 X83.078 Y110.993 E.00557
G1 X73.484 Y112.732 E.33004
G1 X72.167 Y103.04 E.33108
G1 X72.061 Y102.915 E.00555
M73 P18 R3
G1 X63.276 Y98.683 E.33007
G1 X67.909 Y90.067 E.33113
G1 X67.896 Y89.904 E.00553
G1 X63.276 Y81.317 E.33006
G1 X72.088 Y77.07 E.33111
G1 X72.174 Y76.929 E.00559
G1 X73.476 Y67.327 E.32799
M204 P1000
; stop printing object Part Studio 1 - iso_circ id:0 copy 0
M106 S170.85
;LAYER_CHANGE
;Z:0.6
;HEIGHT:0.2
;BEFORE_LAYER_CHANGE
G92 E0.0
;0.6


G1 Z.6 F720
;AFTER_LAYER_CHANGE
;0.6
G1 E-3.2 F4200
G1 Z.8 F720
G1 X71.77 Y64.979 F9000
G1 Z.6 F720
G1 E3.2 F2400
;TYPE:Skirt/Brim
;WIDTH:0.42
G1 X72.398 Y64.523 E.02433
G1 X89.265 Y59.042 E.55607
G1 X90.735 Y59.042 E.04609
G1 X107.602 Y64.523 E.55607
G1 X108.791 Y65.386 E.04607
G1 X119.216 Y79.735 E.55611
G1 X119.67 Y81.132 E.04606
M73 P19 R3
G1 X119.67 Y98.868 E.5561
G1 X119.216 Y100.265 E.04606
G1 X108.791 Y114.614 E.55611
G1 X107.602 Y115.477 E.04607
G1 X90.735 Y120.958 E.55607
G1 X89.265 Y120.958 E.04609
G1 X72.398 Y115.477 E.55607
G1 X71.209 Y114.614 E.04607
G1 X60.784 Y100.265 E.55611
G1 X60.33 Y98.868 E.04606
M73 P20 R3
G1 X60.33 Y81.132 E.5561
G1 X60.784 Y79.735 E.04606
G1 X71.209 Y65.386 E.55611
G1 X71.721 Y65.014 E.01984
; printing object Part Studio 1 - iso_circ id:0 copy 0
G1 E-2.24 F4200
;WIPE_START
G1 F7200
G1 X72.398 Y64.523 E-.46345
G1 X73.25 Y64.246 E-.49655
;WIPE_END
G1 Z.8 F720
G1 X73.647 Y67.493 F9000
G1 Z.6 F720
G1 E3.2 F2400
M204 P800
;TYPE:External perimeter
;WIDTH:0.45
G1 F4800
G1 X83.304 Y69.393 E.33314
G1 X90.002 Y62.184 E.33308
G1 X96.696 Y69.393 E.33299
G1 X106.353 Y67.493 E.33314
G1 X107.529 Y77.264 E.33312
G1 X116.459 Y81.403 E.33316
M73 P21 R3
G1 X111.667 Y90 E.33315
G1 X116.459 Y98.597 E.33315
G1 X107.529 Y102.736 E.33316
G1 X106.353 Y112.507 E.33312
G1 X96.695 Y110.607 E.33318
G1 X90 Y117.821 E.33314
G1 X83.304 Y110.607 E.33316
G1 X73.647 Y112.507 E.33314
G1 X72.471 Y102.736 E.33312
G1 X63.541 Y98.597 E.33316
G1 X68.333 Y90 E.33315
G1 X63.541 Y81.403 E.33315
M73 P22 R3
G1 X72.471 Y77.264 E.33316
G1 X73.64 Y67.552 E.33111
M204 P1000
; stop printing object Part Studio 1 - iso_circ id:0 copy 0
M106 S255
;LAYER_CHANGE
;Z:0.8
;HEIGHT:0.2
;BEFORE_LAYER_CHANGE
G92 E0.0
;0.8


G1 Z0.600 F720
;AFTER_LAYER_CHANGE
;0.8
; printing object Part Studio 1 - iso_circ id:0 copy 0
M204 P800
G1 F4800
G1 Z0.610 X83.423 Y69.76 E0.017
G1 Z0.620 X90.002 Y62.464 E0.033
G1 Z0.630 X96.576 Y69.76 E0.050
G1 Z0.640 X106.189 Y67.718 E0.067
G1 Z0.650 X107.217 Y77.491 E0.083
G1 Z0.660 X116.194 Y81.489 E0.100
G1 Z0.670 X111.282 Y90 E0.116
G1 Z0.680 X116.194 Y98.511 E0.133
G1 Z0.690 X107.217 Y102.509 E0.150
G1 Z0.700 X106.189 Y112.282 E0.166
G1 Z0.710 X96.576 Y110.24 E0.183
M73 P23 R3
G1 Z0.720 X90 Y117.542 E0.200
G1 Z0.730 X83.424 Y110.24 E0.216
G1 Z0.740 X73.811 Y112.282 E0.233
G1 Z0.750 X72.783 Y102.509 E0.249
G1 Z0.760 X63.806 Y98.511 E0.266
G1 Z0.770 X68.718 Y90 E0.283
G1 Z0.780 X63.806 Y81.489 E0.299
G1 Z0.790 X72.783 Y77.491 E0.316
G1 Z0.800 X73.811 Y67.718 E0.333
M204 P1000
; stop printing object Part Studio 1 - iso_circ id:0 copy 0
;LAYER_CHANGE
;Z:1
;HEIGHT:0.2
;BEFORE_LAYER_CHANGE
G92 E0.0
;1


G1 Z0.800 F720
;AFTER_LAYER_CHANGE
;1
; printing object Part Studio 1 - iso_circ id:0 copy 0
M204 P800
G1 F4800
G1 Z0.810 X83.543 Y70.126 E.33219
G1 Z0.820 X90.003 Y62.745 E.33201
G1 Z0.830 X96.457 Y70.126 E.33188
M73 P24 R3
G1 Z0.840 X106.025 Y67.943 E.33219
G1 Z0.850 X106.906 Y77.717 E.33218
G1 Z0.860 X115.929 Y81.575 E.33216
G1 Z0.870 X110.896 Y90 E.33219
G1 Z0.880 X115.929 Y98.425 E.33219
G1 Z0.890 X106.906 Y102.283 E.33216
G1 Z0.900 X106.025 Y112.057 E.33218
G1 Z0.910 X96.457 Y109.874 E.33219
G1 Z0.920 X90 Y117.264 E.33218
G1 Z0.930 X83.543 Y109.874 E.33218
G1 Z0.940 X73.975 Y112.057 E.33219
G1 Z0.950 X73.094 Y102.283 E.33218
G1 Z0.960 X64.071 Y98.425 E.33216
M73 P25 R3
G1 Z0.970 X69.104 Y90 E.33219
G1 Z0.980 X64.071 Y81.575 E.33219
G1 Z0.990 X73.094 Y77.717 E.33216
G1 Z1.000 X73.975 Y67.943 E.33218
M204 P1000
; stop printing object Part Studio 1 - iso_circ id:0 copy 0
;LAYER_CHANGE
;Z:1.2
;HEIGHT:0.2
;BEFORE_LAYER_CHANGE
G92 E0.0
;1.2


G1 Z1.000 F720
;AFTER_LAYER_CHANGE
;1.2
; printing object Part Studio 1 - iso_circ id:0 copy 0
M204 P800
G1 F4800
G1 Z1.010 X83.662 Y70.493 E.3318
G1 Z1.020 X90.004 Y63.025 E.33164
G1 Z1.030 X96.338 Y70.493 E.33146
G1 Z1.040 X105.861 Y68.169 E.3318
G1 Z1.050 X106.594 Y77.944 E.3318
G1 Z1.060 X115.664 Y81.661 E.33179
G1 Z1.070 X110.511 Y90 E.33181
G1 Z1.080 X115.664 Y98.339 E.33181
M73 P26 R3
G1 Z1.090 X106.594 Y102.056 E.33179
G1 Z1.100 X105.861 Y111.831 E.3318
G1 Z1.110 X96.338 Y109.507 E.3318
G1 Z1.120 X90 Y116.985 E.33181
G1 Z1.130 X83.662 Y109.507 E.33181
G1 Z1.140 X74.139 Y111.831 E.3318
G1 Z1.150 X73.406 Y102.056 E.3318
G1 Z1.160 X64.336 Y98.339 E.33179
G1 Z1.170 X69.489 Y90 E.33181
G1 Z1.180 X64.336 Y81.661 E.33181
G1 Z1.190 X73.406 Y77.944 E.33179
G1 Z1.200 X74.139 Y68.169 E.3318
M204 P1000
; stop printing object Part Studio 1 - iso_circ id:0 copy 0
;LAYER_CHANGE
;Z:1.4
;HEIGHT:0.2
;BEFORE_LAYER_CHANGE
G92 E0.0
;1.4


G1 Z1.200 F720
;AFTER_LAYER_CHANGE
;1.4
; printing object Part Studio 1 - iso_circ id:0 copy 0
M204 P800
M73 P27 R3
G1 F4800
G1 Z1.210 X83.781 Y70.86 E.33149
G1 Z1.220 X89.997 Y63.298 E.33134
G1 Z1.230 X96.219 Y70.86 E.33147
G1 Z1.240 X105.697 Y68.395 E.33149
G1 Z1.250 X106.281 Y78.171 E.3315
G1 Z1.260 X115.399 Y81.747 E.33152
G1 Z1.270 X110.125 Y90 E.33152
G1 Z1.280 X115.399 Y98.253 E.33152
G1 Z1.290 X106.281 Y101.829 E.33152
M73 P27 R2
G1 Z1.300 X105.697 Y111.605 E.3315
G1 Z1.310 X96.219 Y109.14 E.33149
G1 Z1.320 X90 Y116.706 E.33151
G1 Z1.330 X83.781 Y109.14 E.33151
M73 P28 R2
G1 Z1.340 X74.303 Y111.605 E.33149
G1 Z1.350 X73.719 Y101.829 E.3315
G1 Z1.360 X64.601 Y98.253 E.33152
G1 Z1.370 X69.875 Y90 E.33152
G1 Z1.380 X64.601 Y81.747 E.33152
G1 Z1.390 X73.719 Y78.171 E.33152
G1 Z1.400 X74.303 Y68.395 E.3315
M204 P1000
; stop printing object Part Studio 1 - iso_circ id:0 copy 0
;LAYER_CHANGE
;Z:1.6
;HEIGHT:0.2
;BEFORE_LAYER_CHANGE
G92 E0.0
;1.6


G1 Z1.400 F720
;AFTER_LAYER_CHANGE
;1.6
; printing object Part Studio 1 - iso_circ id:0 copy 0
M204 P800
G1 F4800
G1 Z1.410 X83.899 Y71.223 E.33119
G1 Z1.420 X89.994 Y63.574 E.33105
G1 Z1.430 X96.101 Y71.223 E.33131
G1 Z1.440 X105.533 Y68.621 E.33119
G1 Z1.450 X105.972 Y78.395 E.33117
M73 P29 R2
G1 Z1.460 X115.133 Y81.834 E.33122
G1 Z1.470 X109.743 Y90 E.33119
G1 Z1.480 X115.133 Y98.166 E.33119
G1 Z1.490 X105.972 Y101.605 E.33122
G1 Z1.500 X105.533 Y111.379 E.33117
G1 Z1.510 X96.101 Y108.777 E.33119
G1 Z1.520 X90 Y116.426 E.33118
G1 Z1.530 X83.899 Y108.777 E.33118
G1 Z1.540 X74.467 Y111.379 E.33119
G1 Z1.550 X74.028 Y101.605 E.33117
G1 Z1.560 X64.867 Y98.166 E.33122
G1 Z1.570 X70.257 Y90 E.33119
G1 Z1.580 X64.867 Y81.834 E.33119
M73 P30 R2
G1 Z1.590 X74.028 Y78.395 E.33122
G1 Z1.600 X74.467 Y68.621 E.33117
M204 P1000
; stop printing object Part Studio 1 - iso_circ id:0 copy 0
;LAYER_CHANGE
;Z:1.8
;HEIGHT:0.2
;BEFORE_LAYER_CHANGE
G92 E0.0
;1.8


G1 Z1.600 F720
;AFTER_LAYER_CHANGE
;1.8
; printing object Part Studio 1 - iso_circ id:0 copy 0
M204 P800
G1 F4800
G1 Z1.610 X84.017 Y71.586 E.33096
G1 Z1.620 X89.994 Y63.855 E.33077
G1 Z1.630 X95.983 Y71.586 E.33102
G1 Z1.640 X105.369 Y68.847 E.33096
G1 Z1.650 X105.664 Y78.62 E.33096
G1 Z1.660 X114.867 Y81.92 E.33093
G1 Z1.670 X109.361 Y90 E.33096
G1 Z1.680 X114.867 Y98.08 E.33096
G1 Z1.690 X105.664 Y101.38 E.33093
G1 Z1.700 X105.369 Y111.153 E.33096
M73 P31 R2
G1 Z1.710 X95.983 Y108.414 E.33096
G1 Z1.720 X90 Y116.147 E.33095
G1 Z1.730 X84.017 Y108.414 E.33095
G1 Z1.740 X74.631 Y111.153 E.33096
G1 Z1.750 X74.336 Y101.38 E.33096
G1 Z1.760 X65.133 Y98.08 E.33093
G1 Z1.770 X70.639 Y90 E.33096
G1 Z1.780 X65.133 Y81.92 E.33096
G1 Z1.790 X74.336 Y78.62 E.33093
G1 Z1.800 X74.631 Y68.847 E.33096
M204 P1000
; stop printing object Part Studio 1 - iso_circ id:0 copy 0
;LAYER_CHANGE
;Z:2
;HEIGHT:0.2
;BEFORE_LAYER_CHANGE
G92 E0.0
;2


G1 Z1.800 F720
;AFTER_LAYER_CHANGE
;2
; printing object Part Studio 1 - iso_circ id:0 copy 0
M204 P800
G1 F4800
G1 Z1.810 X84.135 Y71.95 E.33077
G1 Z1.820 X89.996 Y64.138 E.33057
G1 Z1.830 X95.865 Y71.949 E.33071
M73 P32 R2
G1 Z1.840 X105.204 Y69.073 E.33076
G1 Z1.850 X105.355 Y78.844 E.33078
G1 Z1.860 X114.601 Y82.007 E.33077
G1 Z1.870 X108.979 Y90 E.33078
G1 Z1.880 X114.601 Y97.993 E.33078
G1 Z1.890 X105.355 Y101.156 E.33077
G1 Z1.900 X105.204 Y110.927 E.33078
G1 Z1.910 X95.865 Y108.051 E.33076
G1 Z1.920 X90 Y115.867 E.33076
G1 Z1.930 X84.135 Y108.051 E.33076
G1 Z1.940 X74.796 Y110.927 E.33076
G1 Z1.950 X74.645 Y101.156 E.33078
M73 P33 R2
G1 Z1.960 X65.399 Y97.993 E.33077
G1 Z1.970 X71.021 Y90 E.33078
G1 Z1.980 X65.399 Y82.007 E.33078
G1 Z1.990 X74.645 Y78.844 E.33077
G1 Z2.000 X74.796 Y69.073 E.33078
M204 P1000
; stop printing object Part Studio 1 - iso_circ id:0 copy 0
;LAYER_CHANGE
;Z:2.2
;HEIGHT:0.2
;BEFORE_LAYER_CHANGE
G92 E0.0
;2.2


G1 Z2.000 F720
;AFTER_LAYER_CHANGE
;2.2
; printing object Part Studio 1 - iso_circ id:0 copy 0
M204 P800
G1 F4800
G1 Z2.010 X84.253 Y72.313 E.33064
G1 Z2.020 X89.996 Y64.419 E.33043
G1 Z2.030 X95.747 Y72.313 E.33059
G1 Z2.040 X105.039 Y69.3 E.33064
G1 Z2.050 X105.046 Y79.069 E.33067
G1 Z2.060 X114.334 Y82.093 E.33063
G1 Z2.070 X108.597 Y90 E.33067
M73 P34 R2
G1 Z2.080 X114.334 Y97.907 E.33067
G1 Z2.090 X105.046 Y100.931 E.33063
G1 Z2.100 X105.039 Y110.7 E.33067
G1 Z2.110 X95.747 Y107.687 E.33064
G1 Z2.120 X90 Y115.586 E.33065
G1 Z2.130 X84.253 Y107.687 E.33065
G1 Z2.140 X74.961 Y110.7 E.33064
G1 Z2.150 X74.954 Y100.931 E.33067
G1 Z2.160 X65.666 Y97.907 E.33063
G1 Z2.170 X71.403 Y90 E.33067
G1 Z2.180 X65.666 Y82.093 E.33067
G1 Z2.190 X74.954 Y79.069 E.33063
G1 Z2.200 X74.961 Y69.3 E.33067
M204 P1000
; stop printing object Part Studio 1 - iso_circ id:0 copy 0
;LAYER_CHANGE
;Z:2.4
;HEIGHT:0.2
;BEFORE_LAYER_CHANGE
G92 E0.0
;2.4


M73 P35 R2
G1 Z2.200 F720
;AFTER_LAYER_CHANGE
;2.4
; printing object Part Studio 1 - iso_circ id:0 copy 0
M204 P800
G1 F4800
G1 Z2.210 X84.37 Y72.674 E.33053
G1 Z2.220 X89.996 Y64.7 E.33033
G1 Z2.230 X95.63 Y72.674 E.33048
G1 Z2.240 X104.874 Y69.527 E.33053
G1 Z2.250 X104.738 Y79.292 E.33057
G1 Z2.260 X114.067 Y82.18 E.33056
G1 Z2.270 X108.218 Y90 E.33055
G1 Z2.280 X114.067 Y97.82 E.33055
G1 Z2.290 X104.738 Y100.708 E.33056
G1 Z2.300 X104.874 Y110.473 E.33057
G1 Z2.310 X95.63 Y107.326 E.33053
G1 Z2.320 X90 Y115.306 E.33057
M73 P36 R2
G1 Z2.330 X84.37 Y107.326 E.33057
G1 Z2.340 X75.126 Y110.473 E.33053
G1 Z2.350 X75.262 Y100.708 E.33057
G1 Z2.360 X65.933 Y97.82 E.33056
G1 Z2.370 X71.782 Y90 E.33055
G1 Z2.380 X65.933 Y82.18 E.33055
G1 Z2.390 X75.262 Y79.292 E.33056
G1 Z2.400 X75.126 Y69.527 E.33057
M204 P1000
; stop printing object Part Studio 1 - iso_circ id:0 copy 0
;LAYER_CHANGE
;Z:2.6
;HEIGHT:0.2
;BEFORE_LAYER_CHANGE
G92 E0.0
;2.6


G1 Z2.400 F720
;AFTER_LAYER_CHANGE
;2.6
