G1 X50
G1 X-50
G1 Y200 Z50
G1 Y-20 X20
G1 X4.549 Y3.447 E2.75892
G1 X4.934 Y2.09 E.04424


G1 X0
G1 X50
G1 X75 F1800
G1 X100 F2000
G1 X0


G1 F2100
M204 S800
G1 X6.024 Y1.026 E0.04612
G1 X7.303 Y.711 E.0413
G1 X148.487 Y.711 E4.42674
G1 X149.905 Y1.104 E.04612
G1 X151.105 Y2.609 E.06037
M205 X200 Y200
G1 X178.652 Y86.859 E2.77922
G1 X178.968 Y88.398 E.04924
G1 X178.981 Y89.431 E.0324
G1 X168.321 Y177.04 E2.76718 F800
G1 X167.76 Y178.4 E.04612
G1 X166.579 Y179.277 E.04612
G1 X165.587 Y179.461 E.03164
G1 X24.402 Y179.461 E4.42674
G1 X22.985 Y179.069 E.04612

G1 X21.972 Y178.002 E.04612
G1 X21.705 Y177.265 E.02459
G1 X3.999 Y91.437 E2.74775
G1 X4.549 Y3.447 E2.75892
G1 X4.934 Y2.09 E.04424
M203 X30 E888

; generated by PrusaSlicer 2.0.0+win64 on 2021-05-21 at 11:10:17

; 

; external perimeters extrusion width = 0.48mm
; perimeters extrusion width = 0.48mm
; infill extrusion width = 0.48mm
; solid infill extrusion width = 0.48mm
; top infill extrusion width = 0.48mm

M107
M104 S203 ; set temperature
G21 ;metric values
G90 ;absolute positioning
M82 ;set extruder to absolute mode
M107 ;start with the fan off
G28 X0 Y0 ;move X/Y to min endstops
G28 Z0 ;move Z to min endstops
G92 E0 ;zero the extruded length
G1 F200 E7 ;extrude 7mm of feed stock
;G1 Y0 F8000;
;G1 Z15 F5000 ; lift nozzle
G92 E0 ;zero the extruded length again
; Filament gcode
M109 S203 ; set temperature and wait for it to be reached
G21 ; set units to millimeters
G90 ; use absolute coordinates
M82 ; use absolute distances for extrusion
G92 E0
G1 Z0.200 F4800.000
G1 E-2.50000 F2400.00000
G92 E0
G1 X73.521 Y74.253 F4800.000
G1 E2.50000 F2400.00000
G1 F1800
G1 X76.123 Y71.811 E2.62968
G1 X79.311 Y69.394 E2.77506
G1 X82.702 Y67.358 E2.91881
G1 X86.325 Y65.681 E3.06391
G1 X90.109 Y64.406 E3.20902
G1 X93.971 Y63.553 E3.35277
G1 X97.947 Y63.115 E3.49815
G1 X101.515 Y63.098; E3.62783
G1 Y63.492 E3.77511 X105.549
G1 X100
G1 X200 Y15
