; generated by PrusaSlicer 2.5.2+win64 on 2024-01-10 at 17:00:08 UTC


;
;

;
;
;

; external perimeters extrusion width = 0.45mm
; perimeters extrusion width = 0.45mm
; infill extrusion width = 0.45mm
; solid infill extrusion width = 0.45mm
; top infill extrusion width = 0.40mm
; first layer extrusion width = 0.45mm

M73 P0 R24
M107 P1
;TYPE:Custom
;CUSTOM PRUSASLICER PROFILE FOR ANISOPRINT A4
;CREATED AT FAST-LB AT KIT

;BEGIN OF START-SEQUENCE

M140 S55
M109 S215; WAIT FOR TEMP NOZZLE
M190 ; WAIT FOR BED

T0 R ; switch extruder to plastic
G28 ; home all axes

;PURGE LINE

G92 E0
G1 X-2 Y130 Z.4 F7800
G1 X-2 Y45 E18 F800
M73 P0 R23
G1 X-2 Y35
G1 E16.5 F2400

G92 E0


;END OF START-SEQUENCE

G21 ; set units to millimeters
G90 ; use absolute coordinates
M82 ; use absolute distances for extrusion
G92 E0
; Filament gcode
M107 P1
;LAYER_CHANGE
;Z:0.25
;HEIGHT:0.25
G1 Z.25 F7800
G1 E-6.5 F2400
G92 E0
G1 Z.45 F7800
G1 X132.569 Y81.773
G1 Z.25
G1 E6.5 F2400
;TYPE:Skirt/Brim
;WIDTH:0.45
G1 F1800
G1 X134.362 Y80.004 E6.60377
G1 X136.617 Y78.882 E6.70754
G1 X139 Y78.518 E6.80683
G1 X149 Y78.518 E7.21879
G1 X151.487 Y78.916 E7.32256
G1 X153.727 Y80.069 E7.42633
G1 X155.496 Y81.862 E7.53011
G1 X156.618 Y84.117 E7.63388
G1 X156.982 Y86.5 E7.73317
G1 X156.982 Y128.5 E9.46339
G1 X156.584 Y130.987 E9.56716
G1 X155.431 Y133.227 E9.67093
G1 X153.638 Y134.996 E9.7747
G1 X151.383 Y136.118 E9.87848
G1 X149 Y136.482 E9.97776
G1 X139 Y136.482 E10.38972
G1 X136.513 Y136.084 E10.49349
G1 X134.273 Y134.931 E10.59727
G1 X132.504 Y133.138 E10.70104
G1 X131.382 Y130.883 E10.80481
G1 X131.018 Y128.5 E10.9041
G1 X131.018 Y86.5 E12.63432
G1 X131.416 Y84.013 E12.73809
M73 P1 R23
G1 X132.541 Y81.826 E12.83939
G1 X132.904 Y82.019 F7800
G1 F1800
G1 X132.962 Y81.908 E12.84454
G1 X134.745 Y80.22 E12.94569
G1 X136.974 Y79.19 E13.04684
G1 X139 Y78.915 E13.13106
G1 X149 Y78.915 E13.54302
G1 X151.423 Y79.312 E13.64416
G1 X153.592 Y80.462 E13.74531
G1 X155.28 Y82.245 E13.84646
G1 X156.31 Y84.474 E13.9476
G1 X156.585 Y86.5 E14.03182
G1 X156.585 Y128.5 E15.76205
G1 X156.188 Y130.923 E15.86319
G1 X155.038 Y133.092 E15.96434
G1 X153.255 Y134.78 E16.06548
G1 X151.026 Y135.81 E16.16663
G1 X149 Y136.085 E16.25085
G1 X139 Y136.085 E16.66281
G1 X136.577 Y135.688 E16.76396
G1 X134.408 Y134.538 E16.8651
G1 X132.72 Y132.755 E16.96625
G1 X131.69 Y130.526 E17.0674
G1 X131.415 Y128.5 E17.15162
G1 X131.415 Y86.5 E18.88184
G1 X131.812 Y84.077 E18.98299
G1 X132.876 Y82.072 E19.07651
G1 X133.235 Y82.268 F7800
G1 F1800
G1 X133.356 Y82.047 E19.08689
G1 X135.127 Y80.443 E19.18534
G1 X137.327 Y79.508 E19.28379
G1 X139 Y79.311 E19.35319
G1 X149 Y79.311 E19.76515
G1 X151.357 Y79.708 E19.8636
G1 X153.453 Y80.856 E19.96205
G1 X155.057 Y82.627 E20.0605
G1 X155.992 Y84.827 E20.15895
G1 X156.189 Y86.5 E20.22836
G1 X156.189 Y128.5 E21.95858
G1 X155.792 Y130.857 E22.05703
G1 X154.644 Y132.953 E22.15548
G1 X152.873 Y134.557 E22.25393
G1 X150.673 Y135.492 E22.35238
G1 X149 Y135.689 E22.42179
G1 X139 Y135.689 E22.83375
G1 X136.643 Y135.292 E22.9322
G1 X134.547 Y134.144 E23.03065
G1 X132.943 Y132.373 E23.1291
G1 X132.008 Y130.173 E23.22755
G1 X131.811 Y128.5 E23.29696
G1 X131.811 Y86.5 E25.02718
G1 X132.208 Y84.143 E25.12563
G1 X133.206 Y82.321 E25.21123
G1 X133.561 Y82.522 F7800
G1 F1800
G1 X133.749 Y82.191 E25.22691
G1 X135.508 Y80.674 E25.32259
G1 X137.675 Y79.838 E25.41827
G1 X139 Y79.707 E25.47314
G1 X149 Y79.707 E25.88509
G1 X151.288 Y80.104 E25.98077
G1 X153.309 Y81.249 E26.07645
G1 X154.826 Y83.008 E26.17213
G1 X155.662 Y85.175 E26.26781
G1 X155.793 Y86.5 E26.32267
G1 X155.793 Y128.5 E28.05289
G1 X155.396 Y130.788 E28.14857
G1 X154.251 Y132.809 E28.24425
G1 X152.492 Y134.326 E28.33993
G1 X150.325 Y135.162 E28.43561
G1 X149 Y135.293 E28.49047
G1 X139 Y135.293 E28.90243
G1 X136.712 Y134.896 E28.99811
G1 X134.691 Y133.751 E29.09379
G1 X133.174 Y131.992 E29.18947
G1 X132.338 Y129.825 E29.28514
G1 X132.207 Y128.5 E29.34001
G1 X132.207 Y86.5 E31.07023
G1 X132.604 Y84.212 E31.16591
M73 P2 R23
G1 X133.532 Y82.574 E31.24343
G1 X133.883 Y82.78 F7800
G1 F1800
G1 X134.142 Y82.339 E31.26451
G1 X135.886 Y80.913 E31.35733
G1 X139 Y80.104 E31.48987
G1 X149 Y80.104 E31.90183
G1 X151.218 Y80.501 E31.99465
G1 X153.161 Y81.642 E32.08748
G1 X154.587 Y83.386 E32.1803
G1 X155.396 Y86.5 E32.31284
G1 X155.396 Y128.5 E34.04306
G1 X154.999 Y130.718 E34.13589
G1 X153.858 Y132.661 E34.22871
G1 X152.114 Y134.087 E34.32153
G1 X149 Y134.896 E34.45407
G1 X139 Y134.896 E34.86603
G1 X136.782 Y134.499 E34.95885
G1 X134.839 Y133.358 E35.05168
G1 X133.413 Y131.614 E35.1445
G1 X132.604 Y128.5 E35.27704
G1 X132.604 Y86.5 E37.00726
G1 X133.001 Y84.282 E37.10008
G1 X133.852 Y82.832 E37.16935
G1 E30.66935 F2400
G92 E0
G1 Z.45 F7800
G1 X147.982 Y127.482
G1 Z.25
G1 E6.5 F2400
;TYPE:Perimeter
;WIDTH:0.449999
G1 F1800
G1 X140.018 Y127.482 E6.82811
G1 X140.018 Y87.518 E8.47448
G1 X147.982 Y87.518 E8.80258
G1 X147.982 Y127.422 E10.44648
G1 X148.379 Y127.879 F7800
G1 F1800
G1 X139.621 Y127.879 E10.80725
G1 X139.621 Y87.121 E12.48627
G1 X148.379 Y87.121 E12.84703
G1 X148.379 Y127.819 E14.52359
G1 X148.775 Y128.275 F7800
;TYPE:External perimeter
G1 F1800
G1 X139.225 Y128.275 E14.91701
G1 X139.225 Y86.725 E16.62869
G1 X148.775 Y86.725 E17.02211
M73 P3 R23
G1 X148.775 Y128.215 E18.73132
G1 X148.415 Y128.102 F7800
G1 E12.23132 F2400
G92 E0
G1 Z.45 F7800
G1 X147.054 Y87.637
G1 Z.25
G1 E6.5 F2400
;TYPE:Solid infill
;WIDTH:0.453779
G1 F1800
G1 X147.685 Y88.267 E6.53711
G1 X147.685 Y88.833 E6.56064
G1 X146.667 Y87.815 E6.62054
G1 X146.101 Y87.815 E6.64407
G1 X147.685 Y89.399 E6.73725
G1 X147.685 Y89.965 E6.76078
G1 X145.535 Y87.815 E6.88724
G1 X144.969 Y87.815 E6.91078
G1 X147.685 Y90.531 E7.07052
G1 X147.685 Y91.097 E7.09405
G1 X144.403 Y87.815 E7.28707
G1 X143.837 Y87.815 E7.31061
G1 X147.685 Y91.663 E7.53691
G1 X147.685 Y92.229 E7.56045
G1 X143.271 Y87.815 E7.82003
G1 X142.706 Y87.815 E7.84357
G1 X147.685 Y92.794 E8.13643
G1 X147.685 Y93.36 E8.15997
G1 X142.14 Y87.815 E8.48612
G1 X141.574 Y87.815 E8.50965
G1 X147.685 Y93.926 E8.86908
G1 X147.685 Y94.492 E8.89262
G1 X141.008 Y87.815 E9.28533
G1 X140.442 Y87.815 E9.30886
G1 X147.685 Y95.058 E9.73486
G1 X147.685 Y95.624 E9.75839
G1 X140.315 Y88.254 E10.19186
G1 X140.315 Y88.82 E10.2154
G1 X147.685 Y96.19 E10.64887
G1 X147.685 Y96.755 E10.6724
G1 X140.315 Y89.385 E11.10588
G1 X140.315 Y89.951 E11.12941
G1 X147.685 Y97.321 E11.56289
G1 X147.685 Y97.887 E11.58642
G1 X140.315 Y90.517 E12.01989
G1 X140.315 Y91.083 E12.04343
G1 X147.685 Y98.453 E12.4769
G1 X147.685 Y99.019 E12.50043
G1 X140.315 Y91.649 E12.93391
G1 X140.315 Y92.215 E12.95744
G1 X147.685 Y99.585 E13.39092
G1 X147.685 Y100.151 E13.41445
G1 X140.315 Y92.781 E13.84792
G1 X140.315 Y93.346 E13.87146
G1 X147.685 Y100.717 E14.30493
G1 X147.685 Y101.282 E14.32846
G1 X140.315 Y93.912 E14.76194
G1 X140.315 Y94.478 E14.78547
G1 X147.685 Y101.848 E15.21895
G1 X147.685 Y102.414 E15.24248
G1 X140.315 Y95.044 E15.67595
G1 X140.315 Y95.61 E15.69949
G1 X147.685 Y102.98 E16.13296
G1 X147.685 Y103.546 E16.15649
G1 X140.315 Y96.176 E16.58997
G1 X140.315 Y96.742 E16.6135
G1 X147.685 Y104.112 E17.04697
G1 X147.685 Y104.678 E17.07051
G1 X140.315 Y97.308 E17.50398
G1 X140.315 Y97.873 E17.52752
G1 X147.685 Y105.244 E17.96099
G1 X147.685 Y105.809 E17.98452
G1 X140.315 Y98.439 E18.418
G1 X140.315 Y99.005 E18.44153
G1 X147.685 Y106.375 E18.875
G1 X147.685 Y106.941 E18.89854
M73 P4 R23
G1 X140.315 Y99.571 E19.33201
G1 X140.315 Y100.137 E19.35555
G1 X147.685 Y107.507 E19.78902
G1 X147.685 Y108.073 E19.81255
G1 X140.315 Y100.703 E20.24603
G1 X140.315 Y101.269 E20.26956
G1 X147.685 Y108.639 E20.70303
G1 X147.685 Y109.205 E20.72657
G1 X140.315 Y101.834 E21.16004
G1 X140.315 Y102.4 E21.18358
G1 X147.685 Y109.77 E21.61705
G1 X147.685 Y110.336 E21.64058
G1 X140.315 Y102.966 E22.07406
G1 X140.315 Y103.532 E22.09759
M73 P4 R22
G1 X147.685 Y110.902 E22.53106
G1 X147.685 Y111.468 E22.5546
G1 X140.315 Y104.098 E22.98807
G1 X140.315 Y104.664 E23.01161
G1 X147.685 Y112.034 E23.44508
G1 X147.685 Y112.6 E23.46861
G1 X140.315 Y105.23 E23.90209
G1 X140.315 Y105.796 E23.92562
G1 X147.685 Y113.166 E24.35909
G1 X147.685 Y113.732 E24.38263
G1 X140.315 Y106.361 E24.8161
G1 X140.315 Y106.927 E24.83964
G1 X147.685 Y114.297 E25.27311
G1 X147.685 Y114.863 E25.29664
G1 X140.315 Y107.493 E25.73012
G1 X140.315 Y108.059 E25.75365
G1 X147.685 Y115.429 E26.18712
G1 X147.685 Y115.995 E26.21066
G1 X140.315 Y108.625 E26.64413
G1 X140.315 Y109.191 E26.66766
G1 X147.685 Y116.561 E27.10114
G1 X147.685 Y117.127 E27.12467
G1 X140.315 Y109.757 E27.55815
G1 X140.315 Y110.322 E27.58168
G1 X147.685 Y117.693 E28.01515
G1 X147.685 Y118.258 E28.03869
G1 X140.315 Y110.888 E28.47216
G1 X140.315 Y111.454 E28.49569
G1 X147.685 Y118.824 E28.92917
G1 X147.685 Y119.39 E28.9527
G1 X140.315 Y112.02 E29.38618
G1 X140.315 Y112.586 E29.40971
G1 X147.685 Y119.956 E29.84318
G1 X147.685 Y120.522 E29.86672
G1 X140.315 Y113.152 E30.30019
G1 X140.315 Y113.718 E30.32372
G1 X147.685 Y121.088 E30.7572
G1 X147.685 Y121.654 E30.78073
G1 X140.315 Y114.284 E31.21421
G1 X140.315 Y114.849 E31.23774
G1 X147.685 Y122.22 E31.67121
G1 X147.685 Y122.785 E31.69475
G1 X140.315 Y115.415 E32.12822
G1 X140.315 Y115.981 E32.15175
G1 X147.685 Y123.351 E32.58523
G1 X147.685 Y123.917 E32.60876
G1 X140.315 Y116.547 E33.04224
G1 X140.315 Y117.113 E33.06577
G1 X147.685 Y124.483 E33.49924
G1 X147.685 Y125.049 E33.52278
G1 X140.315 Y117.679 E33.95625
G1 X140.315 Y118.245 E33.97978
G1 X147.685 Y125.615 E34.41326
G1 X147.685 Y126.181 E34.43679
G1 X140.315 Y118.811 E34.87026
G1 X140.315 Y119.376 E34.8938
G1 X147.685 Y126.746 E35.32727
G1 X147.685 Y127.185 E35.34551
G1 X147.558 Y127.185 E35.35081
G1 X140.315 Y119.942 E35.77679
G1 X140.315 Y120.508 E35.80033
M73 P5 R22
G1 X146.992 Y127.185 E36.19303
G1 X146.426 Y127.185 E36.21656
G1 X140.315 Y121.074 E36.57599
G1 X140.315 Y121.64 E36.59952
G1 X145.86 Y127.185 E36.92566
G1 X145.294 Y127.185 E36.9492
G1 X140.315 Y122.206 E37.24206
G1 X140.315 Y122.772 E37.26559
G1 X144.728 Y127.185 E37.52517
G1 X144.163 Y127.185 E37.5487
G1 X140.315 Y123.337 E37.775
G1 X140.315 Y123.903 E37.79853
G1 X143.597 Y127.185 E37.99155
G1 X143.031 Y127.185 E38.01508
G1 X140.315 Y124.469 E38.17482
G1 X140.315 Y125.035 E38.19835
G1 X142.465 Y127.185 E38.3248
G1 X141.899 Y127.185 E38.34834
G1 X140.315 Y125.601 E38.44151
G1 X140.315 Y126.167 E38.46504
G1 X141.333 Y127.185 E38.52493
G1 X140.767 Y127.185 E38.54846
G1 X140.137 Y126.554 E38.58556
;LAYER_CHANGE
;Z:0.45
;HEIGHT:0.2
G1 Z.45 F7800
M104 S212 ; set temperature
G1 E32.08556 F2400
G92 E0
G1 Z.65 F7800
G1 X147.961 Y127.461
G1 Z.45
G1 E6.5 F2400
;TYPE:Perimeter
;WIDTH:0.449999
G1 F3600
G1 X140.039 Y127.461 E6.76814
G1 X140.039 Y87.539 E8.11944
G1 X147.961 Y87.539 E8.38758
G1 X147.961 Y127.401 E9.73685
G1 X148.368 Y127.868 F7800
G1 F3600
G1 X139.632 Y127.868 E10.03254
G1 X139.632 Y87.132 E11.4114
G1 X148.368 Y87.132 E11.7071
G1 X148.368 Y127.808 E13.08393
G1 X148.775 Y128.275 F7800
;TYPE:External perimeter
G1 F1800
G1 X139.225 Y128.275 E13.40718
G1 X139.225 Y86.725 E14.8136
G1 X148.775 Y86.725 E15.13685
G1 X148.775 Y128.215 E16.54124
G1 X148.415 Y128.102 F7800
G1 X147.839 Y126.512
;TYPE:Solid infill
;WIDTH:0.451975
G1 F1200
G1 X147.195 Y127.156 E16.57221
G1 X146.616 Y127.156 E16.59189
G1 X147.656 Y126.116 E16.64188
G1 X147.656 Y125.538 E16.66155
G1 X146.038 Y127.156 E16.73937
G1 X145.459 Y127.156 E16.75904
G1 X147.656 Y124.959 E16.86469
G1 X147.656 Y124.381 E16.88436
G1 X144.881 Y127.156 E17.01783
G1 X144.302 Y127.156 E17.03751
G1 X147.656 Y123.802 E17.1988
G1 X147.656 Y123.224 E17.21848
G1 X143.724 Y127.156 E17.4076
G1 X143.145 Y127.156 E17.42727
G1 X147.656 Y122.645 E17.64422
G1 X147.656 Y122.067 E17.6639
G1 X142.567 Y127.156 E17.90867
G1 X141.988 Y127.156 E17.92834
G1 X147.656 Y121.488 E18.20094
G1 X147.656 Y120.91 E18.22062
G1 X141.41 Y127.156 E18.52105
G1 X140.831 Y127.156 E18.54072
G1 X147.656 Y120.331 E18.86898
G1 X147.656 Y119.753 E18.88865
G1 X140.344 Y127.064 E19.24033
G1 X140.344 Y126.486 E19.26
M73 P6 R22
G1 X147.656 Y119.174 E19.61168
G1 X147.656 Y118.596 E19.63136
G1 X140.344 Y125.907 E19.98303
G1 X140.344 Y125.329 E20.00271
G1 X147.656 Y118.017 E20.35438
G1 X147.656 Y117.439 E20.37406
G1 X140.344 Y124.75 E20.72574
G1 X140.344 Y124.172 E20.74541
G1 X147.656 Y116.86 E21.09709
G1 X147.656 Y116.282 E21.11677
G1 X140.344 Y123.593 E21.46844
G1 X140.344 Y123.015 E21.48812
G1 X147.656 Y115.703 E21.83979
G1 X147.656 Y115.125 E21.85947
G1 X140.344 Y122.436 E22.21115
G1 X140.344 Y121.858 E22.23082
G1 X147.656 Y114.547 E22.5825
G1 X147.656 Y113.968 E22.60217
G1 X140.344 Y121.279 E22.95385
G1 X140.344 Y120.701 E22.97353
G1 X147.656 Y113.39 E23.3252
G1 X147.656 Y112.811 E23.34488
G1 X140.344 Y120.122 E23.69655
G1 X140.344 Y119.544 E23.71623
G1 X147.656 Y112.233 E24.06791
G1 X147.656 Y111.654 E24.08758
G1 X140.344 Y118.965 E24.43926
G1 X140.344 Y118.387 E24.45894
G1 X147.656 Y111.076 E24.81061
G1 X147.656 Y110.497 E24.83029
G1 X140.344 Y117.808 E25.18196
G1 X140.344 Y117.23 E25.20164
G1 X147.656 Y109.919 E25.55332
G1 X147.656 Y109.34 E25.57299
G1 X140.344 Y116.651 E25.92467
G1 X140.344 Y116.073 E25.94434
G1 X147.656 Y108.762 E26.29602
G1 X147.656 Y108.183 E26.3157
G1 X140.344 Y115.494 E26.66737
G1 X140.344 Y114.916 E26.68705
G1 X147.656 Y107.605 E27.03872
G1 X147.656 Y107.026 E27.0584
G1 X140.344 Y114.337 E27.41008
G1 X140.344 Y113.759 E27.42975
G1 X147.656 Y106.448 E27.78143
G1 X147.656 Y105.869 E27.80111
G1 X140.344 Y113.18 E28.15278
G1 X140.344 Y112.602 E28.17246
G1 X147.656 Y105.291 E28.52413
G1 X147.656 Y104.712 E28.54381
G1 X140.344 Y112.023 E28.89549
G1 X140.344 Y111.445 E28.91516
M73 P7 R22
G1 X147.656 Y104.134 E29.26684
G1 X147.656 Y103.555 E29.28651
G1 X140.344 Y110.866 E29.63819
G1 X140.344 Y110.288 E29.65787
G1 X147.656 Y102.977 E30.00954
G1 X147.656 Y102.398 E30.02922
G1 X140.344 Y109.709 E30.3809
G1 X140.344 Y109.131 E30.40057
G1 X147.656 Y101.82 E30.75225
G1 X147.656 Y101.241 E30.77192
G1 X140.344 Y108.552 E31.1236
G1 X140.344 Y107.974 E31.14328
G1 X147.656 Y100.663 E31.49495
G1 X147.656 Y100.084 E31.51463
G1 X140.344 Y107.395 E31.8663
G1 X140.344 Y106.817 E31.88598
G1 X147.656 Y99.506 E32.23766
G1 X147.656 Y98.927 E32.25733
G1 X140.344 Y106.238 E32.60901
G1 X140.344 Y105.66 E32.62869
G1 X147.656 Y98.349 E32.98036
G1 X147.656 Y97.77 E33.00004
G1 X140.344 Y105.081 E33.35171
G1 X140.344 Y104.503 E33.37139
G1 X147.656 Y97.192 E33.72307
G1 X147.656 Y96.613 E33.74274
G1 X140.344 Y103.924 E34.09442
G1 X140.344 Y103.346 E34.11409
G1 X147.656 Y96.035 E34.46577
G1 X147.656 Y95.456 E34.48545
G1 X140.344 Y102.767 E34.83712
G1 X140.344 Y102.189 E34.8568
G1 X147.656 Y94.878 E35.20847
G1 X147.656 Y94.299 E35.22815
G1 X140.344 Y101.61 E35.57983
G1 X140.344 Y101.032 E35.5995
G1 X147.656 Y93.721 E35.95118
G1 X147.656 Y93.142 E35.97086
G1 X140.344 Y100.453 E36.32253
G1 X140.344 Y99.875 E36.34221
G1 X147.656 Y92.564 E36.69388
G1 X147.656 Y91.985 E36.71356
G1 X140.344 Y99.296 E37.06524
G1 X140.344 Y98.718 E37.08491
G1 X147.656 Y91.407 E37.43659
G1 X147.656 Y90.828 E37.45626
G1 X140.344 Y98.139 E37.80794
G1 X140.344 Y97.561 E37.82762
G1 X147.656 Y90.25 E38.17929
G1 X147.656 Y89.671 E38.19897
G1 X140.344 Y96.982 E38.55064
G1 X140.344 Y96.404 E38.57032
M73 P8 R22
G1 X147.656 Y89.093 E38.922
G1 X147.656 Y88.514 E38.94167
G1 X140.344 Y95.825 E39.29335
G1 X140.344 Y95.247 E39.31303
G1 X147.656 Y87.936 E39.6647
G1 X147.656 Y87.844 E39.66781
G1 X147.169 Y87.844 E39.68438
G1 X140.344 Y94.669 E40.01263
G1 X140.344 Y94.09 E40.0323
G1 X146.59 Y87.844 E40.33273
G1 X146.012 Y87.844 E40.3524
G1 X140.344 Y93.512 E40.625
G1 X140.344 Y92.933 E40.64467
G1 X145.433 Y87.844 E40.88944
G1 X144.855 Y87.844 E40.90912
G1 X140.344 Y92.355 E41.12606
G1 X140.344 Y91.776 E41.14574
G1 X144.276 Y87.844 E41.33486
G1 X143.698 Y87.844 E41.35453
G1 X140.344 Y91.198 E41.51582
G1 X140.344 Y90.619 E41.5355
G1 X143.119 Y87.844 E41.66896
G1 X142.541 Y87.844 E41.68864
G1 X140.344 Y90.041 E41.79428
G1 X140.344 Y89.462 E41.81395
G1 X141.962 Y87.844 E41.89177
G1 X141.384 Y87.844 E41.91144
