; generated by PrusaSlicer 2.5.0+win64 on 2023-03-20 at 18:10:58 UTC

; 

; external perimeters extrusion width = 0.45mm
; perimeters extrusion width = 0.45mm
; infill extrusion width = 0.45mm
; solid infill extrusion width = 0.45mm
; top infill extrusion width = 0.40mm
; first layer extrusion width = 0.42mm

M107
M190 S55 ; set bed temperature and wait for it to be reached
M104 S203 ; set temperature
;TYPE:Custom
;CUSTOM SLICING PROFILE FOR ANISOPRINT A4
T0 R ; switch extruder
G28 ; home all axes
G1 Z10 F900 ; lift nozzle

M106 P1 S255; max Fanspeed as workaround
M109 S203 ; set temperature and wait for it to be reached
G21 ; set units to millimeters
G90 ; use absolute coordinates
M82 ; use absolute distances for extrusion
G92 E0
; Filament gcode
M107
;LAYER_CHANGE
;Z:0.25
;HEIGHT:0.25
G1 Z.25 F7800
G1 E-6.5 F2400
G92 E0
G1 X129.564 Y95.153 F7800
G1 E6.5 F2400
;TYPE:Skirt/Brim
;WIDTH:0.42
G1 F1800
G1 X130.6 Y93.781 E6.56547
G1 X131.809 Y92.474 E6.63325
G1 X133.084 Y91.346 E6.69809
G1 X134.459 Y90.349 E6.76275
G1 X135.984 Y89.46 E6.82994
G1 X137.537 Y88.751 E6.89497
G1 X139.217 Y88.178 E6.96253
G1 X141.032 Y87.764 E7.03343
G1 X142.726 Y87.557 E7.09842
G1 X144.415 Y87.515 E7.16273
G1 X146.107 Y87.638 E7.22735
G1 X147.772 Y87.923 E7.29167
G1 X149.471 Y88.39 E7.35876
G1 X151.003 Y88.977 E7.42123
G1 X152.495 Y89.718 E7.48467
G1 X153.851 Y90.556 E7.54536
G1 X155.218 Y91.594 E7.61073
G1 X156.447 Y92.729 E7.67444
G1 X157.574 Y93.992 E7.73887
G1 X158.577 Y95.364 E7.80357
G1 X159.443 Y96.831 E7.86846
G1 X160.157 Y98.357 E7.93262
G1 X160.731 Y99.983 E7.99826
G1 X161.146 Y101.674 E8.06456
G1 X161.379 Y103.274 E8.12615
G1 X161.462 Y104.978 E8.19111
G1 X161.362 Y106.863 E8.26296
G1 X161.063 Y108.703 E8.33396
G1 X160.579 Y110.475 E8.40391
G1 X159.844 Y112.334 E8.48001
G1 X158.685 Y114.494 E8.57336
G1 X150.436 Y128.733 E9.19995
G1 X148.876 Y130.603 E9.29269
G1 X146.797 Y131.872 E9.38543
G1 X144.42 Y132.404 E9.47817
G1 X141.998 Y132.142 E9.57092
G1 X139.79 Y131.115 E9.66366
G1 X137.568 Y128.74 E9.7875
G1 X129.446 Y114.718 E10.40455
G1 X128.161 Y112.344 E10.50731
G1 X127.49 Y110.678 E10.5757
G1 X126.975 Y108.871 E10.64726
G1 X126.652 Y106.989 E10.71998
G1 X126.538 Y105.039 E10.79433
G1 X126.628 Y103.212 E10.864
G1 X126.881 Y101.537 E10.92849
G1 X127.316 Y99.828 E10.99563
G1 X127.861 Y98.314 E11.05693
G1 X128.615 Y96.72 E11.12406
G1 X129.533 Y95.204 E11.19154
G1 X129.852 Y95.403 F7800
G1 F1800
G1 X129.991 Y95.18 E11.20156
G1 X131.05 Y93.817 E11.26726
G1 X132.131 Y92.672 E11.32722
G1 X133.311 Y91.633 E11.38711
G1 X134.658 Y90.657 E11.45045
G1 X136.15 Y89.787 E11.51621
G1 X137.67 Y89.093 E11.57985
G1 X139.318 Y88.53 E11.64616
G1 X141.097 Y88.125 E11.71562
G1 X142.755 Y87.922 E11.77924
G1 X144.401 Y87.882 E11.84194
G1 X146.066 Y88.002 E11.90548
G1 X147.695 Y88.281 E11.96842
G1 X149.358 Y88.738 E12.03408
G1 X150.859 Y89.314 E12.0953
G1 X152.319 Y90.039 E12.15736
G1 X153.642 Y90.857 E12.21661
G1 X154.981 Y91.873 E12.28058
G1 X156.185 Y92.985 E12.34301
G1 X157.289 Y94.223 E12.40617
G1 X158.272 Y95.567 E12.46958
G1 X159.121 Y97.006 E12.53319
G1 X159.817 Y98.494 E12.59576
G1 X160.379 Y100.085 E12.66
G1 X160.786 Y101.743 E12.72499
G1 X161.014 Y103.309 E12.78526
G1 X161.096 Y104.975 E12.8488
G1 X160.997 Y106.824 E12.91928
G1 X160.706 Y108.623 E12.98869
G1 X160.231 Y110.361 E13.05727
G1 X159.512 Y112.179 E13.13172
G1 X158.367 Y114.313 E13.22393
G1 X150.12 Y128.547 E13.85033
G1 X148.592 Y130.364 E13.94076
G1 X146.549 Y131.576 E14.03118
G1 X144.221 Y132.046 E14.1216
G1 X141.869 Y131.722 E14.21203
G1 X139.755 Y130.64 E14.30245
G1 X137.884 Y128.554 E14.40915
G1 X129.763 Y114.535 E15.02603
G1 X128.494 Y112.192 E15.12751
G1 X127.777 Y110.386 E15.2015
G1 X127.272 Y108.517 E15.27523
G1 X126.981 Y106.607 E15.34879
G1 X126.905 Y104.798 E15.41772
G1 X126.992 Y103.252 E15.47669
G1 X127.269 Y101.468 E15.54544
G1 X127.722 Y99.759 E15.61276
G1 X128.294 Y98.228 E15.67498
G1 X129.045 Y96.697 E15.73991
G1 X129.82 Y95.454 E15.7957
G1 X130.13 Y95.648 F7800
G1 F1800
G1 X130.293 Y95.388 E15.80736
G1 X131.329 Y94.054 E15.87168
G1 X132.384 Y92.937 E15.93018
G1 X133.539 Y91.921 E15.98875
G1 X134.857 Y90.965 E16.05077
G1 X136.316 Y90.113 E16.11509
G1 X137.803 Y89.434 E16.17735
G1 X139.42 Y88.882 E16.2424
G1 X141.162 Y88.485 E16.31043
G1 X142.785 Y88.287 E16.37267
G1 X144.388 Y88.248 E16.43376
G1 X146.025 Y88.366 E16.49622
G1 X147.618 Y88.639 E16.55779
G1 X149.245 Y89.087 E16.62203
G1 X150.852 Y89.711 E16.68768
G1 X152.288 Y90.442 E16.74903
G1 X153.611 Y91.282 E16.80873
G1 X154.954 Y92.331 E16.87359
G1 X156.074 Y93.397 E16.93247
G1 X157.069 Y94.535 E16.99003
G1 X158.044 Y95.888 E17.05355
G1 X158.927 Y97.427 E17.12111
G1 X159.55 Y98.811 E17.17888
G1 X160.104 Y100.45 E17.24475
G1 X160.456 Y101.971 E17.30422
G1 X160.674 Y103.626 E17.36778
G1 X160.728 Y105.254 E17.42982
G1 X160.601 Y107.057 E17.49863
G1 X160.302 Y108.748 E17.56403
G1 X159.849 Y110.348 E17.62733
G1 X159.142 Y112.106 E17.6995
G1 X158.031 Y114.16 E17.78841
G1 X149.804 Y128.361 E18.41334
G1 X148.308 Y130.124 E18.50138
G1 X146.303 Y131.276 E18.58942
G1 X144.027 Y131.683 E18.67746
G1 X141.748 Y131.295 E18.76551
G1 X139.734 Y130.159 E18.85355
G1 X138.199 Y128.368 E18.94335
G1 X130.081 Y114.353 E19.56007
G1 X128.827 Y112.04 E19.66027
G1 X128.124 Y110.268 E19.73283
G1 X127.63 Y108.438 E19.80502
G1 X127.345 Y106.57 E19.87696
G1 X127.271 Y104.8 E19.94445
G1 X127.356 Y103.292 E20.00194
G1 X127.627 Y101.545 E20.06927
G1 X128.07 Y99.874 E20.13509
G1 X128.632 Y98.371 E20.1962
G1 X129.366 Y96.872 E20.25973
G1 X130.099 Y95.699 E20.31242
G1 X130.409 Y95.892 F7800
G1 F1800
G1 X130.594 Y95.596 E20.32572
G1 X131.609 Y94.291 E20.38865
G1 X132.637 Y93.202 E20.4457
G1 X133.766 Y92.208 E20.50295
G1 X135.056 Y91.272 E20.56364
G1 X136.482 Y90.44 E20.62652
G1 X137.936 Y89.775 E20.68741
G1 X139.522 Y89.234 E20.7512
G1 X141.227 Y88.846 E20.8178
G1 X142.814 Y88.652 E20.87867
G1 X144.375 Y88.614 E20.93814
G1 X145.983 Y88.73 E20.99953
G1 X147.541 Y88.997 E21.05971
G1 X149.132 Y89.435 E21.12253
G1 X150.571 Y89.988 E21.18124
G1 X151.966 Y90.681 E21.24053
G1 X153.403 Y91.583 E21.30515
G1 X154.716 Y92.61 E21.36862
G1 X155.809 Y93.649 E21.42605
G1 X156.781 Y94.761 E21.4823
G1 X157.735 Y96.086 E21.54445
G1 X158.598 Y97.589 E21.61044
G1 X159.21 Y98.948 E21.6672
G1 X159.752 Y100.552 E21.73166
G1 X160.096 Y102.035 E21.78964
G1 X160.309 Y103.653 E21.85178
G1 X160.361 Y105.252 E21.91269
G1 X160.238 Y107.014 E21.97996
G1 X159.923 Y108.761 E22.04756
G1 X159.411 Y110.491 E22.11624
G1 X158.81 Y111.951 E22.17639
G1 X157.714 Y113.977 E22.26408
G1 X149.489 Y128.176 E22.8889
G1 X148.025 Y129.882 E22.9745
G1 X146.06 Y130.974 E23.06009
G1 X143.838 Y131.314 E23.14569
G1 X141.636 Y130.861 E23.23128
G1 X139.729 Y129.671 E23.31688
G1 X138.515 Y128.182 E23.39005
G1 X130.399 Y114.171 E24.00661
G1 X129.161 Y111.887 E24.10552
G1 X128.471 Y110.151 E24.17666
G1 X127.988 Y108.36 E24.24731
G1 X127.71 Y106.534 E24.31764
G1 X127.638 Y104.801 E24.38367
G1 X127.72 Y103.332 E24.4397
G1 X127.986 Y101.622 E24.50559
G1 X128.417 Y99.989 E24.56992
G1 X128.97 Y98.513 E24.62992
G1 X129.688 Y97.048 E24.69205
G1 X130.377 Y95.943 E24.74163
G1 E18.24163 F2400
G92 E0
G1 X144 Y123.069 F7800
G1 E6.5 F2400
;TYPE:Perimeter
;WIDTH:0.419999
G1 F1800
G1 X136.751 Y110.555 E7.05068
G1 X135.971 Y109.171 E7.11117
G1 X135.728 Y108.662 E7.13266
G1 X135.521 Y108.158 E7.1534
G1 X135.303 Y107.507 E7.17956
G1 X135.143 Y106.807 E7.20688
G1 X135.033 Y106.215 E7.22981
G1 X134.971 Y105.571 E7.25446
G1 X134.949 Y105.053 E7.27421
G1 X134.961 Y104.523 E7.29439
G1 X135.013 Y103.888 E7.31864
G1 X135.1 Y103.383 E7.33815
G1 X135.296 Y102.518 E7.37191
G1 X135.465 Y101.971 E7.39371
G1 X135.697 Y101.371 E7.41822
G1 X136.107 Y100.544 E7.45336
G1 X136.459 Y99.973 E7.47893
G1 X136.761 Y99.545 E7.49886
G1 X137.171 Y99.033 E7.52384
G1 X137.695 Y98.48 E7.55284
G1 X138.304 Y97.939 E7.58388
G1 X139.029 Y97.408 E7.61809
G1 X139.807 Y96.95 E7.65245
G1 X140.603 Y96.581 E7.68586
G1 X141.44 Y96.289 E7.7196
G1 X142.276 Y96.085 E7.75237
G1 X143.168 Y95.957 E7.7867
G1 X144.144 Y95.92 E7.82388
G1 X144.706 Y95.952 E7.84533
G1 X145.345 Y96.019 E7.86979
G1 X146.668 Y96.322 E7.92147
G1 X147.21 Y96.516 E7.94339
G1 X147.885 Y96.796 E7.97123
G1 X148.49 Y97.122 E7.99739
G1 X149.061 Y97.468 E8.02279
G1 X149.772 Y98.001 E8.05662
G1 X150.437 Y98.611 E8.091
G1 X151.05 Y99.297 E8.12602
G1 X151.422 Y99.798 E8.14978
G1 X151.72 Y100.254 E8.17053
G1 X152.04 Y100.816 E8.19516
G1 X152.361 Y101.508 E8.22419
G1 X152.738 Y102.621 E8.26894
G1 X152.886 Y103.247 E8.29345
G1 X153.007 Y104.068 E8.32504
G1 X153.049 Y105.204 E8.36834
G1 X153.002 Y105.956 E8.39701
G1 X152.81 Y107.077 E8.44031
G1 X152.669 Y107.604 E8.4611
G1 X152.511 Y108.081 E8.48022
G1 X152.324 Y108.552 E8.49952
G1 X152.114 Y109.008 E8.51862
G1 X151.38 Y110.33 E8.5762
G1 X144.03 Y123.018 E9.13453
G1 X144 Y123.8 F7800
G1 F1800
G1 X136.421 Y110.715 E9.71033
G1 X135.85 Y109.715 E9.75419
G1 X135.527 Y109.11 E9.78028
G1 X135.292 Y108.586 E9.80215
G1 X135.105 Y108.095 E9.82217
G1 X134.949 Y107.603 E9.84181
G1 X134.786 Y106.889 E9.8697
G1 X134.671 Y106.266 E9.89383
G1 X134.603 Y105.571 E9.92042
G1 X134.582 Y105.056 E9.94004
G1 X134.595 Y104.507 E9.96097
G1 X134.649 Y103.839 E9.98649
G1 X134.809 Y102.915 E10.02217
G1 X135.118 Y101.852 E10.06434
G1 X135.363 Y101.221 E10.09011
G1 X135.785 Y100.369 E10.12631
G1 X136.155 Y99.769 E10.15314
G1 X136.467 Y99.326 E10.17379
G1 X136.897 Y98.79 E10.19994
G1 X137.44 Y98.216 E10.23002
G1 X138.074 Y97.653 E10.26232
G1 X138.828 Y97.102 E10.29788
G1 X139.637 Y96.625 E10.33362
G1 X140.466 Y96.242 E10.36841
G1 X141.335 Y95.937 E10.40349
G1 X142.206 Y95.725 E10.43762
G1 X143.135 Y95.592 E10.47336
G1 X144.147 Y95.553 E10.51193
G1 X144.727 Y95.586 E10.53404
G1 X145.409 Y95.658 E10.56015
G1 X146.771 Y95.97 E10.61336
G1 X147.572 Y96.256 E10.64573
G1 X148.047 Y96.467 E10.66552
G1 X148.664 Y96.8 E10.69223
G1 X149.27 Y97.166 E10.71919
G1 X150.006 Y97.719 E10.75423
G1 X150.698 Y98.353 E10.78999
G1 X151.332 Y99.063 E10.82623
G1 X151.724 Y99.59 E10.85122
G1 X152.032 Y100.062 E10.87268
G1 X152.367 Y100.651 E10.89848
G1 X152.7 Y101.369 E10.92861
G1 X153.091 Y102.524 E10.97504
G1 X153.246 Y103.181 E11.00077
G1 X153.372 Y104.031 E11.03349
G1 X153.415 Y105.212 E11.07848
G1 X153.366 Y106.001 E11.10859
G1 X153.168 Y107.155 E11.15317
G1 X153.02 Y107.709 E11.17502
G1 X152.855 Y108.206 E11.19493
G1 X152.661 Y108.696 E11.21501
G1 X152.441 Y109.174 E11.23503
G1 X151.699 Y110.511 E11.29326
G1 X144.03 Y123.748 E11.8758
G1 X144 Y124.531 F7800
;TYPE:External perimeter
G1 F1800
G1 X136.103 Y110.898 E12.47571
G1 X135.433 Y109.724 E12.52721
G1 X135.197 Y109.27 E12.54667
G1 X134.954 Y108.727 E12.56934
G1 X134.759 Y108.215 E12.59016
G1 X134.595 Y107.7 E12.61076
G1 X134.428 Y106.971 E12.63924
G1 X134.308 Y106.317 E12.66455
G1 X134.238 Y105.597 E12.69209
G1 X134.216 Y105.06 E12.71258
G1 X134.229 Y104.491 E12.73426
G1 X134.286 Y103.79 E12.76103
G1 X134.451 Y102.836 E12.79787
G1 X134.664 Y102.046 E12.82903
G1 X134.84 Y101.536 E12.84959
G1 X135.028 Y101.07 E12.86871
G1 X135.463 Y100.194 E12.90597
G1 X135.881 Y99.52 E12.93617
G1 X136.302 Y98.934 E12.96364
G1 X136.622 Y98.547 E12.98275
G1 X137.184 Y97.953 E13.01391
G1 X137.844 Y97.368 E13.04748
G1 X138.626 Y96.795 E13.08439
G1 X139.466 Y96.301 E13.12151
G1 X140.328 Y95.902 E13.15766
G1 X141.231 Y95.586 E13.1941
G1 X142.137 Y95.365 E13.22959
G1 X143.102 Y95.227 E13.26673
G1 X144.151 Y95.186 E13.30669
G1 X144.958 Y95.232 E13.33746
G1 X145.473 Y95.297 E13.35723
G1 X146.874 Y95.618 E13.41197
G1 X147.708 Y95.916 E13.44568
G1 X148.208 Y96.138 E13.46653
G1 X148.838 Y96.477 E13.49378
G1 X149.479 Y96.865 E13.5223
G1 X150.24 Y97.436 E13.55854
G1 X150.959 Y98.096 E13.59569
G1 X151.615 Y98.829 E13.63315
G1 X152.066 Y99.441 E13.66207
G1 X152.344 Y99.87 E13.68153
G1 X152.694 Y100.485 E13.70851
G1 X153.039 Y101.229 E13.73974
G1 X153.364 Y102.136 E13.77642
G1 X153.499 Y102.626 E13.79576
G1 X153.607 Y103.115 E13.81482
G1 X153.737 Y103.995 E13.84869
G1 X153.781 Y105.219 E13.89535
G1 X153.73 Y106.046 E13.92691
G1 X153.527 Y107.234 E13.97278
G1 X153.371 Y107.815 E13.99568
G1 X153.2 Y108.331 E14.01639
G1 X152.998 Y108.84 E14.03725
G1 X152.768 Y109.339 E14.05817
G1 X152.018 Y110.691 E14.11705
G1 X144.03 Y124.479 E14.7238
G1 X143.93 Y124.137 F7800
G1 E8.2238 F2400
G92 E0
G1 X152.077 Y101.158 F7800
G1 E6.5 F2400
;TYPE:Solid infill
;WIDTH:0.420186
G1 F1800
G1 X148.193 Y97.274 E6.70927
G1 X147.764 Y97.043 E6.72782
G1 X147.208 Y96.807 E6.75086
G1 X152.158 Y101.758 E7.0176
G1 X152.429 Y102.547 E7.04939
G1 X146.432 Y96.55 E7.37249
G1 X145.76 Y96.396 E7.39877
G1 X152.6 Y103.237 E7.76731
G1 X152.697 Y103.852 E7.79105
G1 X145.112 Y96.267 E8.19971
G1 X144.545 Y96.218 E8.22141
G1 X152.751 Y104.424 E8.66354
G1 X152.779 Y104.97 E8.68436
G1 X144.009 Y96.2 E9.15685
G1 X143.51 Y96.219 E9.17588
G1 X152.764 Y105.474 E9.67448
G1 X152.724 Y105.952 E9.69276
G1 X143.027 Y96.255 E10.21519
G1 X142.574 Y96.32 E10.23265
G1 X152.648 Y106.394 E10.77544
G1 X152.572 Y106.837 E10.79255
G1 X142.137 Y96.402 E11.35478
G1 X141.72 Y96.503 E11.37112
G1 X152.477 Y107.26 E11.95064
G1 X152.36 Y107.662 E11.96658
G1 X141.32 Y96.622 E12.56137
G1 X140.936 Y96.756 E12.57687
G1 X152.228 Y108.048 E13.18525
G1 X152.081 Y108.42 E13.20047
G1 X140.564 Y96.902 E13.82099
G1 X140.21 Y97.066 E13.83586
G1 X151.919 Y108.776 E14.46672
G1 X151.74 Y109.115 E14.48134
G1 X139.862 Y97.237 E15.12133
G1 X139.536 Y97.429 E15.13575
G1 X151.555 Y109.449 E15.78334
G1 X151.37 Y109.782 E15.79786
G1 X139.209 Y97.621 E16.45306
G1 X138.908 Y97.838 E16.46721
G1 X151.185 Y110.115 E17.12869
G1 X150.996 Y110.445 E17.14316
G1 X138.608 Y98.057 E17.81059
G1 X138.323 Y98.289 E17.82462
G1 X150.806 Y110.773 E18.49719
G1 X150.616 Y111.101 E18.51164
G1 X138.048 Y98.533 E19.18875
G1 X137.783 Y98.786 E19.20272
G1 X150.426 Y111.429 E19.88389
G1 X150.236 Y111.757 E19.89834
G1 X137.531 Y99.053 E20.58285
G1 X137.288 Y99.328 E20.59684
G1 X150.046 Y112.086 E21.28417
G1 X149.855 Y112.414 E21.29862
G1 X137.06 Y99.619 E21.98798
G1 X136.832 Y99.909 E22.00205
G1 X149.665 Y112.742 E22.69344
G1 X149.475 Y113.07 E22.70789
G1 X136.632 Y100.227 E23.39986
G1 X136.431 Y100.545 E23.41417
G1 X149.285 Y113.399 E24.10669
G1 X149.095 Y113.727 E24.12114
G1 X136.248 Y100.88 E24.81332
G1 X136.076 Y101.226 E24.82805
G1 X148.905 Y114.055 E25.51925
G1 X148.715 Y114.383 E25.5337
G1 X135.912 Y101.58 E26.22347
G1 X135.771 Y101.958 E26.23882
G1 X148.524 Y114.711 E26.92595
G1 X148.334 Y115.04 E26.9404
G1 X135.63 Y102.335 E27.62487
G1 X135.52 Y102.743 E27.64097
G1 X148.144 Y115.368 E28.32115
G1 X147.954 Y115.696 E28.3356
G1 X135.418 Y103.16 E29.01102
G1 X135.341 Y103.602 E29.0281
G1 X147.764 Y116.024 E29.6974
G1 X147.574 Y116.353 E29.71185
G1 X135.276 Y104.055 E30.3744
G1 X135.243 Y104.54 E30.39292
G1 X147.384 Y116.681 E31.04703
G1 X147.193 Y117.009 E31.06148
G1 X135.223 Y105.039 E31.70639
G1 X135.247 Y105.581 E31.72705
G1 X147.003 Y117.337 E32.36046
G1 X146.813 Y117.665 E32.37491
G1 X135.302 Y106.155 E32.99508
G1 X135.346 Y106.464 E33.00697
G1 X135.421 Y106.791 E33.01978
G1 X146.623 Y117.994 E33.62332
G1 X146.433 Y118.322 E33.63777
G1 X135.579 Y107.468 E34.22257
G1 X135.855 Y108.262 E34.25462
G1 X146.243 Y118.65 E34.81428
G1 X146.053 Y118.978 E34.82873
G1 X136.319 Y109.245 E35.35313
G1 X137.01 Y110.454 E35.40619
G1 X145.862 Y119.306 E35.88312
G1 X145.672 Y119.635 E35.89757
G1 X137.724 Y111.686 E36.3258
G1 X138.438 Y112.918 E36.38004
G1 X145.482 Y119.963 E36.75958
G1 X145.292 Y120.291 E36.77403
G1 X139.151 Y114.15 E37.10488
G1 X139.865 Y115.382 E37.15912
G1 X145.102 Y120.619 E37.44128
G1 X144.912 Y120.948 E37.45573
G1 X140.578 Y116.614 E37.68919
G1 X141.292 Y117.846 E37.74343
G1 X144.722 Y121.276 E37.92821
G1 X144.531 Y121.604 E37.94266
G1 X142.006 Y119.078 E38.07875
G1 X142.719 Y120.31 E38.13298
G1 X144.341 Y121.932 E38.22038
G1 X144.151 Y122.26 E38.23483
G1 X142.98 Y121.089 E38.29793
;LAYER_CHANGE
;Z:0.45
;HEIGHT:0.2
G1 Z.45 F7800
M104 S200 ; set temperature
G1 E31.79793 F2400
G92 E0
G1 X144 Y122.829 F7800
G1 E6.5 F2400
;TYPE:Perimeter
;WIDTH:0.449999
G1 F3600
