; generated by PrusaSlicer 2.6.1+win64 on 2023-11-27 at 13:15:08 UTC


;
;

;
;

;
;
;

; external perimeters extrusion width = 0.45mm
; perimeters extrusion width = 0.45mm
; infill extrusion width = 0.45mm
; solid infill extrusion width = 0.45mm
; top infill extrusion width = 0.42mm
; first layer extrusion width = 0.50mm

M73 P0 R12
M201 X4000 Y4000 Z400 E5000 ; sets maximum accelerations, mm/sec^2
M203 X400 Y400 Z12 E80 ; sets maximum feedrates, mm / sec
M204 P4000 R1250 T4000 ; sets acceleration (P, T) and retract acceleration (R), mm/sec^2
M205 X8.00 Y8.00 Z2.00 E10.00 ; sets the jerk limits, mm/sec
M205 S0 T0 ; sets the minimum extruding and travel feed rate, mm/sec
;TYPE:Custom
M862.3 P "MINI" ; printer model check
M862.1 P0.4 ; nozzle diameter check
M862.5 P2 ; g-code level check
M862.6 P"Input shaper" ; FW feature check
G90 ; use absolute coordinates
M83 ; extruder relative mode
M104 S170 ; set extruder temp for bed leveling
M140 S60 ; set bed temp
M109 R170 ; wait for bed leveling temp
M190 S60 ; wait for bed temp
M569 S1 X Y ; set stealthchop for X Y
M204 T1250 ; set travel acceleration
G28 ; home all without mesh bed level
G29 ; mesh bed leveling
M104 S230 ; set extruder temp
G92 E0
G1 Y-2 X179 F2400
G1 Z3 F720
M109 S230 ; wait for extruder temp

; intro line
G1 X170 F1000
G1 Z0.2 F720
G1 X110 E8 F900
G1 X40 E10 F700
G92 E0

M569 S0 X Y ; set spreadcycle for X Y
M204 T4000 ; restore travel acceleration
M572 W0.06 ; set smooth time
M221 S95 ; set flow
G21 ; set units to millimeters
G90 ; use absolute coordinates
M83 ; use relative distances for extrusion
M572 S0.3
M107
;LAYER_CHANGE
;Z:0.2
;HEIGHT:0.2
;BEFORE_LAYER_CHANGE
G92 E0.0
;0.2
M201 X4000 Y4000
M74 W0

M73 P1 R12
G1 E-2.5 F4200
M73 P2 R12
G1 Z.2 F720
;AFTER_LAYER_CHANGE
;0.2
; printing object iso_circumference - iso_circ id:0 copy 0
G1 Z.4
M204 T4000
G1 X72.003 Y103.076 F24000
G1 Z.2 F720
G1 E2.5 F2400
M204 P500
;TYPE:External perimeter
;WIDTH:0.5
G1 F1243
G1 X63.275 Y98.683 E.37137
G1 X67.754 Y90 E.37133
G1 X63.275 Y81.317 E.37133
G1 X72.003 Y76.924 E.37137
G1 X73.483 Y67.267 E.37131
G1 X83.126 Y68.843 E.37136
G1 X90.001 Y61.899 E.37138
G1 X92.779 Y64.692 E.14972
G1 X96.874 Y68.843 E.22161
G1 X106.517 Y67.267 E.37136
G1 X107.997 Y76.921 E.3712
G1 X116.725 Y81.317 E.37142
G1 X112.246 Y90 E.37133
G1 X116.725 Y98.683 E.37133
G1 X107.997 Y103.076 E.37137
G1 X106.517 Y112.733 E.37131
G1 X96.874 Y111.157 E.37136
M73 P3 R12
G1 X90 Y118.1 E.37133
G1 X83.126 Y111.157 E.37133
G1 X73.483 Y112.733 E.37136
G1 X72.012 Y103.135 E.36904
M204 P2000
; stop printing object iso_circumference - iso_circ id:0 copy 0
M106 S84.15
;LAYER_CHANGE
;Z:0.4
;HEIGHT:0.2
;BEFORE_LAYER_CHANGE
G92 E0.0
;0.4
M201 X3999.95 Y3999.95
M74 W0.022144

G1 E-2.5 F4200
G1 Z.4 F720
;AFTER_LAYER_CHANGE
;0.4
M104 S220 ; set temperature
; printing object iso_circumference - iso_circ id:0 copy 0
G1 X72.003 Y103.075 F24000
G1 E2.5 F2400
M204 P2500
;WIDTH:0.45
G1 F1212
G1 X63.144 Y98.726 E.33405
G1 X67.755 Y90 E.33407
G1 X63.144 Y81.274 E.33407
G1 X72.003 Y76.925 E.33405
G1 X73.402 Y67.155 E.33408
G1 X83.126 Y68.844 E.33407
G1 X90.002 Y61.766 E.33402
G1 X96.874 Y68.844 E.33393
G1 X106.598 Y67.155 E.33407
G1 X107.997 Y76.925 E.33408
G1 X116.856 Y81.274 E.33405
M73 P4 R12
G1 X112.245 Y90 E.33407
G1 X116.856 Y98.726 E.33407
G1 X107.997 Y103.075 E.33405
G1 X106.598 Y112.845 E.33408
G1 X96.874 Y111.156 E.33407
G1 X90 Y118.238 E.33407
G1 X83.126 Y111.156 E.33407
G1 X73.402 Y112.845 E.33407
G1 X72.012 Y103.135 E.33202
M204 P2000
; stop printing object iso_circumference - iso_circ id:0 copy 0
M106 S170.85
;LAYER_CHANGE
;Z:0.6
;HEIGHT:0.2
;BEFORE_LAYER_CHANGE
G92 E0.0
;0.6
M201 X3999.9 Y3999.9
M74 W0.0420648

G1 E-2.5 F4200
G1 Z.6 F720
;AFTER_LAYER_CHANGE
;0.6
; printing object iso_circumference - iso_circ id:0 copy 0
G1 X72.211 Y102.925 F24000
G1 E2.5 F2400
M204 P2500
G1 F1210
G1 X63.32 Y98.669 E.33365
G1 X68.011 Y90 E.33364
G1 X63.32 Y81.331 E.33364
G1 X72.211 Y77.075 E.33365
G1 X73.511 Y67.305 E.33362
G1 X83.205 Y69.088 E.33363
G1 X90.002 Y61.951 E.33361
M73 P5 R12
G1 X96.795 Y69.088 E.33351
G1 X106.489 Y67.305 E.33363
G1 X107.789 Y77.075 E.33362
G1 X116.68 Y81.331 E.33365
G1 X111.989 Y90 E.33364
G1 X116.68 Y98.669 E.33364
G1 X107.789 Y102.925 E.33365
G1 X106.489 Y112.695 E.33362
G1 X96.795 Y110.912 E.33363
G1 X90 Y118.052 E.33363
G1 X83.205 Y110.912 E.33363
G1 X73.511 Y112.695 E.33363
G1 X72.219 Y102.984 E.3316
M204 P2000
; stop printing object iso_circumference - iso_circ id:0 copy 0
M106 S255
;LAYER_CHANGE
;Z:0.8
;HEIGHT:0.2
;BEFORE_LAYER_CHANGE
G92 E0.0
;0.8
M201 X3999.86 Y3999.86
M74 W0.0619599

G1 E-2.5 F4200
G1 Z.8 F720
;AFTER_LAYER_CHANGE
;0.8
; printing object iso_circumference - iso_circ id:0 copy 0
G1 X72.418 Y102.774 F24000
G1 E2.5 F2400
M204 P2500
G1 F1209
G1 X63.497 Y98.611 E.33323
G1 X68.268 Y90 E.33322
M73 P6 R12
G1 X63.497 Y81.389 E.33322
G1 X72.418 Y77.226 E.33323
G1 X73.62 Y67.455 E.33323
G1 X83.284 Y69.332 E.33323
G1 X90.003 Y62.138 E.3332
G1 X96.716 Y69.332 E.33306
G1 X106.38 Y67.455 E.33323
G1 X107.582 Y77.226 E.33323
G1 X116.503 Y81.389 E.33323
G1 X111.732 Y90 E.33322
G1 X116.503 Y98.611 E.33322
G1 X107.582 Y102.774 E.33323
M73 P6 R11
G1 X106.38 Y112.545 E.33323
G1 X96.716 Y110.668 E.33323
G1 X90 Y117.867 E.33325
G1 X83.284 Y110.668 E.33325
M73 P7 R11
G1 X73.62 Y112.545 E.33323
G1 X72.426 Y102.833 E.33121
M204 P2000
; stop printing object iso_circumference - iso_circ id:0 copy 0
;LAYER_CHANGE
;Z:1
;HEIGHT:0.2
;BEFORE_LAYER_CHANGE
G92 E0.0
;1
M201 X3999.81 Y3999.81
M74 W0.0818308

G1 E-2.5 F4200
G1 Z1 F720
;AFTER_LAYER_CHANGE
;1
; printing object iso_circumference - iso_circ id:0 copy 0
G1 X72.626 Y102.623 F24000
G1 E2.5 F2400
M204 P2500
G1 F1207
G1 X63.673 Y98.554 E.33288
G1 X68.525 Y90 E.33288
G1 X63.673 Y81.446 E.33288
G1 X72.626 Y77.377 E.33288
G1 X73.729 Y67.605 E.33287
G1 X83.364 Y69.576 E.33289
G1 X90.004 Y62.325 E.3328
G1 X96.636 Y69.576 E.33262
G1 X106.271 Y67.605 E.33289
G1 X107.374 Y77.377 E.33287
G1 X116.327 Y81.446 E.33288
G1 X111.475 Y90 E.33288
G1 X116.327 Y98.554 E.33288
M73 P8 R11
G1 X107.374 Y102.623 E.33288
G1 X106.271 Y112.395 E.33287
G1 X96.636 Y110.424 E.33289
G1 X90 Y117.682 E.33288
G1 X83.364 Y110.424 E.33288
G1 X73.729 Y112.395 E.33289
G1 X72.633 Y102.683 E.33083
M204 P2000
; stop printing object iso_circumference - iso_circ id:0 copy 0
;LAYER_CHANGE
;Z:1.2
;HEIGHT:0.2
;BEFORE_LAYER_CHANGE
G92 E0.0
;1.2
M201 X3999.77 Y3999.77
M74 W0.10168

G1 E-2.5 F4200
G1 Z1.2 F720
;AFTER_LAYER_CHANGE
;1.2
; printing object iso_circumference - iso_circ id:0 copy 0
G1 X72.834 Y102.472 F24000
G1 E2.5 F2400
M204 P2500
G1 F1206
G1 X63.85 Y98.497 E.33253
G1 X68.781 Y90 E.33254
G1 X63.85 Y81.503 E.33254
G1 X72.834 Y77.528 E.33253
G1 X73.838 Y67.755 E.33255
G1 X83.443 Y69.82 E.33255
G1 X89.998 Y62.504 E.3325
G1 X96.557 Y69.82 E.33259
M73 P9 R11
G1 X106.162 Y67.755 E.33255
G1 X107.166 Y77.528 E.33255
G1 X116.15 Y81.503 E.33253
G1 X111.219 Y90 E.33254
G1 X116.15 Y98.497 E.33254
G1 X107.166 Y102.472 E.33253
G1 X106.162 Y112.245 E.33255
G1 X96.557 Y110.18 E.33255
G1 X90 Y117.496 E.33254
G1 X83.443 Y110.18 E.33254
G1 X73.838 Y112.245 E.33255
G1 X72.84 Y102.532 E.3305
M204 P2000
; stop printing object iso_circumference - iso_circ id:0 copy 0
;LAYER_CHANGE
;Z:1.4
;HEIGHT:0.2
;BEFORE_LAYER_CHANGE
G92 E0.0
;1.4
M201 X3999.72 Y3999.72
M74 W0.121511

G1 E-2.5 F4200
G1 Z1.4 F720
;AFTER_LAYER_CHANGE
;1.4
; printing object iso_circumference - iso_circ id:0 copy 0
G1 X73.041 Y102.321 F24000
G1 E2.5 F2400
M204 P2500
G1 F1205
G1 X64.026 Y98.439 E.33224
G1 X69.038 Y90 E.33223
G1 X64.026 Y81.561 E.33223
G1 X73.041 Y77.679 E.33224
M73 P10 R11
G1 X73.947 Y67.905 E.33226
G1 X83.522 Y70.064 E.33224
G1 X89.997 Y62.689 E.3322
G1 X96.478 Y70.064 E.33233
G1 X106.053 Y67.905 E.33224
G1 X106.959 Y77.679 E.33226
G1 X115.974 Y81.561 E.33224
G1 X110.962 Y90 E.33223
G1 X115.974 Y98.439 E.33223
G1 X106.959 Y102.321 E.33224
G1 X106.053 Y112.095 E.33226
G1 X96.478 Y109.936 E.33224
G1 X90 Y117.31 E.33224
G1 X83.522 Y109.936 E.33224
G1 X73.947 Y112.095 E.33224
M73 P11 R11
G1 X73.047 Y102.381 E.33022
M204 P2000
; stop printing object iso_circumference - iso_circ id:0 copy 0
;LAYER_CHANGE
;Z:1.6
;HEIGHT:0.2
;BEFORE_LAYER_CHANGE
G92 E0.0
;1.6
M201 X3999.67 Y3999.67
M74 W0.141323

G1 E-2.5 F4200
G1 Z1.6 F720
;AFTER_LAYER_CHANGE
;1.6
; printing object iso_circumference - iso_circ id:0 copy 0
G1 X73.249 Y102.17 F24000
G1 E2.5 F2400
M204 P2500
G1 F1204
G1 X64.203 Y98.382 E.33196
G1 X69.295 Y90 E.33197
G1 X64.203 Y81.618 E.33197
G1 X73.249 Y77.83 E.33196
G1 X74.057 Y68.056 E.33197
G1 X83.602 Y70.308 E.33196
G1 X89.997 Y62.876 E.33187
G1 X96.398 Y70.308 E.33201
G1 X105.943 Y68.056 E.33196
G1 X106.751 Y77.83 E.33197
G1 X115.797 Y81.618 E.33196
G1 X110.705 Y90 E.33197
G1 X115.797 Y98.382 E.33197
G1 X106.751 Y102.17 E.33196
G1 X105.943 Y111.944 E.33197
M73 P12 R11
G1 X96.398 Y109.692 E.33196
G1 X90 Y117.125 E.33197
G1 X83.602 Y109.692 E.33197
G1 X74.057 Y111.944 E.33196
G1 X73.254 Y102.23 E.32993
M204 P2000
; stop printing object iso_circumference - iso_circ id:0 copy 0
;LAYER_CHANGE
;Z:1.8
;HEIGHT:0.2
;BEFORE_LAYER_CHANGE
G92 E0.0
;1.8
M201 X3999.63 Y3999.63
M74 W0.161119

G1 E-2.5 F4200
G1 Z1.8 F720
;AFTER_LAYER_CHANGE
;1.8
; printing object iso_circumference - iso_circ id:0 copy 0
G1 X73.457 Y102.019 F24000
G1 E2.5 F2400
M204 P2500
G1 F1203
G1 X64.38 Y98.324 E.33173
G1 X69.552 Y90 E.33172
G1 X64.38 Y81.676 E.33172
G1 X73.457 Y77.981 E.33173
G1 X74.166 Y68.206 E.33174
G1 X83.681 Y70.552 E.33172
G1 X89.998 Y63.063 E.33163
G1 X96.319 Y70.552 E.33172
G1 X105.834 Y68.206 E.33172
G1 X106.543 Y77.981 E.33174
M73 P13 R11
G1 X115.62 Y81.676 E.33173
G1 X110.448 Y90 E.33172
G1 X115.62 Y98.324 E.33172
G1 X106.543 Y102.019 E.33173
G1 X105.834 Y111.794 E.33174
G1 X96.319 Y109.448 E.33172
G1 X90 Y116.939 E.33173
G1 X83.681 Y109.448 E.33173
G1 X74.166 Y111.794 E.33172
G1 X73.461 Y102.079 E.32971
M204 P2000
; stop printing object iso_circumference - iso_circ id:0 copy 0
;LAYER_CHANGE
;Z:2
;HEIGHT:0.2
;BEFORE_LAYER_CHANGE
G92 E0.0
;2
M201 X3999.58 Y3999.58
M74 W0.180901

G1 E-2.5 F4200
G1 Z2 F720
;AFTER_LAYER_CHANGE
;2
; printing object iso_circumference - iso_circ id:0 copy 0
G1 X73.665 Y101.868 F24000
G1 E2.5 F2400
M204 P2500
G1 F1203
G1 X64.557 Y98.267 E.33152
G1 X69.808 Y90 E.3315
G1 X64.557 Y81.733 E.3315
G1 X73.665 Y78.132 E.33152
G1 X74.275 Y68.357 E.33152
M73 P14 R11
G1 X83.76 Y70.797 E.33151
G1 X89.998 Y63.25 E.33142
G1 X96.24 Y70.797 E.33151
G1 X105.725 Y68.357 E.33151
G1 X106.335 Y78.132 E.33152
G1 X115.443 Y81.733 E.33152
G1 X110.192 Y90 E.3315
G1 X115.443 Y98.267 E.3315
G1 X106.335 Y101.868 E.33152
M73 P14 R10
G1 X105.725 Y111.643 E.33152
G1 X96.24 Y109.203 E.33151
G1 X90 Y116.753 E.33155
G1 X83.76 Y109.203 E.33155
G1 X74.275 Y111.643 E.33151
G1 X73.668 Y101.928 E.32948
M204 P2000
; stop printing object iso_circumference - iso_circ id:0 copy 0
;LAYER_CHANGE
;Z:2.2
;HEIGHT:0.2
;BEFORE_LAYER_CHANGE
G92 E0.0
;2.2
M201 X3999.54 Y3999.54
M74 W0.20067

G1 E-2.5 F4200
M73 P15 R10
G1 Z2.2 F720
;AFTER_LAYER_CHANGE
;2.2
; printing object iso_circumference - iso_circ id:0 copy 0
G1 X73.873 Y101.717 F24000
G1 E2.5 F2400
M204 P2500
G1 F1202
G1 X64.734 Y98.209 E.33135
G1 X70.065 Y90 E.33132
G1 X64.734 Y81.791 E.33132
G1 X73.873 Y78.283 E.33135
G1 X74.385 Y68.507 E.33136
G1 X83.84 Y71.041 E.33134
G1 X89.998 Y63.435 E.33126
G1 X96.16 Y71.041 E.33134
G1 X105.615 Y68.507 E.33134
G1 X106.127 Y78.283 E.33136
G1 X115.266 Y81.791 E.33135
G1 X109.935 Y90 E.33132
G1 X115.266 Y98.209 E.33132
G1 X106.127 Y101.717 E.33135
G1 X105.615 Y111.493 E.33136
G1 X96.16 Y108.959 E.33134
M73 P16 R10
G1 X90 Y116.566 E.33132
G1 X83.84 Y108.959 E.33132
G1 X74.385 Y111.493 E.33134
G1 X73.876 Y101.777 E.32933
M204 P2000
; stop printing object iso_circumference - iso_circ id:0 copy 0
;LAYER_CHANGE
;Z:2.4
;HEIGHT:0.2
;BEFORE_LAYER_CHANGE
G92 E0.0
;2.4
M201 X3999.49 Y3999.49
M74 W0.220428

G1 E-2.5 F4200
G1 Z2.4 F720
;AFTER_LAYER_CHANGE
;2.4
; printing object iso_circumference - iso_circ id:0 copy 0
G1 X74.081 Y101.566 F24000
G1 E2.5 F2400
M204 P2500
G1 F1201
G1 X64.911 Y98.152 E.33121
G1 X70.323 Y90 E.33121
G1 X64.911 Y81.848 E.33121
G1 X74.081 Y78.434 E.33121
G1 X74.494 Y68.658 E.3312
G1 X83.92 Y71.286 E.33123
G1 X89.997 Y63.621 E.3311
G1 X96.081 Y71.286 E.33125
G1 X105.506 Y68.658 E.33119
G1 X105.919 Y78.434 E.3312
G1 X115.089 Y81.848 E.33121
G1 X109.677 Y90 E.33121
M73 P17 R10
G1 X115.089 Y98.152 E.33121
G1 X105.919 Y101.566 E.33121
G1 X105.506 Y111.342 E.3312
G1 X96.081 Y108.714 E.33119
G1 X90 Y116.38 E.33121
G1 X83.919 Y108.714 E.33121
G1 X74.494 Y111.342 E.33119
G1 X74.083 Y101.626 E.32917
M204 P2000
; stop printing object iso_circumference - iso_circ id:0 copy 0
;LAYER_CHANGE
;Z:2.6
;HEIGHT:0.2
;BEFORE_LAYER_CHANGE
G92 E0.0
;2.6
M201 X3999.45 Y3999.45
M74 W0.240179

G1 E-2.5 F4200
G1 Z2.6 F720
;AFTER_LAYER_CHANGE
;2.6
; printing object iso_circumference - iso_circ id:0 copy 0
G1 X74.286 Y101.417 F24000
G1 E2.5 F2400
M204 P2500
G1 F1201
G1 X65.089 Y98.094 E.331
G1 X70.577 Y90 E.33101
G1 X65.089 Y81.906 E.33101
G1 X74.286 Y78.583 E.331
G1 X74.604 Y68.809 E.33101
G1 X83.998 Y71.527 E.33102
G1 X89.997 Y63.808 E.33091
M73 P18 R10
G1 X96.002 Y71.527 E.33103
G1 X105.396 Y68.809 E.33102
G1 X105.714 Y78.583 E.33101
G1 X114.911 Y81.906 E.331
G1 X109.423 Y90 E.33101
G1 X114.911 Y98.094 E.33101
G1 X105.714 Y101.417 E.331
G1 X105.396 Y111.191 E.33101
G1 X96.002 Y108.473 E.33102
G1 X90 Y116.193 E.331
G1 X83.998 Y108.473 E.331
G1 X74.604 Y111.191 E.33102
G1 X74.288 Y101.477 E.32898
M204 P2000
; stop printing object iso_circumference - iso_circ id:0 copy 0
;LAYER_CHANGE
;Z:2.8
;HEIGHT:0.2
;BEFORE_LAYER_CHANGE
G92 E0.0
;2.8
M201 X3999.4 Y3999.4
M74 W0.259917

G1 E-2.5 F4200
G1 Z2.8 F720
;AFTER_LAYER_CHANGE
;2.8
; printing object iso_circumference - iso_circ id:0 copy 0
G1 X74.492 Y101.268 F24000
G1 E2.5 F2400
M204 P2500
G1 F1200
G1 X65.266 Y98.037 E.33089
G1 X70.83 Y90 E.33087
M73 P19 R10
G1 X65.266 Y81.963 E.33087
G1 X74.492 Y78.732 E.33089
G1 X74.714 Y68.96 E.33086
G1 X84.076 Y71.769 E.33085
G1 X89.998 Y63.996 E.33077
G1 X95.924 Y71.769 E.33085
G1 X105.286 Y68.96 E.33085
G1 X105.508 Y78.732 E.33086
G1 X114.734 Y81.963 E.33089
G1 X109.17 Y90 E.33087
G1 X114.734 Y98.037 E.33087
G1 X105.508 Y101.268 E.33089
G1 X105.286 Y111.04 E.33086
G1 X95.924 Y108.231 E.33085
G1 X90 Y116.007 E.33089
G1 X84.076 Y108.231 E.33089
M73 P20 R10
G1 X74.714 Y111.04 E.33085
G1 X74.493 Y101.328 E.32882
M204 P2000
; stop printing object iso_circumference - iso_circ id:0 copy 0
;LAYER_CHANGE
;Z:3
;HEIGHT:0.2
;BEFORE_LAYER_CHANGE
G92 E0.0
;3
M201 X3999.36 Y3999.36
M74 W0.279648

G1 E-2.5 F4200
G1 Z3 F720
;AFTER_LAYER_CHANGE
;3
; printing object iso_circumference - iso_circ id:0 copy 0
G1 X74.697 Y101.118 F24000
G1 E2.5 F2400
M204 P2500
G1 F1200
G1 X65.444 Y97.979 E.33073
G1 X71.084 Y90 E.33074
G1 X65.444 Y82.021 E.33074
G1 X74.697 Y78.882 E.33073
G1 X74.823 Y69.111 E.33076
G1 X84.155 Y72.01 E.33077
G1 X89.998 Y64.182 E.33064
G1 X95.845 Y72.01 E.33072
G1 X105.177 Y69.111 E.33077
G1 X105.303 Y78.882 E.33076
G1 X114.556 Y82.021 E.33073
G1 X108.916 Y90 E.33074
G1 X114.556 Y97.979 E.33074
M73 P21 R10
G1 X105.303 Y101.118 E.33073
G1 X105.177 Y110.889 E.33076
G1 X95.845 Y107.99 E.33077
G1 X90 Y115.82 E.33074
G1 X84.155 Y107.99 E.33074
G1 X74.823 Y110.889 E.33077
G1 X74.698 Y101.178 E.32873
M204 P2000
; stop printing object iso_circumference - iso_circ id:0 copy 0
;LAYER_CHANGE
;Z:3.2
;HEIGHT:0.2
;BEFORE_LAYER_CHANGE
G92 E0.0
;3.2
M201 X3999.31 Y3999.31
M74 W0.299371

G1 E-2.5 F4200
G1 Z3.2 F720
;AFTER_LAYER_CHANGE
;3.2
; printing object iso_circumference - iso_circ id:0 copy 0
G1 X74.902 Y100.969 F24000
G1 E2.5 F2400
M204 P2500
G1 F1200
G1 X65.621 Y97.921 E.33066
G1 X71.338 Y90 E.33066
G1 X65.621 Y82.079 E.33066
G1 X74.902 Y79.031 E.33066
G1 X74.933 Y69.262 E.33067
G1 X84.233 Y72.252 E.33066
G1 X89.997 Y64.368 E.33058
G1 X95.767 Y72.252 E.3307
G1 X105.067 Y69.262 E.33066
M73 P22 R10
G1 X105.098 Y79.031 E.33067
G1 X114.379 Y82.079 E.33066
G1 X108.662 Y90 E.33066
G1 X114.379 Y97.921 E.33066
