; generated by PrusaSlicer 2.7.1+win64 on 2024-01-19 at 09:01:30 UTC

;

; external perimeters extrusion width = 0.45mm
; perimeters extrusion width = 0.45mm
; infill extrusion width = 0.45mm
; solid infill extrusion width = 0.45mm
; top infill extrusion width = 0.40mm
; first layer extrusion width = 0.42mm

M73 P0 R76
M201 X2500 Y2500 Z400 E5000 ; sets maximum accelerations, mm/sec^2
M203 X180 Y180 Z12 E80 ; sets maximum feedrates, mm / sec
M204 P2000 R1250 T2500 ; sets acceleration (P, T) and retract acceleration (R), mm/sec^2
M205 X8.00 Y8.00 Z2.00 E10.00 ; sets the jerk limits, mm/sec
M205 S0 T0 ; sets the minimum extruding and travel feed rate, mm/sec

M486 S0
M486 A3DBenchy.stl
M486 S-1

;TYPE:Custom
M862.3 P "MINI" ; printer model check
G90 ; use absolute coordinates
M83 ; extruder relative mode
M104 S170 ; set extruder temp for bed leveling
M140 S60 ; set bed temp
M109 R170 ; wait for bed leveling temp
M190 S60 ; wait for bed temp
M204 T1250 ; set travel acceleration
G28 ; home all without mesh bed level
G29 ; mesh bed leveling
M204 T2500 ; restore travel acceleration
M104 S215 ; set extruder temp
G92 E0
G1 Y-2 X179 F2400
G1 Z3 F720
M73 P0 R75
M109 S215 ; wait for extruder temp

; intro line
G1 X170 F1000
G1 Z0.2 F720
G1 X110 E8 F900
G1 X40 E10 F700
G92 E0

M221 S95 ; set flow
G21 ; set units to millimeters
G90 ; use absolute coordinates
M83 ; use relative distances for extrusion
M900 K0.2 ; Filament gcode LA 1.5
; ; Filament gcode LA 1.0

M107
;LAYER_CHANGE
;Z:0.2
;HEIGHT:0.2
;BEFORE_LAYER_CHANGE
G92 E0.0
;0.2


G1 E-3.2 F4200
G1 Z.2 F720
;AFTER_LAYER_CHANGE
;0.2
G1 X62.942 Y81.327 F9000
G1 Z.2 F720
G1 E3.2 F2400
M204 P600
;TYPE:Skirt/Brim
;WIDTH:0.42
G1 F1200
G3 X65.318 Y80.397 I2.772 J3.582 E.0811
G1 X90.086 Y78.859 E.77808
G1 X92.408 Y79.013 E.07296
G3 X105.9 Y88.109 I-2.488 J18.246 E.52844
G3 X105.792 Y92.086 I-3.788 J1.887 E.12986
G3 X89.755 Y101.14 I-15.802 J-9.26 E.60503
G1 X65.191 Y99.591 E.77172
G3 X61.189 Y95.276 I.526 J-4.502 E.20082
G1 X61.198 Y84.565 E.33584
G3 X62.895 Y81.364 I4.516 J.344 E.11687
M204 P1000
G1 X63.13 Y81.659 F9000
M204 P600
G1 F1200
G3 X65.354 Y80.773 I2.583 J3.249 E.07614
G1 X90.085 Y79.236 E.77692
G1 X92.358 Y79.387 E.07143
G3 X105.557 Y88.267 I-2.438 J17.873 E.51656
G3 X105.333 Y92.12 I-3.469 J1.732 E.12666
G3 X89.921 Y100.765 I-15.35 J-9.306 E.5793
G1 X65.227 Y99.215 E.77579
G3 X61.565 Y95.263 I.485 J-4.122 E.18384
G1 X61.574 Y84.599 E.33436
G3 X63.083 Y81.697 I4.139 J.309 E.10541
M204 P1000
M486 S0
G1 E-2.24 F4200
;WIPE_START
G1 F7200
G1 X63.13 Y81.659 E-.03349
G3 X64.61 Y80.906 I2.583 J3.249 E-.92651
;WIPE_END
G1 Z.4 F720
G1 X99.219 Y87.697 F9000
G1 Z.2 F720
G1 E3.2 F2400
M204 P600
;TYPE:Perimeter
;WIDTH:0.419999
G1 F1200
G1 X98.955 Y87.697 E.00828
G2 X97.399 Y87.793 I-.381 J6.5 E.049
G1 X96.938 Y88.039 E.01638
G1 X96.771 Y88.264 E.00879
G1 X96.456 Y87.914 E.01476
G1 X96.026 Y87.734 E.01462
G2 X95.146 Y88.002 I-.14 J1.12 E.02971
G1 X94.741 Y88.509 E.02035
G1 X94.538 Y89.044 E.01794
G2 X94.12 Y88.119 I-2.023 J.358 E.03216
G2 X92.934 Y87.719 I-1.025 J1.082 E.0405
G1 X92.488 Y87.874 E.0148
G1 X92.15 Y88.208 E.0149
G1 X91.933 Y87.975 E.00998
G1 X91.488 Y87.745 E.01571
G1 X91.081 Y87.72 E.01279
G1 X90.716 Y87.854 E.01219
G2 X90.174 Y88.419 I1.009 J1.512 E.02474
G1 X90.005 Y88.142 E.01017
G1 X89.605 Y87.822 E.01606
G1 X89.18 Y87.709 E.01379
G2 X88.37 Y87.947 I.028 J1.592 E.02679
G1 X88.07 Y88.252 E.01341
G1 X87.906 Y88.644 E.01332
G1 X87.902 Y89.096 E.01417
G2 X88.303 Y90.036 I2.952 J-.704 E.0322
G1 X88.708 Y90.754 E.02585
G2 X88.294 Y91.56 I4.329 J2.729 E.02845
G2 X87.948 Y91.051 I-1.814 J.86 E.01937
G2 X87.288 Y90.677 I-1.379 J1.664 E.02391
G1 X86.688 Y90.624 E.01889
G1 X86.316 Y90.721 E.01205
G2 X86.061 Y88.091 I-4.859 J-.855 E.08387
G2 X85.007 Y86.783 I-2.959 J1.306 E.05328
G2 X84.003 Y86.375 I-1.742 J2.842 E.03413
G1 X83.352 Y86.284 E.02061
G1 X81.745 Y86.247 E.0504
G2 X80.881 Y86.457 I.084 J2.228 E.02807
G1 X80.539 Y86.763 E.01439
G1 X80.346 Y87.174 E.01424
;WIDTH:0.461926
G1 X80.319 Y87.347 E.0061
;WIDTH:0.503853
G1 X80.293 Y87.52 E.0067
;WIDTH:0.54578
G1 X80.266 Y87.693 E.00732
G1 X80.15 Y87.478 E.01021
;WIDTH:0.503853
G1 X80.033 Y87.262 E.00942
;WIDTH:0.461926
G1 X79.917 Y87.047 E.00851
;WIDTH:0.419999
G1 X79.524 Y86.612 E.01838
G1 X78.948 Y86.282 E.02081
G1 X78.298 Y86.12 E.021
G1 X77.527 Y86.094 E.02419
G1 X76.799 Y86.213 E.02313
G1 X76.286 Y86.435 E.01753
G1 X75.76 Y86.861 E.02122
G2 X75.188 Y86.357 I-1.125 J.699 E.02425
G1 X74.714 Y86.258 E.01518
G1 X71.541 Y86.269 E.09949
G1 X70.829 Y86.23 E.02236
G1 X70.258 Y86.387 E.01857
G2 X69.744 Y87.009 I1.23 J1.539 E.02548
G2 X68.66 Y86.245 I-1.866 J1.497 E.04213
G2 X67.553 Y86.088 I-1.104 J3.807 E.03517
G1 X66.861 Y86.161 E.02182
G1 X66.211 Y86.372 E.02143
G1 X65.576 Y86.756 E.02327
G2 X64.907 Y87.512 I2.057 J2.496 E.03178
G1 X64.917 Y85.264 E.07049
G3 X65.07 Y84.587 I2.075 J.114 E.02186
G1 X65.305 Y84.316 E.01125
G3 X65.854 Y84.133 I.939 J1.893 E.0182
G1 X89.158 Y82.717 E.73203
G3 X100.5 Y87.321 I.873 J14.121 E.39691
;WIDTH:0.465559
G1 X100.556 Y87.42 E.004
;WIDTH:0.511119
G1 X100.612 Y87.518 E.00439
;WIDTH:0.556679
G1 X100.667 Y87.617 E.00484
;WIDTH:0.602239
G1 X100.723 Y87.715 E.00525
;WIDTH:0.647798
G1 X100.779 Y87.814 E.00572
G1 X100.708 Y87.803 E.00361
;WIDTH:0.605092
G1 X100.638 Y87.792 E.00331
;WIDTH:0.562386
G1 X100.568 Y87.781 E.00306
;WIDTH:0.519679
G1 X100.306 Y87.74 E.01051
;WIDTH:0.469839
G1 X100.044 Y87.699 E.00941
;WIDTH:0.419999
G1 X99.279 Y87.697 E.02399
M204 P1000
G1 E-2.24 F4200
;WIPE_START
G1 F7200
G1 X99.219 Y87.697 E-.03325
G1 X98.955 Y87.697 E-.1463
G2 X97.551 Y87.767 I-.381 J6.5 E-.78045
;WIPE_END
G1 Z.4 F720
G1 X99.952 Y91.363 F9000
G1 Z.2 F720
G1 E3.2 F2400
M204 P600
G1 F1200
G2 X100.989 Y89.909 I-24.342 J-18.475 E.056
G1 X101.2 Y89.41 E.01699
G1 X101.229 Y88.85 E.01758
;WIDTH:0.460156
G1 X101.22 Y88.74 E.00383
;WIDTH:0.500313
G1 X101.211 Y88.631 E.00416
;WIDTH:0.540469
G1 X101.202 Y88.521 E.00457
;WIDTH:0.580626
G1 X101.192 Y88.411 E.00494
;WIDTH:0.620782
G1 X101.183 Y88.302 E.00526
G1 X101.254 Y88.36 E.00441
;WIDTH:0.575816
G1 X101.325 Y88.418 E.00406
;WIDTH:0.530849
G1 X101.396 Y88.476 E.00372
;WIDTH:0.485882
G1 X101.466 Y88.535 E.00337
;WIDTH:0.440915
G1 X101.673 Y88.803 E.01121
;WIDTH:0.419999
G3 X102.279 Y89.794 I-9.332 J6.39 E.03644
G1 X102.316 Y90.087 E.00926
G1 X102.24 Y90.296 E.00697
G3 X101.098 Y92.054 I-31.759 J-19.377 E.06574
G2 X100.748 Y91.622 I-1.127 J.554 E.01758
G1 X100.376 Y91.426 E.01318
G1 X100.011 Y91.371 E.01157
M204 P1000
G1 E-2.24 F4200
;WIPE_START
G1 F7200
G1 X99.952 Y91.363 E-.033
G2 X100.926 Y90.003 I-24.346 J-18.469 E-.927
;WIPE_END
G1 Z.4 F720
G1 X79.741 Y89.474 F9000
G1 Z.2 F720
G1 E3.2 F2400
M204 P600
;WIDTH:0.503083
G1 F1200
G2 X80.159 Y88.905 I-1.123 J-1.262 E.02722
;WIDTH:0.533866
G1 X80.29 Y88.407 E.02102
G1 X80.305 Y88.921 E.02099
;WIDTH:0.503083
G1 X80.303 Y90.183 E.04829
G2 X79.79 Y89.509 I-1.382 J.518 E.03287
M204 P1000
G1 E-2.24 F4200
;WIPE_START
G1 F7200
G1 X79.741 Y89.474 E-.03337
G2 X80.159 Y88.905 I-1.122 J-1.263 E-.39417
;WIPE_END
G1 E-.53246 F4200
G1 Z.4 F720
G1 X69.313 Y89.084 F9000
G1 Z.2 F720
G1 E3.2 F2400
M204 P600
;WIDTH:0.419999
G1 F1200
G1 X69.636 Y88.898 E.01169
G1 X69.966 Y88.456 E.0173
G2 X70.481 Y88.761 I1.312 J-1.626 E.01883
G2 X71.495 Y88.762 I.509 J-2.491 E.03201
G3 X71.496 Y92.35 I-143.519 J1.822 E.1125
G1 X71.517 Y92.836 E.01525
G1 X71.689 Y93.211 E.01294
G2 X72.256 Y93.612 I1.224 J-1.129 E.02194
G2 X73.451 Y93.485 I.458 J-1.369 E.03886
G2 X73.936 Y92.843 I-.93 J-1.208 E.02553
G1 X74.029 Y92.361 E.01539
G1 X74.014 Y88.794 E.11184
G2 X74.804 Y88.751 I.016 J-6.989 E.02482
G1 X75.346 Y88.566 E.01796
G1 X75.642 Y88.302 E.01244
G2 X76.388 Y88.927 I1.24 J-.723 E.03113
G1 X76.349 Y88.97 E.00182
G1 X76.143 Y89.439 E.01606
G1 X76.116 Y89.968 E.01661
G1 X76.3 Y90.418 E.01524
G1 X76.57 Y90.682 E.01184
;WIDTH:0.454216
G1 X76.741 Y90.784 E.00681
;WIDTH:0.488432
G1 X76.913 Y90.886 E.00741
G1 X76.706 Y90.882 E.00767
;WIDTH:0.451996
G1 X76.111 Y91.029 E.02085
;WIDTH:0.419999
G1 X75.702 Y91.358 E.01646
G2 X75.47 Y91.783 I.971 J.805 E.01528
G2 X75.625 Y92.924 I1.552 J.369 E.03694
G1 X75.907 Y93.274 E.01409
G1 X76.32 Y93.549 E.01556
G1 X77.035 Y93.783 E.02359
G1 X77.915 Y93.839 E.02765
G1 X78.412 Y93.776 E.01571
G1 X79.172 Y93.501 E.02534
G1 X79.65 Y93.148 E.01863
G2 X80.329 Y92.128 I-2.387 J-2.324 E.03864
G1 X80.372 Y92.697 E.01789
G1 X80.536 Y93.114 E.01405
G1 X80.871 Y93.502 E.01607
G2 X81.56 Y93.702 I.744 J-1.271 E.02272
G3 X82.878 Y93.67 I.916 J10.529 E.04136
G2 X84.446 Y93.408 I.018 J-4.709 E.05008
G2 X85.163 Y92.88 I-1.036 J-2.157 E.02808
G1 X85.251 Y93.207 E.01062
G2 X85.714 Y93.786 I1.956 J-1.088 E.02335
G1 X86.257 Y94.072 E.01924
G2 X87.554 Y93.944 I.488 J-1.704 E.04185
G1 X87.972 Y93.622 E.01654
G1 X88.157 Y93.312 E.01132
G2 X88.632 Y93.738 I.882 J-.506 E.02035
G1 X88.96 Y93.825 E.01064
G1 X89.401 Y93.779 E.0139
G1 X89.758 Y93.573 E.01292
G1 X90.109 Y93.076 E.01908
G1 X90.351 Y93.476 E.01466
G2 X91.326 Y93.873 I.898 J-.811 E.03415
;WIDTH:0.439297
G1 X91.802 Y93.767 E.01607
;WIDTH:0.483411
G1 X92.028 Y93.614 E.01
;WIDTH:0.527524
G1 X92.254 Y93.462 E.01097
;WIDTH:0.547458
G1 X92.44 Y93.181 E.01414
;WIDTH:0.575176
G1 X92.506 Y92.946 E.0108
;WIDTH:0.602893
G2 X92.536 Y92.513 I-.55 J-.255 E.02067
;WIDTH:0.564571
G1 X92.501 Y92.315 E.00872
;WIDTH:0.526397
G2 X92.11 Y91.519 I-2.366 J.667 E.03585
;WIDTH:0.490931
G1 X91.906 Y91.212 E.01373
;WIDTH:0.455465
G1 X91.701 Y90.905 E.01266
;WIDTH:0.419999
G1 X91.591 Y90.721 E.00672
G1 X92.116 Y89.776 E.0339
G1 X92.408 Y90.564 E.02635
;WIDTH:0.455465
G1 X92.521 Y90.915 E.01265
;WIDTH:0.490931
G1 X92.635 Y91.266 E.01375
;WIDTH:0.526397
G1 X92.957 Y92.161 E.03824
;WIDTH:0.564571
G1 X93.055 Y92.438 E.01274
;WIDTH:0.602893
G1 X93.153 Y92.715 E.01368
G1 X92.96 Y93.239 E.026
;WIDTH:0.564939
G1 X92.742 Y93.709 E.02249
G1 X92.589 Y93.786 E.00743
;WIDTH:0.528487
G1 X92.436 Y93.863 E.00692
;WIDTH:0.492035
G1 X92.282 Y93.939 E.00641
;WIDTH:0.455583
G1 X91.92 Y94.163 E.01461
;WIDTH:0.435038
G1 X91.679 Y94.409 E.01123
;WIDTH:0.419999
G1 X91.529 Y94.755 E.01182
G1 X91.526 Y95.3 E.01709
G1 X91.693 Y95.743 E.01484
G1 X92.013 Y96.124 E.0156
G1 X92.247 Y96.269 E.00863
;WIDTH:0.459882
G1 X92.444 Y96.333 E.00718
;WIDTH:0.499765
G1 X92.642 Y96.398 E.00792
;WIDTH:0.539648
G1 X92.84 Y96.463 E.00861
G1 X93.437 Y96.361 E.02502
;WIDTH:0.549233
G1 X94.036 Y96.14 E.02688
G1 X94.103 Y96.076 E.0039
;WIDTH:0.505939
G1 X94.17 Y96.012 E.00357
;WIDTH:0.462645
G1 X94.554 Y95.645 E.01854
;WIDTH:0.419999
G1 X94.894 Y95.139 E.01911
G2 X95.562 Y93.524 I-27.235 J-12.2 E.05481
G2 X96.854 Y89.78 I-65.609 J-24.738 E.1242
G2 X97.274 Y90.063 I.851 J-.81 E.016
G1 X97.795 Y90.154 E.01658
G1 X97.378 Y90.637 E.02001
;WIDTH:0.459463
G1 X96.77 Y91.436 E.03478
G1 X96.515 Y91.974 E.02062
;WIDTH:0.421805
G1 X96.453 Y92.183 E.00687
G1 X96.436 Y92.793 E.01923
;WIDTH:0.419999
G1 X96.619 Y93.292 E.01666
G1 X96.943 Y93.662 E.01542
G2 X97.589 Y93.882 I.937 J-1.693 E.02151
G1 X99.365 Y93.832 E.05571
G3 X95.563 Y96.19 I-10.283 J-12.336 E.14073
G1 X94.998 Y96.417 E.01909
;WIDTH:0.44676
G1 X94.721 Y96.5 E.00971
;WIDTH:0.473521
G1 X94.444 Y96.583 E.01035
;WIDTH:0.506184
G1 X94.199 Y96.641 E.0097
;WIDTH:0.538847
G1 X93.195 Y96.902 E.04278
;WIDTH:0.526253
G1 X92.871 Y96.993 E.01353
;WIDTH:0.476444
G1 X92.548 Y97.085 E.01211
;WIDTH:0.426634
G1 X91.99 Y97.178 E.01805
;WIDTH:0.419999
G3 X89.183 Y97.285 I-1.954 J-14.511 E.08821
G1 X66.234 Y95.89 E.72088
G3 X65.436 Y95.742 I-.014 J-2.149 E.0256
G1 X65.179 Y95.564 E.0098
G3 X64.918 Y94.922 I1.339 J-.918 E.0219
G1 X64.912 Y92.434 E.07801
G1 X65.188 Y92.808 E.01457
G1 X65.762 Y93.307 E.02385
G1 X66.546 Y93.687 E.02732
G1 X67.207 Y93.821 E.02115
G2 X68.474 Y93.74 I.325 J-4.907 E.03992
G2 X70.098 Y92.304 I-.526 J-2.231 E.0708
G1 X70.153 Y92.082 E.00717
G2 X69.991 Y91.416 I-1.588 J.035 E.02166
G2 X69.641 Y91.032 I-1.323 J.852 E.01637
G1 X69.187 Y90.807 E.01589
G2 X68.341 Y90.834 I-.369 J1.718 E.0268
G2 X67.809 Y91.222 I.582 J1.359 E.02082
G3 X67.086 Y91.059 I-.234 J-.647 E.02454
G3 X66.881 Y90.288 I1.71 J-.867 E.0252
G3 X66.937 Y89.201 I4.485 J-.313 E.03421
G1 X67.083 Y88.874 E.01123
G1 X67.339 Y88.694 E.00981
G1 X67.603 Y88.68 E.00829
G2 X68.573 Y89.146 I2.238 J-3.419 E.03384
G2 X69.245 Y89.123 I.287 J-1.493 E.02126
G1 X69.261 Y89.114 E.00058
M204 P1000
G1 X69.151 Y88.758 F9000
M204 P600
;TYPE:External perimeter
G1 F1200
G3 X68.417 Y88.7 I-.269 J-1.255 E.02341
G1 X67.715 Y88.311 E.02516
G1 X67.423 Y88.287 E.00919
G2 X66.881 Y88.529 I.471 J1.78 E.01869
G1 X66.646 Y88.871 E.01301
G1 X66.535 Y89.296 E.01377
G2 X66.537 Y90.702 I4.681 J.695 E.04425
G1 X66.713 Y91.19 E.01627
G1 X66.941 Y91.442 E.01066
G1 X67.249 Y91.605 E.01093
G1 X67.689 Y91.636 E.01383
G2 X68.098 Y91.463 I-.026 J-.636 E.01422
G1 X68.384 Y91.223 E.01171
G3 X69.094 Y91.176 I.43 J1.102 E.02266
G1 X69.513 Y91.41 E.01505
G1 X69.726 Y91.728 E.012
G1 X69.772 Y92.1 E.01175
G1 X69.545 Y92.587 E.01685
G3 X68.024 Y93.44 I-1.693 J-1.237 E.05639
G1 X67.206 Y93.444 E.02565
G1 X66.629 Y93.319 E.01851
G1 X65.934 Y92.971 E.02437
G3 X65.135 Y92.092 I1.933 J-2.56 E.03746
;WIDTH:0.446654
G1 X64.918 Y91.589 E.01839
G1 X64.82 Y90.881 E.02399
;WIDTH:0.423163
G1 X64.785 Y90.039 E.02664
;WIDTH:0.420571
G1 X64.814 Y89.123 E.02878
;WIDTH:0.437916
G3 X65.062 Y88 I3.07 J.089 E.038
;WIDTH:0.419999
G1 X65.377 Y87.479 E.01909
G1 X65.838 Y87.028 E.02022
G1 X66.399 Y86.699 E.02039
G3 X68.1 Y86.497 I1.248 J3.249 E.05427
G3 X69.163 Y86.938 I-.349 J2.345 E.03645
;WIDTH:0.420942
G1 X69.554 Y87.358 E.01804
;WIDTH:0.429701
G1 X69.692 Y87.774 E.0141
G1 X69.683 Y88.173 E.01284
;WIDTH:0.419999
G1 X69.401 Y88.603 E.01612
G1 X69.202 Y88.726 E.00734
M204 P1000
G1 X70.289 Y88.224 F9000
M204 P600
;WIDTH:0.422013
G1 F1200
G1 X70.147 Y88.034 E.00748
;WIDTH:0.436972
G1 X70.026 Y87.486 E.01839
G1 X70.1 Y87.114 E.01243
;WIDTH:0.419999
G1 X70.392 Y86.752 E.01458
G1 X70.819 Y86.612 E.01409
G1 X71.542 Y86.646 E.02269
G1 X74.716 Y86.635 E.09952
G1 X75.021 Y86.695 E.00975
G3 X75.439 Y87.065 I-.323 J.786 E.01783
;WIDTH:0.425504
G1 X75.489 Y87.232 E.00555
;WIDTH:0.445506
G1 X75.465 Y87.831 E.02007
G1 X75.34 Y88.078 E.00927
;WIDTH:0.419999
G1 X75.128 Y88.252 E.0086
G1 X74.639 Y88.401 E.01603
G1 X73.649 Y88.412 E.03104
G1 X73.652 Y92.363 E.12388
G1 X73.591 Y92.692 E.01049
G3 X73.018 Y93.277 I-.884 J-.291 E.02659
G3 X72.269 Y93.212 I-.27 J-1.233 E.02394
G1 X71.985 Y92.97 E.0117
G1 X71.862 Y92.64 E.01104
G2 X71.873 Y89.147 I-67.63 J-1.949 E.10953
G1 X71.904 Y88.639 E.01596
G1 X71.864 Y88.457 E.00584
G1 X71.646 Y88.383 E.00722
G1 X71.126 Y88.425 E.01636
G3 X70.337 Y88.26 I-.202 J-1.003 E.02598
M204 P1000
G1 E-2.24 F4200
;WIPE_START
G1 F7200
G1 X70.289 Y88.224 E-.03325
G1 X70.147 Y88.034 E-.13145
;WIPE_END
G1 E-.7953 F4200
G1 Z.4 F720
G1 X76.457 Y88.562 F9000
G1 Z.2 F720
G1 E3.2 F2400
M204 P600
G1 F1200
G1 X76.142 Y88.354 E.01184
;WIDTH:0.441676
G1 X75.874 Y87.943 E.01627
G1 X75.866 Y87.546 E.01317
;WIDTH:0.435451
G1 X75.987 Y87.196 E.01209
;WIDTH:0.419999
G3 X76.901 Y86.577 I1.474 J1.191 E.03512
G1 X77.587 Y86.466 E.02179
G3 X78.85 Y86.646 I.117 J3.704 E.0402
G1 X79.324 Y86.932 E.01736
G1 X79.674 Y87.347 E.01702
G1 X79.849 Y87.832 E.01617
G1 X79.863 Y88.332 E.01568
G1 X79.706 Y88.895 E.01833
G1 X79.332 Y89.3 E.01728
G1 X78.949 Y89.512 E.01373
G3 X79.746 Y90.025 I-.736 J2.017 E.02996
G1 X79.977 Y90.472 E.01578
;WIDTH:0.459459
G1 X80.042 Y90.672 E.00728
;WIDTH:0.498918
G1 X80.106 Y90.871 E.00793
;WIDTH:0.538377
G1 X80.171 Y91.071 E.00866
;WIDTH:0.546685
G1 X80.156 Y91.579 E.02129
G1 X80.091 Y91.733 E.007
;WIDTH:0.504457
G1 X80.025 Y91.888 E.00647
;WIDTH:0.462228
G1 X79.96 Y92.042 E.00583
;WIDTH:0.419999
G1 X79.779 Y92.4 E.01258
G1 X79.36 Y92.908 E.02065
G1 X78.95 Y93.195 E.01569
G1 X78.293 Y93.418 E.02175
G3 X77.062 Y93.407 I-.575 J-4.446 E.03872
G1 X76.447 Y93.194 E.02041
G1 X76.132 Y92.961 E.01228
G3 X75.794 Y92.23 I1.094 J-.949 E.02559
G3 X75.953 Y91.639 I1.072 J-.029 E.01946
G1 X76.299 Y91.362 E.0139
G1 X76.738 Y91.277 E.01402
G1 X77.083 Y91.333 E.01096
G3 X77.773 Y91.745 I-3.284 J6.286 E.02521
