; generated by PrusaSlicer 2.5.0+win64 on 2023-01-24 at 14:40:45 UTC


;
;

;
;
; 

; external perimeters extrusion width = 0.40mm
; perimeters extrusion width = 0.40mm
; infill extrusion width = 0.45mm
; solid infill extrusion width = 0.45mm
; top infill extrusion width = 0.40mm
; first layer extrusion width = 0.42mm

M73 P0 R20
M201 X2500 Y2500 Z400 E5000 ; sets maximum accelerations, mm/sec^2
M203 X180 Y180 Z12 E80 ; sets maximum feedrates, mm / sec
M204 P1250 R1250 T2500 ; sets acceleration (P, T) and retract acceleration (R), mm/sec^2
M205 X8.00 Y8.00 Z2.00 E10.00 ; sets the jerk limits, mm/sec
M205 S0 T0 ; sets the minimum extruding and travel feed rate, mm/sec
M107
;TYPE:Custom
M862.3 P "MINI" ; printer model check
G90 ; use absolute coordinates
M83 ; extruder relative mode
M104 S170 ; set extruder temp for bed leveling
M140 S60 ; set bed temp
M109 R170 ; wait for bed leveling temp
M190 S60 ; wait for bed temp
M204 T1250 ; set travel acceleration
G28 ; home all without mesh bed level
G29 ; mesh bed leveling 
M204 T2500 ; restore travel acceleration
M104 S215 ; set extruder temp
G92 E0
G1 Y-2 X179 F2400
G1 Z3 F720
M109 S215 ; wait for extruder temp

; intro line
G1 X170 F1000
G1 Z0.2 F720
G1 X110 E8 F900
G1 X40 E10 F700
G92 E0

M221 S95 ; set flow
G21 ; set units to millimeters
G90 ; use absolute coordinates
M83 ; use relative distances for extrusion
M900 K0.2 ; Filament gcode LA 1.5
; ; Filament gcode LA 1.0
M107
;LAYER_CHANGE
;Z:0.2
;HEIGHT:0.2
;BEFORE_LAYER_CHANGE
G92 E0.0
;0.2


G1 E-3.2 F4200
M73 P1 R20
G1 Z.2 F720
;AFTER_LAYER_CHANGE
;0.2
G1 Z.4
G1 X80.123 Y15 F9000
G1 Z.2 F720
G1 E3.2 F2400
M204 P800
;TYPE:Skirt/Brim
;WIDTH:0.42
G1 F1200
G1 X80.515 Y13.693 E.04278
G1 X81.56 Y12.817 E.04278
M73 P1 R19
G1 X82.5 Y12.623 E.03008
G1 X97.5 Y12.623 E.47031
G1 X98.807 Y13.015 E.04278
G1 X99.683 Y14.06 E.04278
G1 X99.877 Y15 E.03008
G1 X99.877 Y165 E4.70314
G1 X99.485 Y166.307 E.04278
M73 P2 R19
G1 X98.44 Y167.183 E.04278
G1 X97.5 Y167.377 E.03008
G1 X82.5 Y167.377 E.47031
G1 X81.193 Y166.985 E.04278
G1 X80.317 Y165.94 E.04278
G1 X80.123 Y165 E.03008
G1 X80.123 Y15.06 E4.70126
M204 P1000
; printing object Form-Kubus id:0 copy 0
G1 E-2.24 F4200
;WIPE_START
G1 F7200
G1 X80.515 Y13.693 E-.78803
G1 X80.686 Y13.549 E-.12397
;WIPE_END
G1 E-.048 F4200
G1 Z.4 F720
G1 X96.336 Y163.836 F9000
G1 Z.2 F720
G1 E3.2 F2400
M204 P800
;TYPE:Perimeter
;WIDTH:0.419999
G1 F1200
G1 X83.664 Y163.836 E.39731
G1 X83.664 Y16.164 E4.63013
G1 X96.336 Y16.164 E.39731
M73 P3 R19
G1 X96.336 Y163.776 E4.62825
M204 P1000
G1 X96.713 Y164.213 F9000
M204 P800
M73 P4 R19
G1 F1200
G1 X83.287 Y164.213 E.42096
G1 X83.287 Y15.787 E4.65378
G1 X96.713 Y15.787 E.42096
G1 X96.713 Y164.153 E4.6519
M204 P1000
G1 X97.09 Y164.59 F9000
M204 P800
;TYPE:External perimeter
M73 P5 R19
G1 F1200
G1 X82.91 Y164.59 E.4446
G1 X82.91 Y15.41 E4.67743
G1 X97.09 Y15.41 E.4446
M73 P6 R19
G1 X97.09 Y164.53 E4.67555
M204 P1000
G1 X96.737 Y164.401 F9000
M73 P6 R18
G1 E-2.24 F4200
;WIPE_START
G1 F7200
G1 X95.444 Y164.537 E-.912
;WIPE_END
G1 E-.048 F4200
G1 Z.4 F720
G1 X83.777 Y16.447 F9000
G1 Z.2 F720
G1 E3.2 F2400
M204 P800
;TYPE:Solid infill
;WIDTH:0.420114
G1 F1200
G1 X96.053 Y16.447 E.38502
G1 X96.053 Y16.824 E.01183
M73 P7 R18
G1 X83.947 Y16.824 E.37969
G1 X83.947 Y17.201 E.01183
G1 X96.053 Y17.201 E.37969
G1 X96.053 Y17.579 E.01183
G1 X83.947 Y17.579 E.37969
G1 X83.947 Y17.956 E.01183
G1 X96.053 Y17.956 E.37969
G1 X96.053 Y18.333 E.01183
G1 X83.947 Y18.333 E.37969
G1 X83.947 Y18.71 E.01183
G1 X96.053 Y18.71 E.37969
G1 X96.053 Y19.087 E.01183
G1 X83.947 Y19.087 E.37969
G1 X83.947 Y19.465 E.01183
G1 X96.053 Y19.465 E.37969
G1 X96.053 Y19.842 E.01183
G1 X83.947 Y19.842 E.37969
G1 X83.947 Y20.219 E.01183
G1 X96.053 Y20.219 E.37969
G1 X96.053 Y20.596 E.01183
G1 X83.947 Y20.596 E.37969
G1 X83.947 Y20.973 E.01183
G1 X96.053 Y20.973 E.37969
G1 X96.053 Y21.351 E.01183
G1 X83.947 Y21.351 E.37969
G1 X83.947 Y21.728 E.01183
G1 X96.053 Y21.728 E.37969
G1 X96.053 Y22.105 E.01183
G1 X83.947 Y22.105 E.37969
G1 X83.947 Y22.482 E.01183
G1 X96.053 Y22.482 E.37969
G1 X96.053 Y22.859 E.01183
G1 X83.947 Y22.859 E.37969
G1 X83.947 Y23.237 E.01183
G1 X96.053 Y23.237 E.37969
G1 X96.053 Y23.614 E.01183
G1 X83.947 Y23.614 E.37969
G1 X83.947 Y23.991 E.01183
M73 P8 R18
G1 X96.053 Y23.991 E.37969
G1 X96.053 Y24.368 E.01183
G1 X83.947 Y24.368 E.37969
G1 X83.947 Y24.745 E.01183
G1 X96.053 Y24.745 E.37969
G1 X96.053 Y25.123 E.01183
G1 X83.947 Y25.123 E.37969
G1 X83.947 Y25.5 E.01183
G1 X96.053 Y25.5 E.37969
G1 X96.053 Y25.877 E.01183
G1 X83.947 Y25.877 E.37969
G1 X83.947 Y26.254 E.01183
G1 X96.053 Y26.254 E.37969
G1 X96.053 Y26.631 E.01183
G1 X83.947 Y26.631 E.37969
G1 X83.947 Y27.008 E.01183
G1 X96.053 Y27.008 E.37969
G1 X96.053 Y27.386 E.01183
G1 X83.947 Y27.386 E.37969
G1 X83.947 Y27.763 E.01183
G1 X96.053 Y27.763 E.37969
G1 X96.053 Y28.14 E.01183
G1 X83.947 Y28.14 E.37969
G1 X83.947 Y28.517 E.01183
G1 X96.053 Y28.517 E.37969
G1 X96.053 Y28.894 E.01183
G1 X83.947 Y28.894 E.37969
G1 X83.947 Y29.272 E.01183
G1 X96.053 Y29.272 E.37969
G1 X96.053 Y29.649 E.01183
G1 X83.947 Y29.649 E.37969
G1 X83.947 Y30.026 E.01183
G1 X96.053 Y30.026 E.37969
G1 X96.053 Y30.403 E.01183
G1 X83.947 Y30.403 E.37969
G1 X83.947 Y30.78 E.01183
G1 X96.053 Y30.78 E.37969
G1 X96.053 Y31.158 E.01183
M73 P9 R18
G1 X83.947 Y31.158 E.37969
G1 X83.947 Y31.535 E.01183
G1 X96.053 Y31.535 E.37969
G1 X96.053 Y31.912 E.01183
G1 X83.947 Y31.912 E.37969
G1 X83.947 Y32.289 E.01183
G1 X96.053 Y32.289 E.37969
G1 X96.053 Y32.666 E.01183
G1 X83.947 Y32.666 E.37969
G1 X83.947 Y33.044 E.01183
G1 X96.053 Y33.044 E.37969
G1 X96.053 Y33.421 E.01183
G1 X83.947 Y33.421 E.37969
G1 X83.947 Y33.798 E.01183
G1 X96.053 Y33.798 E.37969
G1 X96.053 Y34.175 E.01183
G1 X83.947 Y34.175 E.37969
G1 X83.947 Y34.552 E.01183
G1 X96.053 Y34.552 E.37969
G1 X96.053 Y34.93 E.01183
G1 X83.947 Y34.93 E.37969
G1 X83.947 Y35.307 E.01183
G1 X96.053 Y35.307 E.37969
G1 X96.053 Y35.684 E.01183
G1 X83.947 Y35.684 E.37969
G1 X83.947 Y36.061 E.01183
G1 X96.053 Y36.061 E.37969
G1 X96.053 Y36.438 E.01183
G1 X83.947 Y36.438 E.37969
G1 X83.947 Y36.816 E.01183
G1 X96.053 Y36.816 E.37969
G1 X96.053 Y37.193 E.01183
G1 X83.947 Y37.193 E.37969
G1 X83.947 Y37.57 E.01183
G1 X96.053 Y37.57 E.37969
G1 X96.053 Y37.947 E.01183
G1 X83.947 Y37.947 E.37969
G1 X83.947 Y38.324 E.01183
M73 P10 R18
G1 X96.053 Y38.324 E.37969
G1 X96.053 Y38.702 E.01183
G1 X83.947 Y38.702 E.37969
G1 X83.947 Y39.079 E.01183
G1 X96.053 Y39.079 E.37969
G1 X96.053 Y39.456 E.01183
G1 X83.947 Y39.456 E.37969
G1 X83.947 Y39.833 E.01183
G1 X96.053 Y39.833 E.37969
G1 X96.053 Y40.21 E.01183
G1 X83.947 Y40.21 E.37969
G1 X83.947 Y40.587 E.01183
G1 X96.053 Y40.587 E.37969
G1 X96.053 Y40.965 E.01183
G1 X83.947 Y40.965 E.37969
G1 X83.947 Y41.342 E.01183
G1 X96.053 Y41.342 E.37969
G1 X96.053 Y41.719 E.01183
G1 X83.947 Y41.719 E.37969
G1 X83.947 Y42.096 E.01183
G1 X96.053 Y42.096 E.37969
G1 X96.053 Y42.473 E.01183
G1 X83.947 Y42.473 E.37969
G1 X83.947 Y42.851 E.01183
G1 X96.053 Y42.851 E.37969
G1 X96.053 Y43.228 E.01183
G1 X83.947 Y43.228 E.37969
G1 X83.947 Y43.605 E.01183
G1 X96.053 Y43.605 E.37969
G1 X96.053 Y43.982 E.01183
G1 X83.947 Y43.982 E.37969
G1 X83.947 Y44.359 E.01183
G1 X96.053 Y44.359 E.37969
G1 X96.053 Y44.737 E.01183
G1 X83.947 Y44.737 E.37969
G1 X83.947 Y45.114 E.01183
G1 X96.053 Y45.114 E.37969
G1 X96.053 Y45.491 E.01183
M73 P11 R18
G1 X83.947 Y45.491 E.37969
G1 X83.947 Y45.868 E.01183
G1 X96.053 Y45.868 E.37969
G1 X96.053 Y46.245 E.01183
G1 X83.947 Y46.245 E.37969
G1 X83.947 Y46.623 E.01183
G1 X96.053 Y46.623 E.37969
M73 P11 R17
G1 X96.053 Y47 E.01183
G1 X83.947 Y47 E.37969
G1 X83.947 Y47.377 E.01183
G1 X96.053 Y47.377 E.37969
G1 X96.053 Y47.754 E.01183
G1 X83.947 Y47.754 E.37969
G1 X83.947 Y48.131 E.01183
G1 X96.053 Y48.131 E.37969
G1 X96.053 Y48.509 E.01183
G1 X83.947 Y48.509 E.37969
G1 X83.947 Y48.886 E.01183
G1 X96.053 Y48.886 E.37969
G1 X96.053 Y49.263 E.01183
G1 X83.947 Y49.263 E.37969
G1 X83.947 Y49.64 E.01183
G1 X96.053 Y49.64 E.37969
G1 X96.053 Y50.017 E.01183
G1 X83.947 Y50.017 E.37969
G1 X83.947 Y50.395 E.01183
G1 X96.053 Y50.395 E.37969
G1 X96.053 Y50.772 E.01183
G1 X83.947 Y50.772 E.37969
G1 X83.947 Y51.149 E.01183
G1 X96.053 Y51.149 E.37969
G1 X96.053 Y51.526 E.01183
G1 X83.947 Y51.526 E.37969
G1 X83.947 Y51.903 E.01183
G1 X96.053 Y51.903 E.37969
G1 X96.053 Y52.28 E.01183
G1 X83.947 Y52.28 E.37969
G1 X83.947 Y52.658 E.01183
M73 P12 R17
G1 X96.053 Y52.658 E.37969
G1 X96.053 Y53.035 E.01183
G1 X83.947 Y53.035 E.37969
G1 X83.947 Y53.412 E.01183
G1 X96.053 Y53.412 E.37969
G1 X96.053 Y53.789 E.01183
G1 X83.947 Y53.789 E.37969
G1 X83.947 Y54.166 E.01183
G1 X96.053 Y54.166 E.37969
G1 X96.053 Y54.544 E.01183
G1 X83.947 Y54.544 E.37969
G1 X83.947 Y54.921 E.01183
G1 X96.053 Y54.921 E.37969
G1 X96.053 Y55.298 E.01183
G1 X83.947 Y55.298 E.37969
G1 X83.947 Y55.675 E.01183
G1 X96.053 Y55.675 E.37969
G1 X96.053 Y56.052 E.01183
G1 X83.947 Y56.052 E.37969
G1 X83.947 Y56.43 E.01183
G1 X96.053 Y56.43 E.37969
G1 X96.053 Y56.807 E.01183
G1 X83.947 Y56.807 E.37969
G1 X83.947 Y57.184 E.01183
G1 X96.053 Y57.184 E.37969
G1 X96.053 Y57.561 E.01183
G1 X83.947 Y57.561 E.37969
G1 X83.947 Y57.938 E.01183
G1 X96.053 Y57.938 E.37969
G1 X96.053 Y58.316 E.01183
G1 X83.947 Y58.316 E.37969
G1 X83.947 Y58.693 E.01183
G1 X96.053 Y58.693 E.37969
G1 X96.053 Y59.07 E.01183
G1 X83.947 Y59.07 E.37969
G1 X83.947 Y59.447 E.01183
G1 X96.053 Y59.447 E.37969
G1 X96.053 Y59.824 E.01183
M73 P13 R17
G1 X83.947 Y59.824 E.37969
G1 X83.947 Y60.202 E.01183
G1 X96.053 Y60.202 E.37969
G1 X96.053 Y60.579 E.01183
G1 X83.947 Y60.579 E.37969
G1 X83.947 Y60.956 E.01183
G1 X96.053 Y60.956 E.37969
G1 X96.053 Y61.333 E.01183
G1 X83.947 Y61.333 E.37969
G1 X83.947 Y61.71 E.01183
G1 X96.053 Y61.71 E.37969
G1 X96.053 Y62.088 E.01183
G1 X83.947 Y62.088 E.37969
G1 X83.947 Y62.465 E.01183
G1 X96.053 Y62.465 E.37969
G1 X96.053 Y62.842 E.01183
G1 X83.947 Y62.842 E.37969
G1 X83.947 Y63.219 E.01183
G1 X96.053 Y63.219 E.37969
G1 X96.053 Y63.596 E.01183
G1 X83.947 Y63.596 E.37969
G1 X83.947 Y63.974 E.01183
G1 X96.053 Y63.974 E.37969
G1 X96.053 Y64.351 E.01183
G1 X83.947 Y64.351 E.37969
G1 X83.947 Y64.728 E.01183
G1 X96.053 Y64.728 E.37969
G1 X96.053 Y65.105 E.01183
G1 X83.947 Y65.105 E.37969
G1 X83.947 Y65.482 E.01183
G1 X96.053 Y65.482 E.37969
G1 X96.053 Y65.859 E.01183
G1 X83.947 Y65.859 E.37969
G1 X83.947 Y66.237 E.01183
G1 X96.053 Y66.237 E.37969
G1 X96.053 Y66.614 E.01183
G1 X83.947 Y66.614 E.37969
M73 P14 R17
G1 X83.947 Y66.991 E.01183
G1 X96.053 Y66.991 E.37969
G1 X96.053 Y67.368 E.01183
G1 X83.947 Y67.368 E.37969
G1 X83.947 Y67.745 E.01183
G1 X96.053 Y67.745 E.37969
G1 X96.053 Y68.123 E.01183
G1 X83.947 Y68.123 E.37969
G1 X83.947 Y68.5 E.01183
G1 X96.053 Y68.5 E.37969
G1 X96.053 Y68.877 E.01183
G1 X83.947 Y68.877 E.37969
G1 X83.947 Y69.254 E.01183
G1 X96.053 Y69.254 E.37969
G1 X96.053 Y69.631 E.01183
G1 X83.947 Y69.631 E.37969
G1 X83.947 Y70.009 E.01183
G1 X96.053 Y70.009 E.37969
G1 X96.053 Y70.386 E.01183
G1 X83.947 Y70.386 E.37969
G1 X83.947 Y70.763 E.01183
G1 X96.053 Y70.763 E.37969
G1 X96.053 Y71.14 E.01183
G1 X83.947 Y71.14 E.37969
G1 X83.947 Y71.517 E.01183
G1 X96.053 Y71.517 E.37969
G1 X96.053 Y71.895 E.01183
G1 X83.947 Y71.895 E.37969
G1 X83.947 Y72.272 E.01183
G1 X96.053 Y72.272 E.37969
G1 X96.053 Y72.649 E.01183
G1 X83.947 Y72.649 E.37969
G1 X83.947 Y73.026 E.01183
G1 X96.053 Y73.026 E.37969
G1 X96.053 Y73.403 E.01183
G1 X83.947 Y73.403 E.37969
G1 X83.947 Y73.781 E.01183
M73 P15 R17
G1 X96.053 Y73.781 E.37969
G1 X96.053 Y74.158 E.01183
G1 X83.947 Y74.158 E.37969
G1 X83.947 Y74.535 E.01183
G1 X96.053 Y74.535 E.37969
G1 X96.053 Y74.912 E.01183
G1 X83.947 Y74.912 E.37969
G1 X83.947 Y75.289 E.01183
G1 X96.053 Y75.289 E.37969
G1 X96.053 Y75.667 E.01183
G1 X83.947 Y75.667 E.37969
G1 X83.947 Y76.044 E.01183
G1 X96.053 Y76.044 E.37969
G1 X96.053 Y76.421 E.01183
G1 X83.947 Y76.421 E.37969
G1 X83.947 Y76.798 E.01183
G1 X96.053 Y76.798 E.37969
G1 X96.053 Y77.175 E.01183
G1 X83.947 Y77.175 E.37969
G1 X83.947 Y77.552 E.01183
G1 X96.053 Y77.552 E.37969
G1 X96.053 Y77.93 E.01183
G1 X83.947 Y77.93 E.37969
G1 X83.947 Y78.307 E.01183
G1 X96.053 Y78.307 E.37969
G1 X96.053 Y78.684 E.01183
G1 X83.947 Y78.684 E.37969
G1 X83.947 Y79.061 E.01183
G1 X96.053 Y79.061 E.37969
G1 X96.053 Y79.438 E.01183
G1 X83.947 Y79.438 E.37969
G1 X83.947 Y79.816 E.01183
G1 X96.053 Y79.816 E.37969
G1 X96.053 Y80.193 E.01183
G1 X83.947 Y80.193 E.37969
G1 X83.947 Y80.57 E.01183
G1 X96.053 Y80.57 E.37969
G1 X96.053 Y80.947 E.01183
M73 P16 R17
G1 X83.947 Y80.947 E.37969
G1 X83.947 Y81.324 E.01183
G1 X96.053 Y81.324 E.37969
G1 X96.053 Y81.702 E.01183
G1 X83.947 Y81.702 E.37969
G1 X83.947 Y82.079 E.01183
M73 P16 R16
G1 X96.053 Y82.079 E.37969
G1 X96.053 Y82.456 E.01183
G1 X83.947 Y82.456 E.37969
G1 X83.947 Y82.833 E.01183
G1 X96.053 Y82.833 E.37969
G1 X96.053 Y83.21 E.01183
G1 X83.947 Y83.21 E.37969
G1 X83.947 Y83.588 E.01183
G1 X96.053 Y83.588 E.37969
G1 X96.053 Y83.965 E.01183
G1 X83.947 Y83.965 E.37969
G1 X83.947 Y84.342 E.01183
G1 X96.053 Y84.342 E.37969
G1 X96.053 Y84.719 E.01183
G1 X83.947 Y84.719 E.37969
G1 X83.947 Y85.096 E.01183
G1 X96.053 Y85.096 E.37969
G1 X96.053 Y85.474 E.01183
G1 X83.947 Y85.474 E.37969
G1 X83.947 Y85.851 E.01183
G1 X96.053 Y85.851 E.37969
G1 X96.053 Y86.228 E.01183
G1 X83.947 Y86.228 E.37969
G1 X83.947 Y86.605 E.01183
G1 X96.053 Y86.605 E.37969
G1 X96.053 Y86.982 E.01183
G1 X83.947 Y86.982 E.37969
G1 X83.947 Y87.36 E.01183
G1 X96.053 Y87.36 E.37969
G1 X96.053 Y87.737 E.01183
G1 X83.947 Y87.737 E.37969
G1 X83.947 Y88.114 E.01183
M73 P17 R16
G1 X96.053 Y88.114 E.37969
G1 X96.053 Y88.491 E.01183
G1 X83.947 Y88.491 E.37969
G1 X83.947 Y88.868 E.01183
G1 X96.053 Y88.868 E.37969
G1 X96.053 Y89.246 E.01183
G1 X83.947 Y89.246 E.37969
G1 X83.947 Y89.623 E.01183
G1 X96.053 Y89.623 E.37969
G1 X96.053 Y90 E.01183
G1 X83.947 Y90 E.37969
G1 X83.947 Y90.377 E.01183
G1 X96.053 Y90.377 E.37969
G1 X96.053 Y90.754 E.01183
G1 X83.947 Y90.754 E.37969
G1 X83.947 Y91.131 E.01183
G1 X96.053 Y91.131 E.37969
G1 X96.053 Y91.509 E.01183
G1 X83.947 Y91.509 E.37969
G1 X83.947 Y91.886 E.01183
G1 X96.053 Y91.886 E.37969
G1 X96.053 Y92.263 E.01183
G1 X83.947 Y92.263 E.37969
G1 X83.947 Y92.64 E.01183
G1 X96.053 Y92.64 E.37969
G1 X96.053 Y93.017 E.01183
G1 X83.947 Y93.017 E.37969
G1 X83.947 Y93.395 E.01183
G1 X96.053 Y93.395 E.37969
G1 X96.053 Y93.772 E.01183
G1 X83.947 Y93.772 E.37969
G1 X83.947 Y94.149 E.01183
G1 X96.053 Y94.149 E.37969
G1 X96.053 Y94.526 E.01183
G1 X83.947 Y94.526 E.37969
G1 X83.947 Y94.903 E.01183
G1 X96.053 Y94.903 E.37969
G1 X96.053 Y95.281 E.01183
M73 P18 R16
G1 X83.947 Y95.281 E.37969
G1 X83.947 Y95.658 E.01183
G1 X96.053 Y95.658 E.37969
G1 X96.053 Y96.035 E.01183
G1 X83.947 Y96.035 E.37969
G1 X83.947 Y96.412 E.01183
G1 X96.053 Y96.412 E.37969
G1 X96.053 Y96.789 E.01183
G1 X83.947 Y96.789 E.37969
G1 X83.947 Y97.167 E.01183
G1 X96.053 Y97.167 E.37969
G1 X96.053 Y97.544 E.01183
G1 X83.947 Y97.544 E.37969
G1 X83.947 Y97.921 E.01183
G1 X96.053 Y97.921 E.37969
G1 X96.053 Y98.298 E.01183
G1 X83.947 Y98.298 E.37969
G1 X83.947 Y98.675 E.01183
G1 X96.053 Y98.675 E.37969
G1 X96.053 Y99.053 E.01183
G1 X83.947 Y99.053 E.37969
G1 X83.947 Y99.43 E.01183
G1 X96.053 Y99.43 E.37969
G1 X96.053 Y99.807 E.01183
G1 X83.947 Y99.807 E.37969
G1 X83.947 Y100.184 E.01183
G1 X96.053 Y100.184 E.37969
G1 X96.053 Y100.561 E.01183
G1 X83.947 Y100.561 E.37969
G1 X83.947 Y100.939 E.01183
G1 X96.053 Y100.939 E.37969
G1 X96.053 Y101.316 E.01183
G1 X83.947 Y101.316 E.37969
G1 X83.947 Y101.693 E.01183
G1 X96.053 Y101.693 E.37969
G1 X96.053 Y102.07 E.01183
G1 X83.947 Y102.07 E.37969
G1 X83.947 Y102.447 E.01183
M73 P19 R16
G1 X96.053 Y102.447 E.37969
G1 X96.053 Y102.824 E.01183
G1 X83.947 Y102.824 E.37969
G1 X83.947 Y103.202 E.01183
G1 X96.053 Y103.202 E.37969
G1 X96.053 Y103.579 E.01183
G1 X83.947 Y103.579 E.37969
G1 X83.947 Y103.956 E.01183
G1 X96.053 Y103.956 E.37969
G1 X96.053 Y104.333 E.01183
G1 X83.947 Y104.333 E.37969
G1 X83.947 Y104.71 E.01183
G1 X96.053 Y104.71 E.37969
G1 X96.053 Y105.088 E.01183
