; generated by PrusaSlicer 2.5.0+win64 on 2023-01-24 at 14:39:47 UTC


;
;

;
;
; 

; external perimeters extrusion width = 0.40mm
; perimeters extrusion width = 0.40mm
; infill extrusion width = 0.45mm
; solid infill extrusion width = 0.45mm
; top infill extrusion width = 0.40mm
; first layer extrusion width = 0.42mm

M73 P0 R20
M201 X2500 Y2500 Z400 E5000 ; sets maximum accelerations, mm/sec^2
M203 X180 Y180 Z12 E80 ; sets maximum feedrates, mm / sec
M204 P1250 R1250 T2500 ; sets acceleration (P, T) and retract acceleration (R), mm/sec^2
M205 X8.00 Y8.00 Z2.00 E10.00 ; sets the jerk limits, mm/sec
M205 S0 T0 ; sets the minimum extruding and travel feed rate, mm/sec
M107
;TYPE:Custom
M862.3 P "MINI" ; printer model check
G90 ; use absolute coordinates
M83 ; extruder relative mode
M104 S170 ; set extruder temp for bed leveling
M140 S60 ; set bed temp
M109 R170 ; wait for bed leveling temp
M190 S60 ; wait for bed temp
M204 T1250 ; set travel acceleration
G28 ; home all without mesh bed level
G29 ; mesh bed leveling 
M204 T2500 ; restore travel acceleration
M104 S215 ; set extruder temp
G92 E0
G1 Y-2 X179 F2400
G1 Z3 F720
M109 S215 ; wait for extruder temp

; intro line
G1 X170 F1000
G1 Z0.2 F720
G1 X110 E8 F900
G1 X40 E10 F700
G92 E0

M221 S95 ; set flow
G21 ; set units to millimeters
G90 ; use absolute coordinates
M83 ; use relative distances for extrusion
M900 K0.2 ; Filament gcode LA 1.5
; ; Filament gcode LA 1.0
M107
;LAYER_CHANGE
;Z:0.2
;HEIGHT:0.2
;BEFORE_LAYER_CHANGE
G92 E0.0
;0.2


G1 E-3.2 F4200
M73 P1 R20
G1 Z.2 F720
;AFTER_LAYER_CHANGE
;0.2
G1 Z.4
G1 X80.123 Y15 F9000
G1 Z.2 F720
G1 E3.2 F2400
M204 P800
;TYPE:Skirt/Brim
;WIDTH:0.42
G1 F1200
G1 X80.515 Y13.693 E.04278
G1 X81.56 Y12.817 E.04278
G1 X82.5 Y12.623 E.03008
G1 X97.5 Y12.623 E.47031
G1 X98.807 Y13.015 E.04278
G1 X99.683 Y14.06 E.04278
G1 X99.877 Y15 E.03008
G1 X99.877 Y165 E4.70314
G1 X99.485 Y166.307 E.04278
M73 P2 R19
G1 X98.44 Y167.183 E.04278
G1 X97.5 Y167.377 E.03008
G1 X82.5 Y167.377 E.47031
G1 X81.193 Y166.985 E.04278
G1 X80.317 Y165.94 E.04278
G1 X80.123 Y165 E.03008
G1 X80.123 Y15.06 E4.70126
M204 P1000
; printing object Form-Kubus id:0 copy 0
G1 E-2.24 F4200
;WIPE_START
G1 F7200
G1 X80.515 Y13.693 E-.78803
G1 X80.686 Y13.549 E-.12397
;WIPE_END
G1 E-.048 F4200
G1 Z.4 F720
G1 X96.336 Y163.836 F9000
G1 Z.2 F720
G1 E3.2 F2400
M204 P800
;TYPE:Perimeter
;WIDTH:0.419999
G1 F1200
G1 X83.664 Y163.836 E.39731
G1 X83.664 Y16.164 E4.63013
G1 X96.336 Y16.164 E.39731
M73 P3 R19
G1 X96.336 Y163.776 E4.62825
M204 P1000
G1 X96.713 Y164.213 F9000
M204 P800
M73 P4 R19
G1 F1200
G1 X83.287 Y164.213 E.42096
G1 X83.287 Y15.787 E4.65378
G1 X96.713 Y15.787 E.42096
G1 X96.713 Y164.153 E4.6519
M204 P1000
G1 X97.09 Y164.59 F9000
M204 P800
;TYPE:External perimeter
M73 P5 R19
G1 F1200
G1 X82.91 Y164.59 E.4446
G1 X82.91 Y15.41 E4.67743
G1 X97.09 Y15.41 E.4446
M73 P6 R19
G1 X97.09 Y164.53 E4.67555
M204 P1000
G1 X96.737 Y164.401 F9000
M73 P6 R18
G1 E-2.24 F4200
;WIPE_START
G1 F7200
G1 X95.444 Y164.537 E-.912
;WIPE_END
G1 E-.048 F4200
G1 Z.4 F720
G1 X95.458 Y16.277 F9000
G1 Z.2 F720
G1 E3.2 F2400
M204 P800
;TYPE:Solid infill
;WIDTH:0.421225
G1 F1200
G1 X96.053 Y16.872 E.02648
G1 X96.053 Y17.407 E.01683
G1 X95.093 Y16.447 E.04273
G1 X94.558 Y16.447 E.01683
G1 X96.053 Y17.942 E.06653
G1 X96.053 Y18.477 E.01683
G1 X94.023 Y16.447 E.09033
G1 X93.488 Y16.447 E.01683
G1 X96.053 Y19.012 E.11413
G1 X96.053 Y19.547 E.01683
M73 P7 R18
G1 X92.953 Y16.447 E.13793
G1 X92.418 Y16.447 E.01683
G1 X96.053 Y20.082 E.16173
G1 X96.053 Y20.617 E.01683
G1 X91.883 Y16.447 E.18553
G1 X91.348 Y16.447 E.01683
G1 X96.053 Y21.152 E.20933
G1 X96.053 Y21.687 E.01683
G1 X90.813 Y16.447 E.23313
G1 X90.278 Y16.447 E.01683
G1 X96.053 Y22.222 E.25693
G1 X96.053 Y22.757 E.01683
G1 X89.743 Y16.447 E.28073
G1 X89.207 Y16.447 E.01683
G1 X96.053 Y23.293 E.30453
G1 X96.053 Y23.828 E.01683
G1 X88.672 Y16.447 E.32833
G1 X88.137 Y16.447 E.01683
G1 X96.053 Y24.363 E.35213
G1 X96.053 Y24.898 E.01683
G1 X87.602 Y16.447 E.37593
G1 X87.067 Y16.447 E.01683
G1 X96.053 Y25.433 E.39973
G1 X96.053 Y25.968 E.01683
G1 X86.532 Y16.447 E.42353
G1 X85.997 Y16.447 E.01683
G1 X96.053 Y26.503 E.44733
G1 X96.053 Y27.038 E.01683
G1 X85.462 Y16.447 E.47113
G1 X84.927 Y16.447 E.01683
G1 X96.053 Y27.573 E.49493
G1 X96.053 Y28.108 E.01683
G1 X84.392 Y16.447 E.51873
G1 X83.947 Y16.447 E.01401
G1 X83.947 Y16.536 E.00282
G1 X96.053 Y28.643 E.53855
G1 X96.053 Y29.178 E.01683
G1 X83.947 Y17.071 E.53855
G1 X83.947 Y17.606 E.01683
G1 X96.053 Y29.713 E.53855
G1 X96.053 Y30.248 E.01683
M73 P8 R18
G1 X83.947 Y18.141 E.53855
G1 X83.947 Y18.676 E.01683
G1 X96.053 Y30.783 E.53855
G1 X96.053 Y31.318 E.01683
G1 X83.947 Y19.211 E.53855
G1 X83.947 Y19.746 E.01683
G1 X96.053 Y31.853 E.53855
G1 X96.053 Y32.388 E.01683
G1 X83.947 Y20.281 E.53855
G1 X83.947 Y20.816 E.01683
G1 X96.053 Y32.923 E.53855
G1 X96.053 Y33.458 E.01683
G1 X83.947 Y21.351 E.53855
G1 X83.947 Y21.886 E.01683
G1 X96.053 Y33.993 E.53855
G1 X96.053 Y34.528 E.01683
G1 X83.947 Y22.421 E.53855
G1 X83.947 Y22.957 E.01683
G1 X96.053 Y35.063 E.53855
G1 X96.053 Y35.598 E.01683
G1 X83.947 Y23.492 E.53855
G1 X83.947 Y24.027 E.01683
G1 X96.053 Y36.133 E.53855
G1 X96.053 Y36.668 E.01683
G1 X83.947 Y24.562 E.53855
G1 X83.947 Y25.097 E.01683
G1 X96.053 Y37.203 E.53855
G1 X96.053 Y37.738 E.01683
M73 P9 R18
G1 X83.947 Y25.632 E.53855
G1 X83.947 Y26.167 E.01683
G1 X96.053 Y38.273 E.53855
G1 X96.053 Y38.808 E.01683
G1 X83.947 Y26.702 E.53855
G1 X83.947 Y27.237 E.01683
G1 X96.053 Y39.343 E.53855
G1 X96.053 Y39.878 E.01683
G1 X83.947 Y27.772 E.53855
G1 X83.947 Y28.307 E.01683
G1 X96.053 Y40.413 E.53855
G1 X96.053 Y40.948 E.01683
G1 X83.947 Y28.842 E.53855
G1 X83.947 Y29.377 E.01683
G1 X96.053 Y41.483 E.53855
G1 X96.053 Y42.018 E.01683
G1 X83.947 Y29.912 E.53855
G1 X83.947 Y30.447 E.01683
G1 X96.053 Y42.553 E.53855
G1 X96.053 Y43.088 E.01683
G1 X83.947 Y30.982 E.53855
G1 X83.947 Y31.517 E.01683
G1 X96.053 Y43.623 E.53855
G1 X96.053 Y44.158 E.01683
G1 X83.947 Y32.052 E.53855
G1 X83.947 Y32.587 E.01683
G1 X96.053 Y44.693 E.53855
G1 X96.053 Y45.228 E.01683
M73 P10 R18
G1 X83.947 Y33.122 E.53855
G1 X83.947 Y33.657 E.01683
G1 X96.053 Y45.763 E.53855
G1 X96.053 Y46.298 E.01683
G1 X83.947 Y34.192 E.53855
G1 X83.947 Y34.727 E.01683
G1 X96.053 Y46.833 E.53855
G1 X96.053 Y47.368 E.01683
G1 X83.947 Y35.262 E.53855
G1 X83.947 Y35.797 E.01683
G1 X96.053 Y47.903 E.53855
G1 X96.053 Y48.438 E.01683
G1 X83.947 Y36.332 E.53855
G1 X83.947 Y36.867 E.01683
G1 X96.053 Y48.973 E.53855
G1 X96.053 Y49.508 E.01683
G1 X83.947 Y37.402 E.53855
G1 X83.947 Y37.937 E.01683
G1 X96.053 Y50.043 E.53855
G1 X96.053 Y50.578 E.01683
G1 X83.947 Y38.472 E.53855
G1 X83.947 Y39.007 E.01683
G1 X96.053 Y51.113 E.53855
G1 X96.053 Y51.648 E.01683
G1 X83.947 Y39.542 E.53855
G1 X83.947 Y40.077 E.01683
M73 P11 R18
G1 X96.053 Y52.183 E.53855
G1 X96.053 Y52.718 E.01683
G1 X83.947 Y40.612 E.53855
G1 X83.947 Y41.147 E.01683
G1 X96.053 Y53.253 E.53855
G1 X96.053 Y53.788 E.01683
G1 X83.947 Y41.682 E.53855
G1 X83.947 Y42.217 E.01683
G1 X96.053 Y54.323 E.53855
G1 X96.053 Y54.858 E.01683
G1 X83.947 Y42.752 E.53855
G1 X83.947 Y43.287 E.01683
G1 X96.053 Y55.393 E.53855
G1 X96.053 Y55.928 E.01683
M73 P11 R17
G1 X83.947 Y43.822 E.53855
G1 X83.947 Y44.357 E.01683
G1 X96.053 Y56.463 E.53855
G1 X96.053 Y56.998 E.01683
G1 X83.947 Y44.892 E.53855
G1 X83.947 Y45.427 E.01683
G1 X96.053 Y57.533 E.53855
G1 X96.053 Y58.068 E.01683
G1 X83.947 Y45.962 E.53855
G1 X83.947 Y46.497 E.01683
G1 X96.053 Y58.603 E.53855
G1 X96.053 Y59.138 E.01683
G1 X83.947 Y47.032 E.53855
G1 X83.947 Y47.567 E.01683
M73 P12 R17
G1 X96.053 Y59.673 E.53855
G1 X96.053 Y60.208 E.01683
G1 X83.947 Y48.102 E.53855
G1 X83.947 Y48.637 E.01683
G1 X96.053 Y60.743 E.53855
G1 X96.053 Y61.278 E.01683
G1 X83.947 Y49.172 E.53855
G1 X83.947 Y49.707 E.01683
G1 X96.053 Y61.813 E.53855
G1 X96.053 Y62.348 E.01683
G1 X83.947 Y50.242 E.53855
G1 X83.947 Y50.777 E.01683
G1 X96.053 Y62.883 E.53855
G1 X96.053 Y63.418 E.01683
G1 X83.947 Y51.312 E.53855
G1 X83.947 Y51.847 E.01683
G1 X96.053 Y63.953 E.53855
G1 X96.053 Y64.488 E.01683
G1 X83.947 Y52.382 E.53855
G1 X83.947 Y52.917 E.01683
G1 X96.053 Y65.023 E.53855
G1 X96.053 Y65.558 E.01683
G1 X83.947 Y53.452 E.53855
G1 X83.947 Y53.987 E.01683
G1 X96.053 Y66.093 E.53855
G1 X96.053 Y66.628 E.01683
M73 P13 R17
G1 X83.947 Y54.522 E.53855
G1 X83.947 Y55.057 E.01683
G1 X96.053 Y67.163 E.53855
G1 X96.053 Y67.698 E.01683
G1 X83.947 Y55.592 E.53855
G1 X83.947 Y56.127 E.01683
G1 X96.053 Y68.233 E.53855
G1 X96.053 Y68.768 E.01683
G1 X83.947 Y56.662 E.53855
G1 X83.947 Y57.197 E.01683
G1 X96.053 Y69.303 E.53855
G1 X96.053 Y69.838 E.01683
G1 X83.947 Y57.732 E.53855
G1 X83.947 Y58.267 E.01683
G1 X96.053 Y70.373 E.53855
G1 X96.053 Y70.908 E.01683
G1 X83.947 Y58.802 E.53855
G1 X83.947 Y59.337 E.01683
G1 X96.053 Y71.443 E.53855
G1 X96.053 Y71.978 E.01683
G1 X83.947 Y59.872 E.53855
G1 X83.947 Y60.407 E.01683
G1 X96.053 Y72.513 E.53855
G1 X96.053 Y73.048 E.01683
G1 X83.947 Y60.942 E.53855
G1 X83.947 Y61.477 E.01683
G1 X96.053 Y73.583 E.53855
G1 X96.053 Y74.118 E.01683
M73 P14 R17
G1 X83.947 Y62.012 E.53855
G1 X83.947 Y62.547 E.01683
G1 X96.053 Y74.653 E.53855
G1 X96.053 Y75.188 E.01683
G1 X83.947 Y63.082 E.53855
G1 X83.947 Y63.617 E.01683
G1 X96.053 Y75.723 E.53855
G1 X96.053 Y76.258 E.01683
G1 X83.947 Y64.152 E.53855
G1 X83.947 Y64.687 E.01683
G1 X96.053 Y76.793 E.53855
G1 X96.053 Y77.328 E.01683
G1 X83.947 Y65.222 E.53855
G1 X83.947 Y65.757 E.01683
G1 X96.053 Y77.863 E.53855
G1 X96.053 Y78.398 E.01683
G1 X83.947 Y66.292 E.53855
G1 X83.947 Y66.827 E.01683
G1 X96.053 Y78.933 E.53855
G1 X96.053 Y79.468 E.01683
G1 X83.947 Y67.362 E.53855
G1 X83.947 Y67.897 E.01683
G1 X96.053 Y80.003 E.53855
G1 X96.053 Y80.538 E.01683
G1 X83.947 Y68.432 E.53855
G1 X83.947 Y68.967 E.01683
G1 X96.053 Y81.073 E.53855
G1 X96.053 Y81.608 E.01683
M73 P15 R17
G1 X83.947 Y69.502 E.53855
G1 X83.947 Y70.037 E.01683
G1 X96.053 Y82.143 E.53855
G1 X96.053 Y82.678 E.01683
G1 X83.947 Y70.572 E.53855
G1 X83.947 Y71.107 E.01683
G1 X96.053 Y83.213 E.53855
G1 X96.053 Y83.748 E.01683
G1 X83.947 Y71.642 E.53855
G1 X83.947 Y72.177 E.01683
G1 X96.053 Y84.283 E.53855
G1 X96.053 Y84.818 E.01683
G1 X83.947 Y72.712 E.53855
G1 X83.947 Y73.247 E.01683
G1 X96.053 Y85.353 E.53855
G1 X96.053 Y85.888 E.01683
G1 X83.947 Y73.782 E.53855
G1 X83.947 Y74.317 E.01683
G1 X96.053 Y86.423 E.53855
G1 X96.053 Y86.958 E.01683
G1 X83.947 Y74.852 E.53855
G1 X83.947 Y75.387 E.01683
G1 X96.053 Y87.493 E.53855
G1 X96.053 Y88.028 E.01683
G1 X83.947 Y75.922 E.53855
G1 X83.947 Y76.457 E.01683
M73 P16 R17
G1 X96.053 Y88.563 E.53855
G1 X96.053 Y89.098 E.01683
G1 X83.947 Y76.992 E.53855
G1 X83.947 Y77.527 E.01683
G1 X96.053 Y89.633 E.53855
G1 X96.053 Y90.168 E.01683
G1 X83.947 Y78.062 E.53855
G1 X83.947 Y78.597 E.01683
G1 X96.053 Y90.703 E.53855
G1 X96.053 Y91.238 E.01683
G1 X83.947 Y79.132 E.53855
G1 X83.947 Y79.667 E.01683
M73 P16 R16
G1 X96.053 Y91.773 E.53855
G1 X96.053 Y92.308 E.01683
G1 X83.947 Y80.202 E.53855
G1 X83.947 Y80.737 E.01683
G1 X96.053 Y92.843 E.53855
G1 X96.053 Y93.378 E.01683
G1 X83.947 Y81.272 E.53855
G1 X83.947 Y81.807 E.01683
G1 X96.053 Y93.913 E.53855
G1 X96.053 Y94.448 E.01683
G1 X83.947 Y82.342 E.53855
G1 X83.947 Y82.877 E.01683
G1 X96.053 Y94.983 E.53855
G1 X96.053 Y95.518 E.01683
G1 X83.947 Y83.412 E.53855
G1 X83.947 Y83.947 E.01683
M73 P17 R16
G1 X96.053 Y96.053 E.53855
G1 X96.053 Y96.588 E.01683
G1 X83.947 Y84.482 E.53855
G1 X83.947 Y85.017 E.01683
G1 X96.053 Y97.123 E.53855
G1 X96.053 Y97.658 E.01683
G1 X83.947 Y85.552 E.53855
G1 X83.947 Y86.087 E.01683
G1 X96.053 Y98.193 E.53855
G1 X96.053 Y98.728 E.01683
G1 X83.947 Y86.622 E.53855
G1 X83.947 Y87.157 E.01683
G1 X96.053 Y99.263 E.53855
G1 X96.053 Y99.798 E.01683
G1 X83.947 Y87.692 E.53855
G1 X83.947 Y88.227 E.01683
G1 X96.053 Y100.333 E.53855
G1 X96.053 Y100.868 E.01683
G1 X83.947 Y88.762 E.53855
G1 X83.947 Y89.297 E.01683
G1 X96.053 Y101.403 E.53855
G1 X96.053 Y101.938 E.01683
G1 X83.947 Y89.832 E.53855
G1 X83.947 Y90.367 E.01683
G1 X96.053 Y102.473 E.53855
G1 X96.053 Y103.008 E.01683
M73 P18 R16
G1 X83.947 Y90.902 E.53855
G1 X83.947 Y91.437 E.01683
G1 X96.053 Y103.543 E.53855
G1 X96.053 Y104.078 E.01683
G1 X83.947 Y91.972 E.53855
G1 X83.947 Y92.507 E.01683
G1 X96.053 Y104.613 E.53855
G1 X96.053 Y105.148 E.01683
G1 X83.947 Y93.042 E.53855
G1 X83.947 Y93.577 E.01683
G1 X96.053 Y105.683 E.53855
G1 X96.053 Y106.218 E.01683
G1 X83.947 Y94.112 E.53855
G1 X83.947 Y94.647 E.01683
G1 X96.053 Y106.753 E.53855
G1 X96.053 Y107.288 E.01683
G1 X83.947 Y95.182 E.53855
G1 X83.947 Y95.717 E.01683
G1 X96.053 Y107.823 E.53855
G1 X96.053 Y108.358 E.01683
G1 X83.947 Y96.252 E.53855
G1 X83.947 Y96.787 E.01683
G1 X96.053 Y108.893 E.53855
G1 X96.053 Y109.428 E.01683
G1 X83.947 Y97.322 E.53855
G1 X83.947 Y97.857 E.01683
G1 X96.053 Y109.963 E.53855
G1 X96.053 Y110.498 E.01683
M73 P19 R16
G1 X83.947 Y98.392 E.53855
G1 X83.947 Y98.927 E.01683
G1 X96.053 Y111.033 E.53855
G1 X96.053 Y111.568 E.01683
G1 X83.947 Y99.462 E.53855
G1 X83.947 Y99.997 E.01683
G1 X96.053 Y112.103 E.53855
G1 X96.053 Y112.638 E.01683
G1 X83.947 Y100.532 E.53855
G1 X83.947 Y101.067 E.01683
G1 X96.053 Y113.173 E.53855
G1 X96.053 Y113.708 E.01683
G1 X83.947 Y101.602 E.53855
G1 X83.947 Y102.137 E.01683
G1 X96.053 Y114.243 E.53855
G1 X96.053 Y114.778 E.01683
G1 X83.947 Y102.672 E.53855
G1 X83.947 Y103.207 E.01683
G1 X96.053 Y115.313 E.53855
G1 X96.053 Y115.848 E.01683
G1 X83.947 Y103.742 E.53855
G1 X83.947 Y104.277 E.01683
G1 X96.053 Y116.383 E.53855
G1 X96.053 Y116.918 E.01683
G1 X83.947 Y104.812 E.53855
G1 X83.947 Y105.347 E.01683
G1 X96.053 Y117.453 E.53855
G1 X96.053 Y117.988 E.01683
M73 P20 R16
G1 X83.947 Y105.882 E.53855
G1 X83.947 Y106.417 E.01683
G1 X96.053 Y118.523 E.53855
G1 X96.053 Y119.058 E.01683
G1 X83.947 Y106.952 E.53855
G1 X83.947 Y107.487 E.01683
G1 X96.053 Y119.593 E.53855
G1 X96.053 Y120.128 E.01683
G1 X83.947 Y108.022 E.53855
G1 X83.947 Y108.557 E.01683
G1 X96.053 Y120.663 E.53855
G1 X96.053 Y121.198 E.01683
G1 X83.947 Y109.092 E.53855
G1 X83.947 Y109.627 E.01683
G1 X96.053 Y121.733 E.53855
G1 X96.053 Y122.268 E.01683
G1 X83.947 Y110.162 E.53855
G1 X83.947 Y110.697 E.01683
G1 X96.053 Y122.803 E.53855
G1 X96.053 Y123.338 E.01683
G1 X83.947 Y111.232 E.53855
G1 X83.947 Y111.767 E.01683
G1 X96.053 Y123.873 E.53855
G1 X96.053 Y124.408 E.01683
G1 X83.947 Y112.302 E.53855
G1 X83.947 Y112.837 E.01683
M73 P21 R16
G1 X96.053 Y124.943 E.53855
G1 X96.053 Y125.478 E.01683
G1 X83.947 Y113.372 E.53855
G1 X83.947 Y113.907 E.01683
G1 X96.053 Y126.013 E.53855
G1 X96.053 Y126.548 E.01683
G1 X83.947 Y114.442 E.53855
G1 X83.947 Y114.977 E.01683
G1 X96.053 Y127.083 E.53855
G1 X96.053 Y127.618 E.01683
M73 P21 R15
G1 X83.947 Y115.512 E.53855
G1 X83.947 Y116.047 E.01683
G1 X96.053 Y128.153 E.53855
G1 X96.053 Y128.688 E.01683
G1 X83.947 Y116.582 E.53855
G1 X83.947 Y117.117 E.01683
G1 X96.053 Y129.223 E.53855
G1 X96.053 Y129.758 E.01683
G1 X83.947 Y117.652 E.53855
G1 X83.947 Y118.187 E.01683
G1 X96.053 Y130.293 E.53855
G1 X96.053 Y130.828 E.01683
G1 X83.947 Y118.722 E.53855
G1 X83.947 Y119.257 E.01683
G1 X96.053 Y131.363 E.53855
G1 X96.053 Y131.898 E.01683
G1 X83.947 Y119.792 E.53855
G1 X83.947 Y120.327 E.01683
M73 P22 R15
G1 X96.053 Y132.433 E.53855
G1 X96.053 Y132.968 E.01683
G1 X83.947 Y120.862 E.53855
G1 X83.947 Y121.397 E.01683
G1 X96.053 Y133.503 E.53855
G1 X96.053 Y134.038 E.01683
G1 X83.947 Y121.932 E.53855
G1 X83.947 Y122.467 E.01683
G1 X96.053 Y134.573 E.53855
G1 X96.053 Y135.108 E.01683
G1 X83.947 Y123.002 E.53855
G1 X83.947 Y123.537 E.01683
G1 X96.053 Y135.643 E.53855
G1 X96.053 Y136.178 E.01683
G1 X83.947 Y124.072 E.53855
G1 X83.947 Y124.607 E.01683
G1 X96.053 Y136.713 E.53855
G1 X96.053 Y137.248 E.01683
G1 X83.947 Y125.142 E.53855
G1 X83.947 Y125.677 E.01683
G1 X96.053 Y137.783 E.53855
G1 X96.053 Y138.318 E.01683
G1 X83.947 Y126.212 E.53855
G1 X83.947 Y126.747 E.01683
G1 X96.053 Y138.853 E.53855
G1 X96.053 Y139.388 E.01683
G1 X83.947 Y127.282 E.53855
M73 P23 R15
G1 X83.947 Y127.817 E.01683
G1 X96.053 Y139.923 E.53855
