; generated by PrusaSlicer 2.5.0+win64 on 2023-05-11 at 08:11:19 UTC


;
;

;
;
; 

; external perimeters extrusion width = 0.45mm
; perimeters extrusion width = 0.45mm
; infill extrusion width = 0.45mm
; solid infill extrusion width = 0.45mm
; top infill extrusion width = 0.40mm
; support material extrusion width = 0.35mm
; first layer extrusion width = 0.42mm

M73 P0 R31
M107
;TYPE:Custom
G90 ; use absolute coordinates
M83 ; extruder relative mode
M104 S170 ; set extruder temp for bed leveling
M140 S35 ; set bed temp
M109 R170 ; wait for bed leveling temp
M190 S35 ; wait for bed temp
G28 ; home all without mesh bed level
G29 ; mesh bed leveling 
M104 S202 ; set extruder temp
G92 E0.0
G1 Y-2.0 X179 F2400
G1 Z3 F720
M109 S202 ; wait for extruder temp

; intro line
G1 X170 F1000
G1 Z0.2 F720
G1 X110.0 E8.0 F900
G1 X40.0 E10.0 F700
G92 E0.0

M221 S95 ; set flow
G21 ; set units to millimeters
G90 ; use absolute coordinates
M83 ; use relative distances for extrusion
M900 K0.2 ; Filament gcode LA 1.5
; ; Filament gcode LA 1.0
M107
;LAYER_CHANGE
;Z:0.2
;HEIGHT:0.2
;BEFORE_LAYER_CHANGE
G92 E0.0
;0.2


G1 E-3.2 F4200
G1 Z.2 F10800
;AFTER_LAYER_CHANGE
;0.2
G1 Z.4
G1 X77.246 Y15
G1 Z.2
G1 E3.2 F2400
M204 S800
;TYPE:Skirt/Brim
;WIDTH:0.42
G1 F2100
G1 X77.639 Y13.583 E.04612
G1 X78.705 Y12.569 E.04612
G1 X80 Y12.246 E.04186
G1 X100 Y12.246 E.62709
G1 X101.417 Y12.639 E.04612
G1 X102.431 Y13.705 E.04612
G1 X102.754 Y15 E.04186
G1 X102.754 Y165 E4.70314
G1 X102.361 Y166.417 E.04612
M73 P1 R31
G1 X101.295 Y167.431 E.04612
G1 X100 Y167.754 E.04186
G1 X80 Y167.754 E.62709
G1 X78.583 Y167.361 E.04612
G1 X77.569 Y166.295 E.04612
G1 X77.246 Y165 E.04186
G1 X77.246 Y15.06 E4.70126
M204 S1250
G1 X77.623 Y15.06 F10800
M204 S800
G1 F2100
G1 X77.623 Y15 E.00188
G1 X78.015 Y13.693 E.04278
G1 X79.06 Y12.817 E.04278
G1 X80 Y12.623 E.03008
G1 X100 Y12.623 E.62709
G1 X101.307 Y13.015 E.04278
G1 X102.183 Y14.06 E.04278
G1 X102.377 Y15 E.03008
G1 X102.377 Y165 E4.70314
G1 X101.985 Y166.307 E.04278
G1 X100.94 Y167.183 E.04278
G1 X100 Y167.377 E.03008
G1 X80 Y167.377 E.62709
G1 X78.693 Y166.985 E.04278
M73 P1 R30
G1 X77.817 Y165.94 E.04278
G1 X77.623 Y165 E.03008
G1 X77.623 Y15.12 E4.69938
M204 S1250
; printing object dogbone_direkt.stl id:0 copy 0
G1 E-2.24 F4200
;WIPE_START
G1 F8640
G1 X77.623 Y15 E-.05542
G1 X78.015 Y13.693 E-.6301
G1 X78.39 Y13.378 E-.22648
;WIPE_END
G1 E-.048 F4200
G1 Z.4 F10800
G1 X99.858 Y15.326
G1 Z.2
G1 E3.2 F2400
M204 S800
;TYPE:Internal infill
G1 F2100
G1 X80.325 Y15.326 E.61245
G1 X80.325 Y15.734 E.01279
M73 P2 R30
G1 X99.675 Y15.734 E.60671
G1 X99.675 Y16.142 E.01279
G1 X80.325 Y16.142 E.60671
G1 X80.325 Y16.55 E.01279
G1 X99.675 Y16.55 E.60671
G1 X99.675 Y16.958 E.01279
G1 X80.325 Y16.958 E.60671
G1 X80.325 Y17.366 E.01279
G1 X99.675 Y17.366 E.60671
G1 X99.675 Y17.774 E.01279
G1 X80.325 Y17.774 E.60671
G1 X80.325 Y18.182 E.01279
G1 X99.675 Y18.182 E.60671
G1 X99.675 Y18.59 E.01279
G1 X80.325 Y18.59 E.60671
G1 X80.325 Y18.998 E.01279
G1 X99.675 Y18.998 E.60671
G1 X99.675 Y19.406 E.01279
G1 X80.325 Y19.406 E.60671
G1 X80.325 Y19.814 E.01279
G1 X99.675 Y19.814 E.60671
G1 X99.675 Y20.222 E.01279
G1 X80.325 Y20.222 E.60671
G1 X80.325 Y20.63 E.01279
G1 X99.675 Y20.63 E.60671
G1 X99.675 Y21.038 E.01279
G1 X80.325 Y21.038 E.60671
G1 X80.325 Y21.446 E.01279
G1 X99.675 Y21.446 E.60671
G1 X99.675 Y21.854 E.01279
G1 X80.325 Y21.854 E.60671
G1 X80.325 Y22.263 E.01279
G1 X99.675 Y22.263 E.60671
G1 X99.675 Y22.671 E.01279
G1 X80.325 Y22.671 E.60671
G1 X80.325 Y23.079 E.01279
G1 X99.675 Y23.079 E.60671
G1 X99.675 Y23.487 E.01279
G1 X80.325 Y23.487 E.60671
G1 X80.325 Y23.895 E.01279
G1 X99.675 Y23.895 E.60671
G1 X99.675 Y24.303 E.01279
G1 X80.325 Y24.303 E.60671
G1 X80.325 Y24.711 E.01279
G1 X99.675 Y24.711 E.60671
G1 X99.675 Y25.119 E.01279
G1 X80.325 Y25.119 E.60671
G1 X80.325 Y25.527 E.01279
G1 X99.675 Y25.527 E.60671
G1 X99.675 Y25.935 E.01279
G1 X80.325 Y25.935 E.60671
G1 X80.325 Y26.343 E.01279
G1 X99.675 Y26.343 E.60671
G1 X99.675 Y26.751 E.01279
G1 X80.325 Y26.751 E.60671
G1 X80.325 Y27.159 E.01279
G1 X99.675 Y27.159 E.60671
G1 X99.675 Y27.567 E.01279
G1 X80.325 Y27.567 E.60671
G1 X80.325 Y27.975 E.01279
G1 X99.675 Y27.975 E.60671
G1 X99.675 Y28.383 E.01279
M73 P3 R30
G1 X80.325 Y28.383 E.60671
G1 X80.325 Y28.791 E.01279
G1 X99.675 Y28.791 E.60671
G1 X99.675 Y29.199 E.01279
G1 X80.325 Y29.199 E.60671
G1 X80.325 Y29.608 E.01279
G1 X99.675 Y29.608 E.60671
G1 X99.675 Y30.016 E.01279
G1 X80.325 Y30.016 E.60671
G1 X80.325 Y30.424 E.01279
G1 X99.675 Y30.424 E.60671
G1 X99.675 Y30.832 E.01279
G1 X80.325 Y30.832 E.60671
G1 X80.325 Y31.24 E.01279
G1 X99.675 Y31.24 E.60671
G1 X99.675 Y31.648 E.01279
G1 X80.325 Y31.648 E.60671
G1 X80.325 Y32.056 E.01279
G1 X99.675 Y32.056 E.60671
G1 X99.675 Y32.464 E.01279
G1 X80.325 Y32.464 E.60671
G1 X80.325 Y32.872 E.01279
G1 X99.675 Y32.872 E.60671
G1 X99.675 Y33.28 E.01279
G1 X80.325 Y33.28 E.60671
G1 X80.325 Y33.688 E.01279
G1 X99.675 Y33.688 E.60671
G1 X99.675 Y34.096 E.01279
G1 X80.325 Y34.096 E.60671
G1 X80.325 Y34.504 E.01279
G1 X99.675 Y34.504 E.60671
G1 X99.675 Y34.912 E.01279
G1 X80.325 Y34.912 E.60671
G1 X80.325 Y35.32 E.01279
G1 X99.675 Y35.32 E.60671
G1 X99.675 Y35.728 E.01279
G1 X80.325 Y35.728 E.60671
G1 X80.325 Y35.938 E.00657
G1 X80.404 Y36.136 E.00669
G1 X99.596 Y36.136 E.60178
G1 X99.435 Y36.545 E.01376
G1 X80.565 Y36.545 E.59166
G1 X80.726 Y36.953 E.01376
G1 X99.274 Y36.953 E.58153
G1 X99.112 Y37.361 E.01376
G1 X80.888 Y37.361 E.57141
G1 X81.049 Y37.769 E.01376
G1 X98.951 Y37.769 E.56128
G1 X98.789 Y38.177 E.01376
G1 X81.211 Y38.177 E.55115
G1 X81.372 Y38.585 E.01376
G1 X98.628 Y38.585 E.54103
G1 X98.466 Y38.993 E.01376
G1 X81.534 Y38.993 E.5309
G1 X81.695 Y39.401 E.01376
G1 X98.305 Y39.401 E.52078
G1 X98.15 Y39.809 E.01368
G1 X81.85 Y39.809 E.51109
G1 X81.98 Y40.217 E.01343
G1 X98.02 Y40.217 E.50294
G1 X97.89 Y40.625 E.01343
G1 X82.11 Y40.625 E.49479
G1 X82.24 Y41.033 E.01343
G1 X97.76 Y41.033 E.48665
G1 X97.631 Y41.441 E.01343
G1 X82.369 Y41.441 E.4785
G1 X82.499 Y41.849 E.01343
M73 P4 R30
G1 X97.501 Y41.849 E.47035
G1 X97.371 Y42.257 E.01343
G1 X82.629 Y42.257 E.4622
G1 X82.759 Y42.665 E.01343
G1 X97.241 Y42.665 E.45406
G1 X97.111 Y43.073 E.01343
G1 X82.889 Y43.073 E.44591
G1 X83.019 Y43.481 E.01343
G1 X96.981 Y43.481 E.43776
G1 X96.868 Y43.89 E.01327
G1 X83.132 Y43.89 E.4307
G1 X83.232 Y44.298 E.01317
G1 X96.768 Y44.298 E.42444
G1 X96.669 Y44.706 E.01317
G1 X83.331 Y44.706 E.41819
G1 X83.431 Y45.114 E.01317
G1 X96.569 Y45.114 E.41193
G1 X96.469 Y45.522 E.01317
G1 X83.531 Y45.522 E.40568
G1 X83.63 Y45.93 E.01317
G1 X96.37 Y45.93 E.39942
G1 X96.27 Y46.338 E.01317
G1 X83.73 Y46.338 E.39317
G1 X83.83 Y46.746 E.01317
G1 X96.17 Y46.746 E.38691
G1 X96.07 Y47.154 E.01317
G1 X83.93 Y47.154 E.38066
G1 X84.029 Y47.562 E.01317
G1 X95.971 Y47.562 E.37441
G1 X95.892 Y47.97 E.01303
G1 X84.108 Y47.97 E.36948
G1 X84.179 Y48.378 E.01298
G1 X95.821 Y48.378 E.36505
G1 X95.751 Y48.786 E.01298
G1 X84.249 Y48.786 E.36063
G1 X84.32 Y49.194 E.01298
G1 X95.68 Y49.194 E.35621
G1 X95.61 Y49.602 E.01298
G1 X84.39 Y49.602 E.35179
G1 X84.461 Y50.01 E.01298
G1 X95.539 Y50.01 E.34737
G1 X95.469 Y50.418 E.01298
G1 X84.531 Y50.418 E.34295
G1 X84.602 Y50.826 E.01298
G1 X95.398 Y50.826 E.33853
G1 X95.328 Y51.235 E.01298
G1 X84.672 Y51.235 E.33411
G1 X84.743 Y51.643 E.01298
G1 X95.257 Y51.643 E.32969
G1 X95.208 Y52.051 E.01289
G1 X84.792 Y52.051 E.32657
G1 X84.834 Y52.459 E.01286
G1 X95.165 Y52.459 E.32393
G1 X95.123 Y52.867 E.01286
G1 X84.876 Y52.867 E.32129
G1 X84.918 Y53.275 E.01286
G1 X95.081 Y53.275 E.31864
G1 X95.039 Y53.683 E.01286
G1 X84.96 Y53.683 E.316
G1 X85.002 Y54.091 E.01286
G1 X94.996 Y54.091 E.31336
G1 X94.954 Y54.499 E.01286
G1 X85.044 Y54.499 E.31072
G1 X85.086 Y54.907 E.01286
G1 X94.912 Y54.907 E.30807
G1 X94.869 Y55.315 E.01286
G1 X85.128 Y55.315 E.30543
G1 X85.17 Y55.723 E.01286
G1 X94.827 Y55.723 E.30279
G1 X94.809 Y56.131 E.01281
G1 X85.194 Y56.131 E.30148
G1 X85.208 Y56.539 E.0128
G1 X94.795 Y56.539 E.30061
G1 X94.781 Y56.947 E.0128
G1 X85.221 Y56.947 E.29973
G1 X85.235 Y57.355 E.0128
G1 X94.767 Y57.355 E.29885
G1 X94.752 Y57.763 E.0128
G1 X85.249 Y57.763 E.29797
G1 X85.263 Y58.172 E.0128
G1 X94.738 Y58.172 E.29709
G1 X94.724 Y58.58 E.0128
G1 X85.277 Y58.58 E.29621
G1 X85.291 Y58.988 E.0128
M73 P4 R29
G1 X94.71 Y58.988 E.29533
G1 X94.696 Y59.396 E.0128
G1 X85.305 Y59.396 E.29445
G1 X85.319 Y59.804 E.0128
G1 X94.682 Y59.804 E.29357
G1 X94.675 Y60.212 E.0128
G1 X85.325 Y60.212 E.29316
G1 X85.325 Y60.62 E.01279
G1 X94.675 Y60.62 E.29316
G1 X94.675 Y61.028 E.01279
G1 X85.325 Y61.028 E.29316
G1 X85.325 Y61.436 E.01279
G1 X94.675 Y61.436 E.29316
G1 X94.675 Y61.844 E.01279
G1 X85.325 Y61.844 E.29316
G1 X85.325 Y62.252 E.01279
G1 X94.675 Y62.252 E.29316
M73 P5 R29
G1 X94.675 Y62.66 E.01279
G1 X85.325 Y62.66 E.29316
G1 X85.325 Y63.068 E.01279
G1 X94.675 Y63.068 E.29316
G1 X94.675 Y63.476 E.01279
G1 X85.325 Y63.476 E.29316
G1 X85.325 Y63.884 E.01279
G1 X94.675 Y63.884 E.29316
G1 X94.675 Y64.292 E.01279
G1 X85.325 Y64.292 E.29316
G1 X85.325 Y64.7 E.01279
G1 X94.675 Y64.7 E.29316
G1 X94.675 Y65.108 E.01279
G1 X85.325 Y65.108 E.29316
G1 X85.325 Y65.517 E.01279
G1 X94.675 Y65.517 E.29316
G1 X94.675 Y65.925 E.01279
G1 X85.325 Y65.925 E.29316
G1 X85.325 Y66.333 E.01279
G1 X94.675 Y66.333 E.29316
G1 X94.675 Y66.741 E.01279
G1 X85.325 Y66.741 E.29316
G1 X85.325 Y67.149 E.01279
G1 X94.675 Y67.149 E.29316
G1 X94.675 Y67.557 E.01279
G1 X85.325 Y67.557 E.29316
G1 X85.325 Y67.965 E.01279
G1 X94.675 Y67.965 E.29316
G1 X94.675 Y68.373 E.01279
G1 X85.325 Y68.373 E.29316
G1 X85.325 Y68.781 E.01279
G1 X94.675 Y68.781 E.29316
G1 X94.675 Y69.189 E.01279
G1 X85.325 Y69.189 E.29316
G1 X85.325 Y69.597 E.01279
G1 X94.675 Y69.597 E.29316
G1 X94.675 Y70.005 E.01279
G1 X85.325 Y70.005 E.29316
G1 X85.325 Y70.413 E.01279
G1 X94.675 Y70.413 E.29316
G1 X94.675 Y70.821 E.01279
G1 X85.325 Y70.821 E.29316
G1 X85.325 Y71.229 E.01279
G1 X94.675 Y71.229 E.29316
G1 X94.675 Y71.637 E.01279
G1 X85.325 Y71.637 E.29316
G1 X85.325 Y72.045 E.01279
G1 X94.675 Y72.045 E.29316
G1 X94.675 Y72.454 E.01279
G1 X85.325 Y72.454 E.29316
G1 X85.325 Y72.862 E.01279
G1 X94.675 Y72.862 E.29316
G1 X94.675 Y73.27 E.01279
G1 X85.325 Y73.27 E.29316
G1 X85.325 Y73.678 E.01279
G1 X94.675 Y73.678 E.29316
G1 X94.675 Y74.086 E.01279
G1 X85.325 Y74.086 E.29316
G1 X85.325 Y74.494 E.01279
G1 X94.675 Y74.494 E.29316
G1 X94.675 Y74.902 E.01279
G1 X85.325 Y74.902 E.29316
G1 X85.325 Y75.31 E.01279
G1 X94.675 Y75.31 E.29316
G1 X94.675 Y75.718 E.01279
G1 X85.325 Y75.718 E.29316
G1 X85.325 Y76.126 E.01279
G1 X94.675 Y76.126 E.29316
G1 X94.675 Y76.534 E.01279
G1 X85.325 Y76.534 E.29316
G1 X85.325 Y76.942 E.01279
G1 X94.675 Y76.942 E.29316
G1 X94.675 Y77.35 E.01279
G1 X85.325 Y77.35 E.29316
G1 X85.325 Y77.758 E.01279
G1 X94.675 Y77.758 E.29316
G1 X94.675 Y78.166 E.01279
G1 X85.325 Y78.166 E.29316
G1 X85.325 Y78.574 E.01279
G1 X94.675 Y78.574 E.29316
G1 X94.675 Y78.982 E.01279
G1 X85.325 Y78.982 E.29316
G1 X85.325 Y79.39 E.01279
G1 X94.675 Y79.39 E.29316
G1 X94.675 Y79.799 E.01279
G1 X85.325 Y79.799 E.29316
G1 X85.325 Y80.207 E.01279
G1 X94.675 Y80.207 E.29316
G1 X94.675 Y80.615 E.01279
G1 X85.325 Y80.615 E.29316
G1 X85.325 Y81.023 E.01279
G1 X94.675 Y81.023 E.29316
G1 X94.675 Y81.431 E.01279
G1 X85.325 Y81.431 E.29316
G1 X85.325 Y81.839 E.01279
G1 X94.675 Y81.839 E.29316
G1 X94.675 Y82.247 E.01279
G1 X85.325 Y82.247 E.29316
G1 X85.325 Y82.655 E.01279
G1 X94.675 Y82.655 E.29316
G1 X94.675 Y83.063 E.01279
G1 X85.325 Y83.063 E.29316
G1 X85.325 Y83.471 E.01279
G1 X94.675 Y83.471 E.29316
G1 X94.675 Y83.879 E.01279
G1 X85.325 Y83.879 E.29316
G1 X85.325 Y84.287 E.01279
G1 X94.675 Y84.287 E.29316
G1 X94.675 Y84.695 E.01279
G1 X85.325 Y84.695 E.29316
G1 X85.325 Y85.103 E.01279
G1 X94.675 Y85.103 E.29316
G1 X94.675 Y85.511 E.01279
G1 X85.325 Y85.511 E.29316
G1 X85.325 Y85.919 E.01279
G1 X94.675 Y85.919 E.29316
G1 X94.675 Y86.327 E.01279
M73 P6 R29
G1 X85.325 Y86.327 E.29316
G1 X85.325 Y86.736 E.01279
G1 X94.675 Y86.736 E.29316
G1 X94.675 Y87.144 E.01279
G1 X85.325 Y87.144 E.29316
G1 X85.325 Y87.552 E.01279
G1 X94.675 Y87.552 E.29316
G1 X94.675 Y87.96 E.01279
G1 X85.325 Y87.96 E.29316
G1 X85.325 Y88.368 E.01279
G1 X94.675 Y88.368 E.29316
G1 X94.675 Y88.776 E.01279
G1 X85.325 Y88.776 E.29316
G1 X85.325 Y89.184 E.01279
G1 X94.675 Y89.184 E.29316
G1 X94.675 Y89.592 E.01279
G1 X85.325 Y89.592 E.29316
G1 X85.325 Y90 E.01279
G1 X94.675 Y90 E.29316
G1 X94.675 Y90.408 E.01279
G1 X85.325 Y90.408 E.29316
G1 X85.325 Y90.816 E.01279
G1 X94.675 Y90.816 E.29316
G1 X94.675 Y91.224 E.01279
G1 X85.325 Y91.224 E.29316
G1 X85.325 Y91.632 E.01279
G1 X94.675 Y91.632 E.29316
G1 X94.675 Y92.04 E.01279
G1 X85.325 Y92.04 E.29316
G1 X85.325 Y92.448 E.01279
G1 X94.675 Y92.448 E.29316
G1 X94.675 Y92.856 E.01279
G1 X85.325 Y92.856 E.29316
G1 X85.325 Y93.264 E.01279
G1 X94.675 Y93.264 E.29316
G1 X94.675 Y93.672 E.01279
G1 X85.325 Y93.672 E.29316
G1 X85.325 Y94.081 E.01279
G1 X94.675 Y94.081 E.29316
G1 X94.675 Y94.489 E.01279
G1 X85.325 Y94.489 E.29316
G1 X85.325 Y94.897 E.01279
G1 X94.675 Y94.897 E.29316
G1 X94.675 Y95.305 E.01279
G1 X85.325 Y95.305 E.29316
G1 X85.325 Y95.713 E.01279
G1 X94.675 Y95.713 E.29316
G1 X94.675 Y96.121 E.01279
G1 X85.325 Y96.121 E.29316
G1 X85.325 Y96.529 E.01279
G1 X94.675 Y96.529 E.29316
G1 X94.675 Y96.937 E.01279
G1 X85.325 Y96.937 E.29316
G1 X85.325 Y97.345 E.01279
G1 X94.675 Y97.345 E.29316
G1 X94.675 Y97.753 E.01279
G1 X85.325 Y97.753 E.29316
G1 X85.325 Y98.161 E.01279
G1 X94.675 Y98.161 E.29316
G1 X94.675 Y98.569 E.01279
G1 X85.325 Y98.569 E.29316
G1 X85.325 Y98.977 E.01279
G1 X94.675 Y98.977 E.29316
G1 X94.675 Y99.385 E.01279
G1 X85.325 Y99.385 E.29316
G1 X85.325 Y99.793 E.01279
G1 X94.675 Y99.793 E.29316
G1 X94.675 Y100.201 E.01279
G1 X85.325 Y100.201 E.29316
G1 X85.325 Y100.609 E.01279
G1 X94.675 Y100.609 E.29316
G1 X94.675 Y101.018 E.01279
G1 X85.325 Y101.018 E.29316
G1 X85.325 Y101.426 E.01279
G1 X94.675 Y101.426 E.29316
G1 X94.675 Y101.834 E.01279
G1 X85.325 Y101.834 E.29316
G1 X85.325 Y102.242 E.01279
G1 X94.675 Y102.242 E.29316
G1 X94.675 Y102.65 E.01279
G1 X85.325 Y102.65 E.29316
G1 X85.325 Y103.058 E.01279
G1 X94.675 Y103.058 E.29316
G1 X94.675 Y103.466 E.01279
G1 X85.325 Y103.466 E.29316
G1 X85.325 Y103.874 E.01279
G1 X94.675 Y103.874 E.29316
G1 X94.675 Y104.282 E.01279
G1 X85.325 Y104.282 E.29316
G1 X85.325 Y104.69 E.01279
G1 X94.675 Y104.69 E.29316
G1 X94.675 Y105.098 E.01279
G1 X85.325 Y105.098 E.29316
G1 X85.325 Y105.506 E.01279
G1 X94.675 Y105.506 E.29316
G1 X94.675 Y105.914 E.01279
G1 X85.325 Y105.914 E.29316
G1 X85.325 Y106.322 E.01279
G1 X94.675 Y106.322 E.29316
G1 X94.675 Y106.73 E.01279
G1 X85.325 Y106.73 E.29316
G1 X85.325 Y107.138 E.01279
G1 X94.675 Y107.138 E.29316
G1 X94.675 Y107.546 E.01279
G1 X85.325 Y107.546 E.29316
G1 X85.325 Y107.954 E.01279
G1 X94.675 Y107.954 E.29316
G1 X94.675 Y108.363 E.01279
G1 X85.325 Y108.363 E.29316
G1 X85.325 Y108.771 E.01279
G1 X94.675 Y108.771 E.29316
G1 X94.675 Y109.179 E.01279
G1 X85.325 Y109.179 E.29316
G1 X85.325 Y109.587 E.01279
G1 X94.675 Y109.587 E.29316
G1 X94.675 Y109.995 E.01279
G1 X85.325 Y109.995 E.29316
G1 X85.325 Y110.403 E.01279
M73 P7 R29
G1 X94.675 Y110.403 E.29316
G1 X94.675 Y110.811 E.01279
G1 X85.325 Y110.811 E.29316
G1 X85.325 Y111.219 E.01279
G1 X94.675 Y111.219 E.29316
G1 X94.675 Y111.627 E.01279
G1 X85.325 Y111.627 E.29316
G1 X85.325 Y112.035 E.01279
G1 X94.675 Y112.035 E.29316
G1 X94.675 Y112.443 E.01279
G1 X85.325 Y112.443 E.29316
G1 X85.325 Y112.851 E.01279
G1 X94.675 Y112.851 E.29316
G1 X94.675 Y113.259 E.01279
G1 X85.325 Y113.259 E.29316
G1 X85.325 Y113.667 E.01279
G1 X94.675 Y113.667 E.29316
G1 X94.675 Y114.075 E.01279
G1 X85.325 Y114.075 E.29316
G1 X85.325 Y114.483 E.01279
G1 X94.675 Y114.483 E.29316
G1 X94.675 Y114.891 E.01279
G1 X85.325 Y114.891 E.29316
G1 X85.325 Y115.3 E.01279
G1 X94.675 Y115.3 E.29316
G1 X94.675 Y115.708 E.01279
G1 X85.325 Y115.708 E.29316
G1 X85.325 Y116.116 E.01279
G1 X94.675 Y116.116 E.29316
G1 X94.675 Y116.524 E.01279
G1 X85.325 Y116.524 E.29316
