; generated by PrusaSlicer 2.5.0+win64 on 2023-05-11 at 17:42:15 UTC


;
;

;
;
; 

; external perimeters extrusion width = 0.45mm
; perimeters extrusion width = 0.45mm
; infill extrusion width = 0.45mm
; solid infill extrusion width = 0.45mm
; top infill extrusion width = 0.40mm
; support material extrusion width = 0.35mm
; first layer extrusion width = 0.42mm

M73 P0 R170
M107
;TYPE:Custom
G90 ; use absolute coordinates
M83 ; extruder relative mode
M104 S170 ; set extruder temp for bed leveling
M140 S35 ; set bed temp
M109 R170 ; wait for bed leveling temp
M190 S35 ; wait for bed temp
G28 ; home all without mesh bed level
G29 ; mesh bed leveling 
M104 S202 ; set extruder temp
G92 E0.0
G1 Y-2.0 X179 F2400
G1 Z3 F720
M109 S202 ; wait for extruder temp

; intro line
G1 X170 F1000
G1 Z0.2 F720
G1 X110.0 E8.0 F900
G1 X40.0 E10.0 F700
G92 E0.0

M221 S95 ; set flow
G21 ; set units to millimeters
G90 ; use absolute coordinates
M83 ; use relative distances for extrusion
M900 K0.2 ; Filament gcode LA 1.5
; ; Filament gcode LA 1.0
M107
;LAYER_CHANGE
;Z:0.2
;HEIGHT:0.2
;BEFORE_LAYER_CHANGE
G92 E0.0
;0.2


G1 E-3.2 F4200
G1 Z.2 F10800
;AFTER_LAYER_CHANGE
;0.2
G1 Z.4
G1 X8.705 Y10.069
G1 Z.2
G1 E3.2 F2400
M204 S800
;TYPE:Skirt/Brim
;WIDTH:0.42
G1 F2100
G1 X10 Y9.746 E.04186
G1 X170 Y9.746 E5.01669
G1 X171.417 Y10.139 E.04612
G1 X172.431 Y11.205 E.04612
G1 X172.754 Y12.5 E.04186
G1 X172.754 Y167.5 E4.85992
G1 X172.361 Y168.917 E.04612
G1 X171.295 Y169.931 E.04612
G1 X170 Y170.254 E.04186
G1 X10 Y170.254 E5.01669
G1 X8.583 Y169.861 E.04612
G1 X7.569 Y168.795 E.04612
G1 X7.246 Y167.5 E.04186
G1 X7.246 Y12.5 E4.85992
G1 X7.639 Y11.083 E.04612
G1 X8.661 Y10.111 E.04424
M204 S1250
G1 X8.927 Y10.428 F10800
M204 S800
G1 F2100
G1 X9.06 Y10.317 E.00544
G1 X10 Y10.123 E.03008
G1 X170 Y10.123 E5.01669
G1 X171.307 Y10.515 E.04278
G1 X172.183 Y11.56 E.04278
G1 X172.377 Y12.5 E.03008
G1 X172.377 Y167.5 E4.85992
G1 X171.985 Y168.807 E.04278
G1 X170.94 Y169.683 E.04278
G1 X170 Y169.877 E.03008
G1 X10 Y169.877 E5.01669
G1 X8.693 Y169.485 E.04278
G1 X7.817 Y168.44 E.04278
G1 X7.623 Y167.5 E.03008
G1 X7.623 Y12.5 E4.85992
G1 X8.015 Y11.193 E.04278
M73 P0 R169
G1 X8.881 Y10.467 E.03546
M204 S1250
; printing object zugproben_platte.stl id:0 copy 0
G1 E-2.24 F4200
;WIPE_START
G1 F8640
G1 X9.06 Y10.317 E-.10786
G1 X10 Y10.123 E-.4431
G1 X10.782 Y10.123 E-.36104
;WIPE_END
G1 E-.048 F4200
G1 Z.4 F10800
G1 X11.064 Y13.564
G1 Z.2
G1 E3.2 F2400
M204 S800
;TYPE:Perimeter
;WIDTH:0.419999
G1 F2100
G1 X168.936 Y13.564 E4.94995
G1 X168.936 Y166.436 E4.79318
G1 X11.064 Y166.436 E4.94995
G1 X11.064 Y13.624 E4.7913
M204 S1250
G1 X10.687 Y13.187 F10800
M204 S800
G1 F2100
G1 X169.313 Y13.187 E4.97359
G1 X169.313 Y166.813 E4.81682
G1 X10.687 Y166.813 E4.97359
G1 X10.687 Y13.247 E4.81494
M204 S1250
G1 X10.31 Y12.81 F10800
M204 S800
;TYPE:External perimeter
G1 F2100
G1 X169.69 Y12.81 E4.99724
G1 X169.69 Y167.19 E4.84047
G1 X10.31 Y167.19 E4.99724
G1 X10.31 Y12.87 E4.83859
M204 S1250
M73 P1 R169
G1 X10.697 Y12.911 F10800
G1 E-3.2 F4200
G1 Z.4 F10800
G1 X168.06 Y13.677
G1 Z.2
G1 E3.2 F2400
M204 P200
;TYPE:Solid infill
;WIDTH:0.420002
G1 F2100
G1 X168.653 Y14.27 E.02628
G1 X168.653 Y14.803 E.01672
G1 X167.697 Y13.847 E.0424
G1 X167.164 Y13.847 E.01672
G1 X168.653 Y15.336 E.06605
G1 X168.653 Y15.87 E.01672
G1 X166.63 Y13.847 E.08969
G1 X166.097 Y13.847 E.01672
G1 X168.653 Y16.403 E.11334
G1 X168.653 Y16.936 E.01672
G1 X165.564 Y13.847 E.13698
G1 X165.03 Y13.847 E.01672
G1 X168.653 Y17.47 E.16063
G1 X168.653 Y18.003 E.01672
G1 X164.497 Y13.847 E.18428
G1 X163.964 Y13.847 E.01672
G1 X168.653 Y18.536 E.20792
G1 X168.653 Y19.069 E.01672
G1 X163.431 Y13.847 E.23157
G1 X162.897 Y13.847 E.01672
G1 X168.653 Y19.603 E.25522
G1 X168.653 Y20.136 E.01672
G1 X162.364 Y13.847 E.27886
G1 X161.831 Y13.847 E.01672
G1 X168.653 Y20.669 E.30251
G1 X168.653 Y21.202 E.01672
G1 X161.298 Y13.847 E.32616
G1 X160.764 Y13.847 E.01672
G1 X168.653 Y21.736 E.3498
G1 X168.653 Y22.269 E.01672
G1 X160.231 Y13.847 E.37345
G1 X159.698 Y13.847 E.01672
G1 X168.653 Y22.802 E.3971
G1 X168.653 Y23.336 E.01672
G1 X159.164 Y13.847 E.42074
G1 X158.631 Y13.847 E.01672
G1 X168.653 Y23.869 E.44439
G1 X168.653 Y24.402 E.01672
G1 X158.098 Y13.847 E.46803
G1 X157.565 Y13.847 E.01672
G1 X168.653 Y24.935 E.49168
G1 X168.653 Y25.469 E.01672
G1 X157.031 Y13.847 E.51533
G1 X156.498 Y13.847 E.01672
G1 X168.653 Y26.002 E.53897
G1 X168.653 Y26.535 E.01672
G1 X155.965 Y13.847 E.56262
G1 X155.432 Y13.847 E.01672
G1 X168.653 Y27.068 E.58627
G1 X168.653 Y27.602 E.01672
G1 X154.898 Y13.847 E.60991
G1 X154.365 Y13.847 E.01672
G1 X168.653 Y28.135 E.63356
G1 X168.653 Y28.668 E.01672
G1 X153.832 Y13.847 E.65721
G1 X153.298 Y13.847 E.01672
G1 X168.653 Y29.202 E.68085
G1 X168.653 Y29.735 E.01672
G1 X152.765 Y13.847 E.7045
G1 X152.232 Y13.847 E.01672
G1 X168.653 Y30.268 E.72815
G1 X168.653 Y30.801 E.01672
G1 X151.699 Y13.847 E.75179
G1 X151.165 Y13.847 E.01672
G1 X168.653 Y31.335 E.77544
G1 X168.653 Y31.868 E.01672
G1 X150.632 Y13.847 E.79908
G1 X150.099 Y13.847 E.01672
G1 X168.653 Y32.401 E.82273
G1 X168.653 Y32.934 E.01672
G1 X149.566 Y13.847 E.84638
G1 X149.032 Y13.847 E.01672
G1 X168.653 Y33.468 E.87002
G1 X168.653 Y34.001 E.01672
G1 X148.499 Y13.847 E.89367
G1 X147.966 Y13.847 E.01672
G1 X168.653 Y34.534 E.91732
G1 X168.653 Y35.068 E.01672
G1 X147.432 Y13.847 E.94096
G1 X146.899 Y13.847 E.01672
G1 X168.653 Y35.601 E.96461
G1 X168.653 Y36.134 E.01672
G1 X146.366 Y13.847 E.98826
G1 X145.833 Y13.847 E.01672
G1 X168.653 Y36.667 E1.0119
G1 X168.653 Y37.201 E.01672
G1 X145.299 Y13.847 E1.03555
G1 X144.766 Y13.847 E.01672
G1 X168.653 Y37.734 E1.0592
G1 X168.653 Y38.267 E.01672
G1 X144.233 Y13.847 E1.08284
G1 X143.7 Y13.847 E.01672
G1 X168.653 Y38.8 E1.10649
G1 X168.653 Y39.334 E.01672
G1 X143.166 Y13.847 E1.13013
G1 X142.633 Y13.847 E.01672
G1 X168.653 Y39.867 E1.15378
G1 X168.653 Y40.4 E.01672
G1 X142.1 Y13.847 E1.17743
G1 X141.566 Y13.847 E.01672
G1 X168.653 Y40.934 E1.20107
G1 X168.653 Y41.467 E.01672
G1 X141.033 Y13.847 E1.22472
G1 X140.5 Y13.847 E.01672
G1 X168.653 Y42 E1.24837
G1 X168.653 Y42.533 E.01672
G1 X139.967 Y13.847 E1.27201
G1 X139.433 Y13.847 E.01672
G1 X168.653 Y43.067 E1.29566
G1 X168.653 Y43.6 E.01672
G1 X138.9 Y13.847 E1.31931
G1 X138.367 Y13.847 E.01672
G1 X168.653 Y44.133 E1.34295
G1 X168.653 Y44.667 E.01672
G1 X137.833 Y13.847 E1.3666
G1 X137.3 Y13.847 E.01672
G1 X168.653 Y45.2 E1.39025
G1 X168.653 Y45.733 E.01672
G1 X136.767 Y13.847 E1.41389
G1 X136.234 Y13.847 E.01672
G1 X168.653 Y46.266 E1.43754
G1 X168.653 Y46.8 E.01672
G1 X135.7 Y13.847 E1.46118
G1 X135.167 Y13.847 E.01672
G1 X168.653 Y47.333 E1.48483
G1 X168.653 Y47.866 E.01672
G1 X134.634 Y13.847 E1.50848
G1 X134.101 Y13.847 E.01672
G1 X168.653 Y48.399 E1.53212
G1 X168.653 Y48.933 E.01672
G1 X133.567 Y13.847 E1.55577
G1 X133.034 Y13.847 E.01672
G1 X168.653 Y49.466 E1.57942
G1 X168.653 Y49.999 E.01672
G1 X132.501 Y13.847 E1.60306
G1 X131.967 Y13.847 E.01672
G1 X168.653 Y50.533 E1.62671
G1 X168.653 Y51.066 E.01672
G1 X131.434 Y13.847 E1.65036
G1 X130.901 Y13.847 E.01672
G1 X168.653 Y51.599 E1.674
G1 X168.653 Y52.132 E.01672
G1 X130.368 Y13.847 E1.69765
G1 X129.834 Y13.847 E.01672
G1 X168.653 Y52.666 E1.7213
G1 X168.653 Y53.199 E.01672
G1 X129.301 Y13.847 E1.74494
G1 X128.768 Y13.847 E.01672
G1 X168.653 Y53.732 E1.76859
G1 X168.653 Y54.265 E.01672
G1 X128.235 Y13.847 E1.79223
G1 X127.701 Y13.847 E.01672
G1 X168.653 Y54.799 E1.81588
G1 X168.653 Y55.332 E.01672
G1 X127.168 Y13.847 E1.83953
G1 X126.635 Y13.847 E.01672
G1 X168.653 Y55.865 E1.86317
G1 X168.653 Y56.399 E.01672
G1 X126.101 Y13.847 E1.88682
G1 X125.568 Y13.847 E.01672
G1 X168.653 Y56.932 E1.91047
G1 X168.653 Y57.465 E.01672
G1 X125.035 Y13.847 E1.93411
G1 X124.502 Y13.847 E.01672
G1 X168.653 Y57.998 E1.95776
G1 X168.653 Y58.532 E.01672
G1 X123.968 Y13.847 E1.98141
G1 X123.435 Y13.847 E.01672
G1 X168.653 Y59.065 E2.00505
G1 X168.653 Y59.598 E.01672
G1 X122.902 Y13.847 E2.0287
G1 X122.369 Y13.847 E.01672
G1 X168.653 Y60.131 E2.05235
G1 X168.653 Y60.665 E.01672
G1 X121.835 Y13.847 E2.07599
G1 X121.302 Y13.847 E.01672
G1 X168.653 Y61.198 E2.09964
G1 X168.653 Y61.731 E.01672
G1 X120.769 Y13.847 E2.12328
G1 X120.235 Y13.847 E.01672
G1 X168.653 Y62.265 E2.14693
G1 X168.653 Y62.798 E.01672
G1 X119.702 Y13.847 E2.17058
G1 X119.169 Y13.847 E.01672
G1 X168.653 Y63.331 E2.19422
G1 X168.653 Y63.864 E.01672
G1 X118.636 Y13.847 E2.21787
G1 X118.102 Y13.847 E.01672
G1 X168.653 Y64.398 E2.24152
G1 X168.653 Y64.931 E.01672
G1 X117.569 Y13.847 E2.26516
G1 X117.036 Y13.847 E.01672
G1 X168.653 Y65.464 E2.28881
G1 X168.653 Y65.997 E.01672
G1 X116.503 Y13.847 E2.31246
G1 X115.969 Y13.847 E.01672
G1 X168.653 Y66.531 E2.3361
G1 X168.653 Y67.064 E.01672
G1 X115.436 Y13.847 E2.35975
G1 X114.903 Y13.847 E.01672
G1 X168.653 Y67.597 E2.3834
G1 X168.653 Y68.131 E.01672
G1 X114.369 Y13.847 E2.40704
G1 X113.836 Y13.847 E.01672
G1 X168.653 Y68.664 E2.43069
G1 X168.653 Y69.197 E.01672
G1 X113.303 Y13.847 E2.45433
G1 X112.77 Y13.847 E.01672
G1 X168.653 Y69.73 E2.47798
G1 X168.653 Y70.264 E.01672
G1 X112.236 Y13.847 E2.50163
G1 X111.703 Y13.847 E.01672
G1 X168.653 Y70.797 E2.52527
G1 X168.653 Y71.33 E.01672
G1 X111.17 Y13.847 E2.54892
G1 X110.636 Y13.847 E.01672
G1 X168.653 Y71.864 E2.57257
G1 X168.653 Y72.397 E.01672
G1 X110.103 Y13.847 E2.59621
G1 X109.57 Y13.847 E.01672
G1 X168.653 Y72.93 E2.61986
G1 X168.653 Y73.463 E.01672
G1 X109.037 Y13.847 E2.64351
G1 X108.503 Y13.847 E.01672
G1 X168.653 Y73.997 E2.66715
G1 X168.653 Y74.53 E.01672
G1 X107.97 Y13.847 E2.6908
G1 X107.437 Y13.847 E.01672
G1 X168.653 Y75.063 E2.71445
G1 X168.653 Y75.596 E.01672
G1 X106.904 Y13.847 E2.73809
G1 X106.37 Y13.847 E.01672
G1 X168.653 Y76.13 E2.76174
G1 X168.653 Y76.663 E.01672
G1 X105.837 Y13.847 E2.78539
G1 X105.304 Y13.847 E.01672
G1 X168.653 Y77.196 E2.80903
G1 X168.653 Y77.73 E.01672
G1 X104.77 Y13.847 E2.83268
G1 X104.237 Y13.847 E.01672
G1 X168.653 Y78.263 E2.85632
G1 X168.653 Y78.796 E.01672
G1 X103.704 Y13.847 E2.87997
G1 X103.171 Y13.847 E.01672
G1 X168.653 Y79.329 E2.90362
G1 X168.653 Y79.863 E.01672
G1 X102.637 Y13.847 E2.92726
G1 X102.104 Y13.847 E.01672
G1 X168.653 Y80.396 E2.95091
G1 X168.653 Y80.929 E.01672
G1 X101.571 Y13.847 E2.97456
G1 X101.038 Y13.847 E.01672
G1 X168.653 Y81.462 E2.9982
G1 X168.653 Y81.996 E.01672
G1 X100.504 Y13.847 E3.02185
G1 X99.971 Y13.847 E.01672
G1 X168.653 Y82.529 E3.0455
G1 X168.653 Y83.062 E.01672
G1 X99.438 Y13.847 E3.06914
G1 X98.904 Y13.847 E.01672
G1 X168.653 Y83.596 E3.09279
G1 X168.653 Y84.129 E.01672
G1 X98.371 Y13.847 E3.11644
G1 X97.838 Y13.847 E.01672
G1 X168.653 Y84.662 E3.14008
G1 X168.653 Y85.195 E.01672
G1 X97.305 Y13.847 E3.16373
G1 X96.771 Y13.847 E.01672
G1 X168.653 Y85.729 E3.18737
G1 X168.653 Y86.262 E.01672
G1 X96.238 Y13.847 E3.21102
G1 X95.705 Y13.847 E.01672
G1 X168.653 Y86.795 E3.23467
G1 X168.653 Y87.328 E.01672
G1 X95.172 Y13.847 E3.25831
G1 X94.638 Y13.847 E.01672
G1 X168.653 Y87.862 E3.28196
G1 X168.653 Y88.395 E.01672
G1 X94.105 Y13.847 E3.30561
G1 X93.572 Y13.847 E.01672
G1 X168.653 Y88.928 E3.32925
G1 X168.653 Y89.462 E.01672
G1 X93.038 Y13.847 E3.3529
G1 X92.505 Y13.847 E.01672
G1 X168.653 Y89.995 E3.37655
G1 X168.653 Y90.528 E.01672
G1 X91.972 Y13.847 E3.40019
G1 X91.439 Y13.847 E.01672
G1 X168.653 Y91.061 E3.42384
G1 X168.653 Y91.595 E.01672
G1 X90.905 Y13.847 E3.44749
G1 X90.372 Y13.847 E.01672
G1 X168.653 Y92.128 E3.47113
G1 X168.653 Y92.661 E.01672
G1 X89.839 Y13.847 E3.49478
G1 X89.306 Y13.847 E.01672
G1 X168.653 Y93.194 E3.51842
G1 X168.653 Y93.728 E.01672
G1 X88.772 Y13.847 E3.54207
G1 X88.239 Y13.847 E.01672
G1 X168.653 Y94.261 E3.56572
G1 X168.653 Y94.794 E.01672
G1 X87.706 Y13.847 E3.58936
G1 X87.172 Y13.847 E.01672
G1 X168.653 Y95.328 E3.61301
G1 X168.653 Y95.861 E.01672
G1 X86.639 Y13.847 E3.63666
G1 X86.106 Y13.847 E.01672
G1 X168.653 Y96.394 E3.6603
G1 X168.653 Y96.927 E.01672
G1 X85.573 Y13.847 E3.68395
G1 X85.039 Y13.847 E.01672
G1 X168.653 Y97.461 E3.7076
G1 X168.653 Y97.994 E.01672
G1 X84.506 Y13.847 E3.73124
G1 X83.973 Y13.847 E.01672
G1 X168.653 Y98.527 E3.75489
G1 X168.653 Y99.061 E.01672
G1 X83.439 Y13.847 E3.77854
G1 X82.906 Y13.847 E.01672
G1 X168.653 Y99.594 E3.80218
G1 X168.653 Y100.127 E.01672
G1 X82.373 Y13.847 E3.82583
G1 X81.84 Y13.847 E.01672
G1 X168.653 Y100.66 E3.84947
G1 X168.653 Y101.194 E.01672
G1 X81.306 Y13.847 E3.87312
G1 X80.773 Y13.847 E.01672
G1 X168.653 Y101.727 E3.89677
G1 X168.653 Y102.26 E.01672
G1 X80.24 Y13.847 E3.92041
G1 X79.707 Y13.847 E.01672
G1 X168.653 Y102.793 E3.94406
G1 X168.653 Y103.327 E.01672
G1 X79.173 Y13.847 E3.96771
G1 X78.64 Y13.847 E.01672
G1 X168.653 Y103.86 E3.99135
G1 X168.653 Y104.393 E.01672
G1 X78.107 Y13.847 E4.015
G1 X77.573 Y13.847 E.01672
G1 X168.653 Y104.927 E4.03865
G1 X168.653 Y105.46 E.01672
G1 X77.04 Y13.847 E4.06229
G1 X76.507 Y13.847 E.01672
G1 X168.653 Y105.993 E4.08594
G1 X168.653 Y106.526 E.01672
G1 X75.974 Y13.847 E4.10959
G1 X75.44 Y13.847 E.01672
G1 X168.653 Y107.06 E4.13323
G1 X168.653 Y107.593 E.01672
G1 X74.907 Y13.847 E4.15688
G1 X74.374 Y13.847 E.01672
G1 X168.653 Y108.126 E4.18052
G1 X168.653 Y108.659 E.01672
G1 X73.841 Y13.847 E4.20417
G1 X73.307 Y13.847 E.01672
G1 X168.653 Y109.193 E4.22782
G1 X168.653 Y109.726 E.01672
G1 X72.774 Y13.847 E4.25146
G1 X72.241 Y13.847 E.01672
G1 X168.653 Y110.259 E4.27511
G1 X168.653 Y110.793 E.01672
G1 X71.707 Y13.847 E4.29876
G1 X71.174 Y13.847 E.01672
G1 X168.653 Y111.326 E4.3224
G1 X168.653 Y111.859 E.01672
G1 X70.641 Y13.847 E4.34605
G1 X70.108 Y13.847 E.01672
G1 X168.653 Y112.392 E4.3697
G1 X168.653 Y112.926 E.01672
G1 X69.574 Y13.847 E4.39334
G1 X69.041 Y13.847 E.01672
G1 X168.653 Y113.459 E4.41699
G1 X168.653 Y113.992 E.01672
G1 X68.508 Y13.847 E4.44064
G1 X67.975 Y13.847 E.01672
G1 X168.653 Y114.525 E4.46428
G1 X168.653 Y115.059 E.01672
G1 X67.441 Y13.847 E4.48793
G1 X66.908 Y13.847 E.01672
G1 X168.653 Y115.592 E4.51157
G1 X168.653 Y116.125 E.01672
G1 X66.375 Y13.847 E4.53522
G1 X65.841 Y13.847 E.01672
G1 X168.653 Y116.659 E4.55887
G1 X168.653 Y117.192 E.01672
G1 X65.308 Y13.847 E4.58251
G1 X64.775 Y13.847 E.01672
G1 X168.653 Y117.725 E4.60616
G1 X168.653 Y118.258 E.01672
G1 X64.242 Y13.847 E4.62981
G1 X63.708 Y13.847 E.01672
G1 X168.653 Y118.792 E4.65345
G1 X168.653 Y119.325 E.01672
G1 X63.175 Y13.847 E4.6771
G1 X62.642 Y13.847 E.01672
G1 X168.653 Y119.858 E4.70075
G1 X168.653 Y120.391 E.01672
G1 X62.109 Y13.847 E4.72439
G1 X61.575 Y13.847 E.01672
G1 X168.653 Y120.925 E4.74804
G1 X168.653 Y121.458 E.01672
G1 X61.042 Y13.847 E4.77169
G1 X60.509 Y13.847 E.01672
G1 X168.653 Y121.991 E4.79533
G1 X168.653 Y122.525 E.01672
G1 X59.975 Y13.847 E4.81898
G1 X59.442 Y13.847 E.01672
G1 X168.653 Y123.058 E4.84262
G1 X168.653 Y123.591 E.01672
G1 X58.909 Y13.847 E4.86627
G1 X58.376 Y13.847 E.01672
G1 X168.653 Y124.124 E4.88992
G1 X168.653 Y124.658 E.01672
G1 X57.842 Y13.847 E4.91356
G1 X57.309 Y13.847 E.01672
G1 X168.653 Y125.191 E4.93721
G1 X168.653 Y125.724 E.01672
G1 X56.776 Y13.847 E4.96086
G1 X56.243 Y13.847 E.01672
G1 X168.653 Y126.258 E4.9845
G1 X168.653 Y126.791 E.01672
G1 X55.709 Y13.847 E5.00815
G1 X55.176 Y13.847 E.01672
G1 X168.653 Y127.324 E5.0318
G1 X168.653 Y127.857 E.01672
G1 X54.643 Y13.847 E5.05544
G1 X54.109 Y13.847 E.01672
G1 X168.653 Y128.391 E5.07909
G1 X168.653 Y128.924 E.01672
G1 X53.576 Y13.847 E5.10274
G1 X53.043 Y13.847 E.01672
G1 X168.653 Y129.457 E5.12638
G1 X168.653 Y129.99 E.01672
G1 X52.51 Y13.847 E5.15003
G1 X51.976 Y13.847 E.01672
G1 X168.653 Y130.524 E5.17367
G1 X168.653 Y131.057 E.01672
G1 X51.443 Y13.847 E5.19732
G1 X50.91 Y13.847 E.01672
G1 X168.653 Y131.59 E5.22097
G1 X168.653 Y132.124 E.01672
G1 X50.376 Y13.847 E5.24461
G1 X49.843 Y13.847 E.01672
G1 X168.653 Y132.657 E5.26826
G1 X168.653 Y133.19 E.01672
G1 X49.31 Y13.847 E5.29191
G1 X48.777 Y13.847 E.01672
G1 X168.653 Y133.723 E5.31555
G1 X168.653 Y134.257 E.01672
G1 X48.243 Y13.847 E5.3392
G1 X47.71 Y13.847 E.01672
G1 X168.653 Y134.79 E5.36285
G1 X168.653 Y135.323 E.01672
G1 X47.177 Y13.847 E5.38649
G1 X46.644 Y13.847 E.01672
