;FLAVOR:UltiGCode
;TIME:6413
;MATERIAL:20475
;MATERIAL2:0
;NOZZLE_DIAMETER:0.4
;MINX:93.32
;MINY:8.32
;MINZ:0.28
;MAXX:129.68
;MAXY:204.68
;MAXZ:4.08
;Generated with Cura_SteamEngine 5.0.0
M82 ;absolute extrusion mode
G0 F3000 Y50 ;avoid prime blob
G92 E0
G92 E0
G10
;LAYER_COUNT:20
;LAYER:0
M107
G0 F4800 X93.376 Y10.982 Z0.28
G0 X93.32 Y12.151
;TYPE:SKIRT
G11
G1 F1500 X93.329 Y11.486 E0.07449
G1 X93.376 Y10.982 E0.13118
G1 X93.703 Y10.029 E0.24402
G1 X93.974 Y9.602 E0.30067
G1 X94.7 Y8.903 E0.41354
G1 X95.608 Y8.464 E0.5265
G1 X96.439 Y8.33 E0.62077
G1 X96.85 Y8.32 E0.66682
G1 X125.819 Y8.32 E3.91135
G1 X126.517 Y8.33 E3.98953
G1 X127.02 Y8.377 E4.04611
G1 X127.51 Y8.503 E4.10278
G1 X128.4 Y8.977 E4.21571
G1 X128.778 Y9.312 E4.27228
G1 X129.353 Y10.14 E4.38519
G1 X129.643 Y11.105 E4.49804
G1 X129.679 Y11.76 E4.57151
G1 X129.68 Y200.784 E25.7422
G1 X129.671 Y201.511 E25.82363
G1 X129.625 Y202.014 E25.8802
G1 X129.5 Y202.504 E25.93684
G1 X129.028 Y203.395 E26.04977
G1 X128.303 Y204.095 E26.16264
G1 X127.867 Y204.351 E26.21927
G1 X126.902 Y204.642 E26.33216
G1 X126.24 Y204.679 E26.40641
G1 X97.186 Y204.68 E29.66046
G1 X96.488 Y204.671 E29.73865
G1 X95.494 Y204.499 E29.85163
G1 X94.604 Y204.027 E29.96446
G1 X94.225 Y203.692 E30.02111
G1 X93.649 Y202.865 E30.13399
G1 X93.465 Y202.394 E30.19062
G1 X93.33 Y201.557 E30.28558
G1 X93.32 Y201.138 E30.33252
G1 X93.32 Y12.151 E51.49906
G10
;MESH:platte_klein_wjc.stl
G0 F4800 X96.72 Y11.72
;TYPE:WALL-OUTER
G11
G1 F1500 X96.72 Y201.28 E72.72978
G1 X126.28 Y201.28 E76.0405
G1 X126.28 Y26.5 E95.61586
G1 X126.28 Y11.72 E97.27122
G1 X96.72 Y11.72 E100.58194
G0 F4800 X96.72 Y11.92
G0 X97.1 Y12.1
;TYPE:SKIN
G1 F1500 X97.1 Y200.9 E121.09317
G1 X125.9 Y200.9 E124.22201
G1 X125.9 Y26.5 E143.16882
G1 X125.9 Y12.1 E144.73324
G1 X97.1 Y12.1 E147.86207
G0 F4800 X97.298 Y12.4
G1 F1500 X125.699 Y12.4 E150.94756
G0 F4800 X125.699 Y12.8
G1 F1500 X97.298 Y12.8 E154.03304
G0 F4800 X97.298 Y13.2
G1 F1500 X125.699 Y13.2 E157.11852
G0 F4800 X125.699 Y13.6
G1 F1500 X97.298 Y13.6 E160.20401
G0 F4800 X97.298 Y14
G1 F1500 X125.699 Y14 E163.28949
G0 F4800 X125.699 Y14.4
G1 F1500 X97.298 Y14.4 E166.37498
G0 F4800 X97.298 Y14.8
G1 F1500 X125.699 Y14.8 E169.46046
G0 F4800 X125.699 Y15.2
G1 F1500 X97.298 Y15.2 E172.54595
G0 F4800 X97.298 Y15.6
G1 F1500 X125.699 Y15.6 E175.63143
G0 F4800 X125.699 Y16
G1 F1500 X97.298 Y16 E178.71692
G0 F4800 X97.298 Y16.4
G1 F1500 X125.699 Y16.4 E181.8024
G0 F4800 X125.699 Y16.8
G1 F1500 X97.298 Y16.8 E184.88789
G0 F4800 X97.298 Y17.2
G1 F1500 X125.699 Y17.2 E187.97337
G0 F4800 X125.699 Y17.6
G1 F1500 X97.298 Y17.6 E191.05886
G0 F4800 X97.298 Y18
G1 F1500 X125.699 Y18 E194.14434
G0 F4800 X125.699 Y18.4
G1 F1500 X97.298 Y18.4 E197.22983
G0 F4800 X97.298 Y18.8
G1 F1500 X125.699 Y18.8 E200.31531
G0 F4800 X125.699 Y19.2
G1 F1500 X97.298 Y19.2 E203.40079
G0 F4800 X97.298 Y19.6
G1 F1500 X125.699 Y19.6 E206.48628
G0 F4800 X125.699 Y20
G1 F1500 X97.298 Y20 E209.57176
G0 F4800 X97.298 Y20.4
G1 F1500 X125.699 Y20.4 E212.65725
G0 F4800 X125.699 Y20.8
G1 F1500 X97.298 Y20.8 E215.74273
G0 F4800 X97.298 Y21.2
G1 F1500 X125.699 Y21.2 E218.82822
G0 F4800 X125.699 Y21.6
G1 F1500 X97.298 Y21.6 E221.9137
G0 F4800 X97.298 Y22
G1 F1500 X125.699 Y22 E224.99919
G0 F4800 X125.699 Y22.4
G1 F1500 X97.298 Y22.4 E228.08467
G0 F4800 X97.298 Y22.8
G1 F1500 X125.699 Y22.8 E231.17016
G0 F4800 X125.699 Y23.2
G1 F1500 X97.298 Y23.2 E234.25564
G0 F4800 X97.298 Y23.6
G1 F1500 X125.699 Y23.6 E237.34113
G0 F4800 X125.699 Y24
G1 F1500 X97.298 Y24 E240.42661
G0 F4800 X97.298 Y24.4
G1 F1500 X125.699 Y24.4 E243.51209
G0 F4800 X125.699 Y24.8
G1 F1500 X97.298 Y24.8 E246.59758
G0 F4800 X97.298 Y25.2
G1 F1500 X125.699 Y25.2 E249.68306
G0 F4800 X125.699 Y25.6
G1 F1500 X97.298 Y25.6 E252.76855
G0 F4800 X97.298 Y26
G1 F1500 X125.699 Y26 E255.85403
G0 F4800 X125.699 Y26.4
G1 F1500 X97.298 Y26.4 E258.93952
G0 F4800 X97.298 Y26.8
G1 F1500 X125.699 Y26.8 E262.025
G0 F4800 X125.699 Y27.2
G1 F1500 X97.298 Y27.2 E265.11049
G0 F4800 X97.298 Y27.6
G1 F1500 X125.699 Y27.6 E268.19597
G0 F4800 X125.699 Y28
G1 F1500 X97.298 Y28 E271.28146
G0 F4800 X97.298 Y28.4
G1 F1500 X125.699 Y28.4 E274.36694
G0 F4800 X125.699 Y28.8
G1 F1500 X97.298 Y28.8 E277.45243
G0 F4800 X97.298 Y29.2
G1 F1500 X125.699 Y29.2 E280.53791
G0 F4800 X125.699 Y29.6
G1 F1500 X97.298 Y29.6 E283.6234
G0 F4800 X97.298 Y30
G1 F1500 X125.699 Y30 E286.70888
G0 F4800 X125.699 Y30.4
G1 F1500 X97.298 Y30.4 E289.79436
G0 F4800 X97.298 Y30.8
G1 F1500 X125.699 Y30.8 E292.87985
G0 F4800 X125.699 Y31.2
G1 F1500 X97.298 Y31.2 E295.96533
G0 F4800 X97.298 Y31.6
G1 F1500 X125.699 Y31.6 E299.05082
G0 F4800 X125.699 Y32
G1 F1500 X97.298 Y32 E302.1363
G0 F4800 X97.298 Y32.4
G1 F1500 X125.699 Y32.4 E305.22179
G0 F4800 X125.699 Y32.8
G1 F1500 X97.298 Y32.8 E308.30727
G0 F4800 X97.298 Y33.2
G1 F1500 X125.699 Y33.2 E311.39276
G0 F4800 X125.699 Y33.6
G1 F1500 X97.298 Y33.6 E314.47824
G0 F4800 X97.298 Y34
G1 F1500 X125.699 Y34 E317.56373
G0 F4800 X125.699 Y34.4
G1 F1500 X97.298 Y34.4 E320.64921
G0 F4800 X97.298 Y34.8
G1 F1500 X125.699 Y34.8 E323.7347
G0 F4800 X125.699 Y35.2
G1 F1500 X97.298 Y35.2 E326.82018
G0 F4800 X97.298 Y35.6
G1 F1500 X125.699 Y35.6 E329.90566
G0 F4800 X125.699 Y36
G1 F1500 X97.298 Y36 E332.99115
G0 F4800 X97.298 Y36.4
G1 F1500 X125.699 Y36.4 E336.07663
G0 F4800 X125.699 Y36.8
G1 F1500 X97.298 Y36.8 E339.16212
G0 F4800 X97.298 Y37.2
G1 F1500 X125.699 Y37.2 E342.2476
G0 F4800 X125.699 Y37.6
G1 F1500 X97.298 Y37.6 E345.33309
G0 F4800 X97.298 Y38
G1 F1500 X125.699 Y38 E348.41857
G0 F4800 X125.699 Y38.4
G1 F1500 X97.298 Y38.4 E351.50406
G0 F4800 X97.298 Y38.8
G1 F1500 X125.699 Y38.8 E354.58954
G0 F4800 X125.699 Y39.2
G1 F1500 X97.298 Y39.2 E357.67503
G0 F4800 X97.298 Y39.6
G1 F1500 X125.699 Y39.6 E360.76051
G0 F4800 X125.699 Y40
G1 F1500 X97.298 Y40 E363.846
G0 F4800 X97.298 Y40.4
G1 F1500 X125.699 Y40.4 E366.93148
G0 F4800 X125.699 Y40.8
G1 F1500 X97.298 Y40.8 E370.01696
G0 F4800 X97.298 Y41.2
G1 F1500 X125.699 Y41.2 E373.10245
G0 F4800 X125.699 Y41.6
G1 F1500 X97.298 Y41.6 E376.18793
G0 F4800 X97.298 Y42
G1 F1500 X125.699 Y42 E379.27342
G0 F4800 X125.699 Y42.4
G1 F1500 X97.298 Y42.4 E382.3589
G0 F4800 X97.298 Y42.8
G1 F1500 X125.699 Y42.8 E385.44439
G0 F4800 X125.699 Y43.2
G1 F1500 X97.298 Y43.2 E388.52987
G0 F4800 X97.298 Y43.6
G1 F1500 X125.699 Y43.6 E391.61536
G0 F4800 X125.699 Y44
G1 F1500 X97.298 Y44 E394.70084
G0 F4800 X97.298 Y44.4
G1 F1500 X125.699 Y44.4 E397.78633
G0 F4800 X125.699 Y44.8
G1 F1500 X97.298 Y44.8 E400.87181
G0 F4800 X97.298 Y45.2
G1 F1500 X125.699 Y45.2 E403.9573
G0 F4800 X125.699 Y45.6
G1 F1500 X97.298 Y45.6 E407.04278
G0 F4800 X97.298 Y46
G1 F1500 X125.699 Y46 E410.12827
G0 F4800 X125.699 Y46.4
G1 F1500 X97.298 Y46.4 E413.21375
G0 F4800 X97.298 Y46.8
G1 F1500 X125.699 Y46.8 E416.29923
G0 F4800 X125.699 Y47.2
G1 F1500 X97.298 Y47.2 E419.38472
G0 F4800 X97.298 Y47.6
G1 F1500 X125.699 Y47.6 E422.4702
G0 F4800 X125.699 Y48
G1 F1500 X97.298 Y48 E425.55569
G0 F4800 X97.298 Y48.4
G1 F1500 X125.699 Y48.4 E428.64117
G0 F4800 X125.699 Y48.8
G1 F1500 X97.298 Y48.8 E431.72666
G0 F4800 X97.298 Y49.2
G1 F1500 X125.699 Y49.2 E434.81214
G0 F4800 X125.699 Y49.6
G1 F1500 X97.298 Y49.6 E437.89763
G0 F4800 X97.298 Y50
G1 F1500 X125.699 Y50 E440.98311
G0 F4800 X125.699 Y50.4
G1 F1500 X97.298 Y50.4 E444.0686
G0 F4800 X97.298 Y50.8
G1 F1500 X125.699 Y50.8 E447.15408
G0 F4800 X125.699 Y51.2
G1 F1500 X97.298 Y51.2 E450.23957
G0 F4800 X97.298 Y51.6
G1 F1500 X125.699 Y51.6 E453.32505
G0 F4800 X125.699 Y52
G1 F1500 X97.298 Y52 E456.41053
G0 F4800 X97.298 Y52.4
G1 F1500 X125.699 Y52.4 E459.49602
G0 F4800 X125.699 Y52.8
G1 F1500 X97.298 Y52.8 E462.5815
G0 F4800 X97.298 Y53.2
G1 F1500 X125.699 Y53.2 E465.66699
G0 F4800 X125.699 Y53.6
G1 F1500 X97.298 Y53.6 E468.75247
G0 F4800 X97.298 Y54
G1 F1500 X125.699 Y54 E471.83796
G0 F4800 X125.699 Y54.4
G1 F1500 X97.298 Y54.4 E474.92344
G0 F4800 X97.298 Y54.8
G1 F1500 X125.699 Y54.8 E478.00893
G0 F4800 X125.699 Y55.2
G1 F1500 X97.298 Y55.2 E481.09441
G0 F4800 X97.298 Y55.6
G1 F1500 X125.699 Y55.6 E484.1799
G0 F4800 X125.699 Y56
G1 F1500 X97.298 Y56 E487.26538
G0 F4800 X97.298 Y56.4
G1 F1500 X125.699 Y56.4 E490.35087
G0 F4800 X125.699 Y56.8
G1 F1500 X97.298 Y56.8 E493.43635
G0 F4800 X97.298 Y57.2
G1 F1500 X125.699 Y57.2 E496.52184
G0 F4800 X125.699 Y57.6
G1 F1500 X97.298 Y57.6 E499.60732
G0 F4800 X97.298 Y58
G1 F1500 X125.699 Y58 E502.6928
G0 F4800 X125.699 Y58.4
G1 F1500 X97.298 Y58.4 E505.77829
G0 F4800 X97.298 Y58.8
G1 F1500 X125.699 Y58.8 E508.86377
G0 F4800 X125.699 Y59.2
G1 F1500 X97.298 Y59.2 E511.94926
G0 F4800 X97.298 Y59.6
G1 F1500 X125.699 Y59.6 E515.03474
G0 F4800 X125.699 Y60
G1 F1500 X97.298 Y60 E518.12023
G0 F4800 X97.298 Y60.4
G1 F1500 X125.699 Y60.4 E521.20571
G0 F4800 X125.699 Y60.8
G1 F1500 X97.298 Y60.8 E524.2912
G0 F4800 X97.298 Y61.2
G1 F1500 X125.699 Y61.2 E527.37668
G0 F4800 X125.699 Y61.6
G1 F1500 X97.298 Y61.6 E530.46217
G0 F4800 X97.298 Y62
G1 F1500 X125.699 Y62 E533.54765
G0 F4800 X125.699 Y62.4
G1 F1500 X97.298 Y62.4 E536.63314
G0 F4800 X97.298 Y62.8
G1 F1500 X125.699 Y62.8 E539.71862
G0 F4800 X125.699 Y63.2
G1 F1500 X97.298 Y63.2 E542.8041
G0 F4800 X97.298 Y63.6
G1 F1500 X125.699 Y63.6 E545.88959
G0 F4800 X125.699 Y64
G1 F1500 X97.298 Y64 E548.97507
G0 F4800 X97.298 Y64.4
G1 F1500 X125.699 Y64.4 E552.06056
G0 F4800 X125.699 Y64.8
G1 F1500 X97.298 Y64.8 E555.14604
G0 F4800 X97.298 Y65.2
G1 F1500 X125.699 Y65.2 E558.23153
G0 F4800 X125.699 Y65.6
G1 F1500 X97.298 Y65.6 E561.31701
G0 F4800 X97.298 Y66
G1 F1500 X125.699 Y66 E564.4025
G0 F4800 X125.699 Y66.4
G1 F1500 X97.298 Y66.4 E567.48798
G0 F4800 X97.298 Y66.8
G1 F1500 X125.699 Y66.8 E570.57347
G0 F4800 X125.699 Y67.2
G1 F1500 X97.298 Y67.2 E573.65895
G0 F4800 X97.298 Y67.6
G1 F1500 X125.699 Y67.6 E576.74444
G0 F4800 X125.699 Y68
G1 F1500 X97.298 Y68 E579.82992
G0 F4800 X97.298 Y68.4
G1 F1500 X125.699 Y68.4 E582.91541
G0 F4800 X125.699 Y68.8
G1 F1500 X97.298 Y68.8 E586.00089
G0 F4800 X97.298 Y69.2
G1 F1500 X125.699 Y69.2 E589.08637
G0 F4800 X125.699 Y69.6
G1 F1500 X97.298 Y69.6 E592.17186
G0 F4800 X97.298 Y70
G1 F1500 X125.699 Y70 E595.25734
G0 F4800 X125.699 Y70.4
G1 F1500 X97.298 Y70.4 E598.34283
G0 F4800 X97.298 Y70.8
G1 F1500 X125.699 Y70.8 E601.42831
G0 F4800 X125.699 Y71.2
G1 F1500 X97.298 Y71.2 E604.5138
G0 F4800 X97.298 Y71.6
G1 F1500 X125.699 Y71.6 E607.59928
G0 F4800 X125.699 Y72
G1 F1500 X97.298 Y72 E610.68477
G0 F4800 X97.298 Y72.4
G1 F1500 X125.699 Y72.4 E613.77025
G0 F4800 X125.699 Y72.8
G1 F1500 X97.298 Y72.8 E616.85574
G0 F4800 X97.298 Y73.2
G1 F1500 X125.699 Y73.2 E619.94122
G0 F4800 X125.699 Y73.6
G1 F1500 X97.298 Y73.6 E623.02671
G0 F4800 X97.298 Y74
G1 F1500 X125.699 Y74 E626.11219
G0 F4800 X125.699 Y74.4
G1 F1500 X97.298 Y74.4 E629.19767
G0 F4800 X97.298 Y74.8
G1 F1500 X125.699 Y74.8 E632.28316
G0 F4800 X125.699 Y75.2
G1 F1500 X97.298 Y75.2 E635.36864
G0 F4800 X97.298 Y75.6
G1 F1500 X125.699 Y75.6 E638.45413
G0 F4800 X125.699 Y76
G1 F1500 X97.298 Y76 E641.53961
G0 F4800 X97.298 Y76.4
G1 F1500 X125.699 Y76.4 E644.6251
G0 F4800 X125.699 Y76.8
G1 F1500 X97.298 Y76.8 E647.71058
G0 F4800 X97.298 Y77.2
G1 F1500 X125.699 Y77.2 E650.79607
G0 F4800 X125.699 Y77.6
G1 F1500 X97.298 Y77.6 E653.88155
G0 F4800 X97.298 Y78
G1 F1500 X125.699 Y78 E656.96704
G0 F4800 X125.699 Y78.4
G1 F1500 X97.298 Y78.4 E660.05252
G0 F4800 X97.298 Y78.8
G1 F1500 X125.699 Y78.8 E663.13801
G0 F4800 X125.699 Y79.2
G1 F1500 X97.298 Y79.2 E666.22349
G0 F4800 X97.298 Y79.6
G1 F1500 X125.699 Y79.6 E669.30898
G0 F4800 X125.699 Y80
G1 F1500 X97.298 Y80 E672.39446
G0 F4800 X97.298 Y80.4
G1 F1500 X125.699 Y80.4 E675.47994
G0 F4800 X125.699 Y80.8
G1 F1500 X97.298 Y80.8 E678.56543
G0 F4800 X97.298 Y81.2
G1 F1500 X125.699 Y81.2 E681.65091
G0 F4800 X125.699 Y81.6
G1 F1500 X97.298 Y81.6 E684.7364
G0 F4800 X97.298 Y82
G1 F1500 X125.699 Y82 E687.82188
G0 F4800 X125.699 Y82.4
G1 F1500 X97.298 Y82.4 E690.90737
G0 F4800 X97.298 Y82.8
G1 F1500 X125.699 Y82.8 E693.99285
G0 F4800 X125.699 Y83.2
G1 F1500 X97.298 Y83.2 E697.07834
G0 F4800 X97.298 Y83.6
G1 F1500 X125.699 Y83.6 E700.16382
G0 F4800 X125.699 Y84
G1 F1500 X97.298 Y84 E703.24931
G0 F4800 X97.298 Y84.4
G1 F1500 X125.699 Y84.4 E706.33479
G0 F4800 X125.699 Y84.8
G1 F1500 X97.298 Y84.8 E709.42028
G0 F4800 X97.298 Y85.2
G1 F1500 X125.699 Y85.2 E712.50576
G0 F4800 X125.699 Y85.6
G1 F1500 X97.298 Y85.6 E715.59124
G0 F4800 X97.298 Y86
G1 F1500 X125.699 Y86 E718.67673
G0 F4800 X125.699 Y86.4
G1 F1500 X97.298 Y86.4 E721.76221
G0 F4800 X97.298 Y86.8
G1 F1500 X125.699 Y86.8 E724.8477
G0 F4800 X125.699 Y87.2
G1 F1500 X97.298 Y87.2 E727.93318
G0 F4800 X97.298 Y87.6
G1 F1500 X125.699 Y87.6 E731.01867
G0 F4800 X125.699 Y88
G1 F1500 X97.298 Y88 E734.10415
G0 F4800 X97.298 Y88.4
G1 F1500 X125.699 Y88.4 E737.18964
G0 F4800 X125.699 Y88.8
G1 F1500 X97.298 Y88.8 E740.27512
G0 F4800 X97.298 Y89.2
G1 F1500 X125.699 Y89.2 E743.36061
G0 F4800 X125.699 Y89.6
G1 F1500 X97.298 Y89.6 E746.44609
G0 F4800 X97.298 Y90
G1 F1500 X125.699 Y90 E749.53158
G0 F4800 X125.699 Y90.4
G1 F1500 X97.298 Y90.4 E752.61706
G0 F4800 X97.298 Y90.8
G1 F1500 X125.699 Y90.8 E755.70254
G0 F4800 X125.699 Y91.2
G1 F1500 X97.298 Y91.2 E758.78803
G0 F4800 X97.298 Y91.6
G1 F1500 X125.699 Y91.6 E761.87351
G0 F4800 X125.699 Y92
G1 F1500 X97.298 Y92 E764.959
G0 F4800 X97.298 Y92.4
G1 F1500 X125.699 Y92.4 E768.04448
G0 F4800 X125.699 Y92.8
G1 F1500 X97.298 Y92.8 E771.12997
G0 F4800 X97.298 Y93.2
G1 F1500 X125.699 Y93.2 E774.21545
G0 F4800 X125.699 Y93.6
G1 F1500 X97.298 Y93.6 E777.30094
G0 F4800 X97.298 Y94
G1 F1500 X125.699 Y94 E780.38642
G0 F4800 X125.699 Y94.4
G1 F1500 X97.298 Y94.4 E783.47191
G0 F4800 X97.298 Y94.8
G1 F1500 X125.699 Y94.8 E786.55739
G0 F4800 X125.699 Y95.2
G1 F1500 X97.298 Y95.2 E789.64288
G0 F4800 X97.298 Y95.6
G1 F1500 X125.699 Y95.6 E792.72836
G0 F4800 X125.699 Y96
G1 F1500 X97.298 Y96 E795.81385
G0 F4800 X97.298 Y96.4
G1 F1500 X125.699 Y96.4 E798.89933
G0 F4800 X125.699 Y96.8
G1 F1500 X97.298 Y96.8 E801.98481
G0 F4800 X97.298 Y97.2
G1 F1500 X125.699 Y97.2 E805.0703
G0 F4800 X125.699 Y97.6
G1 F1500 X97.298 Y97.6 E808.15578
G0 F4800 X97.298 Y98
G1 F1500 X125.699 Y98 E811.24127
G0 F4800 X125.699 Y98.4
G1 F1500 X97.298 Y98.4 E814.32675
G0 F4800 X97.298 Y98.8
G1 F1500 X125.699 Y98.8 E817.41224
G0 F4800 X125.699 Y99.2
G1 F1500 X97.298 Y99.2 E820.49772
G0 F4800 X97.298 Y99.6
G1 F1500 X125.699 Y99.6 E823.58321
G0 F4800 X125.699 Y100
G1 F1500 X97.298 Y100 E826.66869
G0 F4800 X97.298 Y100.4
G1 F1500 X125.699 Y100.4 E829.75418
G0 F4800 X125.699 Y100.8
G1 F1500 X97.298 Y100.8 E832.83966
G0 F4800 X97.298 Y101.2
G1 F1500 X125.699 Y101.2 E835.92515
G0 F4800 X125.699 Y101.6
G1 F1500 X97.298 Y101.6 E839.01063
G0 F4800 X97.298 Y102
G1 F1500 X125.699 Y102 E842.09611
G0 F4800 X125.699 Y102.4
G1 F1500 X97.298 Y102.4 E845.1816
G0 F4800 X97.298 Y102.8
G1 F1500 X125.699 Y102.8 E848.26708
G0 F4800 X125.699 Y103.2
G1 F1500 X97.298 Y103.2 E851.35257
G0 F4800 X97.298 Y103.6
G1 F1500 X125.699 Y103.6 E854.43805
G0 F4800 X125.699 Y104
G1 F1500 X97.298 Y104 E857.52354
G0 F4800 X97.298 Y104.4
G1 F1500 X125.699 Y104.4 E860.60902
G0 F4800 X125.699 Y104.8
G1 F1500 X97.298 Y104.8 E863.69451
G0 F4800 X97.298 Y105.2
G1 F1500 X125.699 Y105.2 E866.77999
G0 F4800 X125.699 Y105.6
G1 F1500 X97.298 Y105.6 E869.86548
G0 F4800 X97.298 Y106
G1 F1500 X125.699 Y106 E872.95096
G0 F4800 X125.699 Y106.4
G1 F1500 X97.298 Y106.4 E876.03645
G0 F4800 X97.298 Y106.8
G1 F1500 X125.699 Y106.8 E879.12193
G0 F4800 X125.699 Y107.2
G1 F1500 X97.298 Y107.2 E882.20742
G0 F4800 X97.298 Y107.6
G1 F1500 X125.699 Y107.6 E885.2929
G0 F4800 X125.699 Y108
G1 F1500 X97.298 Y108 E888.37838
G0 F4800 X97.298 Y108.4
G1 F1500 X125.699 Y108.4 E891.46387
G0 F4800 X125.699 Y108.8
G1 F1500 X97.298 Y108.8 E894.54935
G0 F4800 X97.298 Y109.2
G1 F1500 X125.699 Y109.2 E897.63484
G0 F4800 X125.699 Y109.6
G1 F1500 X97.298 Y109.6 E900.72032
G0 F4800 X97.298 Y110
G1 F1500 X125.699 Y110 E903.80581
G0 F4800 X125.699 Y110.4
G1 F1500 X97.298 Y110.4 E906.89129
G0 F4800 X97.298 Y110.8
G1 F1500 X125.699 Y110.8 E909.97678
G0 F4800 X125.699 Y111.2
