;FLAVOR:UltiGCode
;TIME:10808
;MATERIAL:32403
;MATERIAL2:0
;NOZZLE_DIAMETER:0.4
;MINX:35.523
;MINY:15.741
;MINZ:0.28
;MAXX:193.308
;MAXY:137.454
;MAXZ:4.08
;Generated with Cura_SteamEngine 5.0.0
M82 ;absolute extrusion mode
G0 F3000 Y50 ;avoid prime blob
G92 E0
G92 E0
G10
;LAYER_COUNT:20
;LAYER:0
M107
G0 F4800 X35.909 Y17.445 Z0.28
G0 X35.523 Y19.567
;TYPE:SKIRT
G11
G1 F1500 X35.533 Y18.902 E0.07449
G1 X35.581 Y18.399 E0.13108
G1 X35.707 Y17.909 E0.18775
G1 X35.909 Y17.445 E0.24442
G1 X36.181 Y17.019 E0.30103
G1 X36.517 Y16.642 E0.35759
G1 X36.908 Y16.321 E0.41425
G1 X37.345 Y16.067 E0.47086
G1 X37.816 Y15.884 E0.52746
G1 X38.311 Y15.778 E0.58415
G1 X38.963 Y15.742 E0.65729
G1 X59.046 Y15.741 E2.90659
G1 X59.756 Y15.753 E2.98612
G1 X60.259 Y15.802 E3.04272
G1 X61.419 Y16.131 E3.17776
G1 X62.551 Y16.495 E3.31094
G1 X65.217 Y17.271 E3.62192
G1 X67.854 Y17.957 E3.9271
G1 X70.504 Y18.567 E4.23166
G1 X73.23 Y19.113 E4.54304
G1 X75.905 Y19.572 E4.84702
G1 X78.594 Y19.955 E5.15122
G1 X81.361 Y20.269 E5.46312
G1 X84.04 Y20.497 E5.76425
G1 X86.787 Y20.653 E6.07241
G1 X89.551 Y20.731 E6.3821
G1 X90.925 Y20.741 E6.53599
G1 X136.449 Y20.741 E11.63468
G1 X139.246 Y20.701 E11.94798
G1 X141.963 Y20.586 E12.25255
G1 X144.71 Y20.391 E12.56099
G1 X147.414 Y20.123 E12.86532
G1 X150.138 Y19.775 E13.17289
G1 X152.838 Y19.35 E13.47901
G1 X155.528 Y18.85 E13.78545
G1 X158.175 Y18.283 E14.08864
G1 X160.899 Y17.613 E14.40282
G1 X163.508 Y16.895 E14.70589
G1 X165.659 Y16.243 E14.95763
G1 X166.722 Y15.907 E15.08249
G1 X167.215 Y15.793 E15.13917
G1 X168.56 Y15.742 E15.28991
G1 X188.022 Y15.741 E17.46966
G1 X188.72 Y15.751 E17.54784
G1 X189.223 Y15.798 E17.60442
G1 X189.713 Y15.924 E17.66109
G1 X190.177 Y16.126 E17.71777
G1 X190.603 Y16.398 E17.77438
G1 X190.981 Y16.733 E17.83095
G1 X191.301 Y17.124 E17.88753
G1 X191.556 Y17.561 E17.9442
G1 X191.739 Y18.032 E18.00079
G1 X191.846 Y18.526 E18.05741
G1 X191.882 Y19.176 E18.13032
G1 X191.883 Y38.279 E20.26985
G1 X191.875 Y38.856 E20.33448
G1 X191.875 Y41.584 E20.64002
G1 X191.954 Y44.343 E20.94915
G1 X192.061 Y46.015 E21.1368
G1 X192.058 Y46.214 E21.15909
G1 X192.133 Y47.527 E21.30639
G1 X192.144 Y47.953 E21.35412
G1 X192.144 Y66.902 E23.4764
G1 X192.131 Y67.718 E23.56781
G1 X192.086 Y68.785 E23.68742
G1 X192.045 Y69.506 E23.7683
G1 X191.967 Y72.257 E24.07654
G1 X191.967 Y74.974 E24.38084
G1 X192.045 Y77.728 E24.68941
G1 X192.156 Y79.877 E24.93042
G1 X192.167 Y80.307 E24.9786
G1 X192.167 Y99.229 E27.09786
G1 X192.207 Y102.027 E27.41127
G1 X192.322 Y104.744 E27.71584
G1 X192.517 Y107.49 E28.02417
G1 X192.784 Y110.189 E28.32793
G1 X193.151 Y113.042 E28.6501
G1 X193.266 Y113.844 E28.74085
G1 X193.307 Y114.535 E28.81837
G1 X193.308 Y133.558 E30.94895
G1 X193.299 Y134.285 E31.03038
G1 X193.253 Y134.788 E31.08695
G1 X193.128 Y135.278 E31.14359
G1 X192.927 Y135.742 E31.20022
G1 X192.656 Y136.169 E31.25687
G1 X192.321 Y136.548 E31.31352
G1 X191.931 Y136.869 E31.37009
G1 X191.495 Y137.125 E31.42672
G1 X191.024 Y137.308 E31.48331
G1 X190.53 Y137.416 E31.53995
G1 X189.868 Y137.453 E31.61421
G1 X169.785 Y137.454 E33.8635
G1 X169.075 Y137.442 E33.94304
G1 X168.572 Y137.393 E33.99964
G1 X167.412 Y137.064 E34.13468
G1 X166.28 Y136.7 E34.26786
G1 X163.614 Y135.924 E34.57884
G1 X160.977 Y135.238 E34.88402
G1 X158.327 Y134.628 E35.18858
G1 X155.601 Y134.082 E35.49996
G1 X152.926 Y133.623 E35.80393
G1 X150.237 Y133.24 E36.10814
G1 X147.47 Y132.926 E36.42003
G1 X144.791 Y132.698 E36.72117
G1 X142.044 Y132.542 E37.02933
G1 X139.28 Y132.464 E37.33902
G1 X137.906 Y132.454 E37.49291
G1 X92.382 Y132.454 E42.5916
G1 X89.585 Y132.494 E42.90489
G1 X86.868 Y132.609 E43.20947
G1 X84.121 Y132.804 E43.51791
G1 X81.417 Y133.072 E43.82224
G1 X78.693 Y133.42 E44.12981
G1 X75.993 Y133.845 E44.43593
G1 X73.303 Y134.345 E44.74237
G1 X70.656 Y134.912 E45.04556
G1 X67.932 Y135.582 E45.35974
G1 X65.323 Y136.3 E45.66281
G1 X63.178 Y136.95 E45.91384
G1 X62.109 Y137.288 E46.03941
G1 X61.616 Y137.402 E46.09608
G1 X60.271 Y137.453 E46.24683
G1 X40.809 Y137.454 E48.42658
G1 X40.111 Y137.444 E48.50476
G1 X39.608 Y137.397 E48.56134
G1 X39.118 Y137.271 E48.61801
G1 X38.654 Y137.069 E48.67469
G1 X38.228 Y136.797 E48.73129
G1 X37.85 Y136.462 E48.78786
G1 X37.53 Y136.071 E48.84445
G1 X37.275 Y135.634 E48.90112
G1 X37.092 Y135.163 E48.95771
G1 X36.985 Y134.669 E49.01432
G1 X36.949 Y133.999 E49.08947
G1 X36.948 Y115.003 E51.21702
G1 X36.908 Y112.206 E51.53032
G1 X36.793 Y109.489 E51.8349
G1 X36.598 Y106.742 E52.14334
G1 X36.331 Y104.046 E52.44676
G1 X35.97 Y101.233 E52.7644
G1 X35.848 Y100.381 E52.8608
G1 X35.808 Y99.698 E52.93743
G1 X35.807 Y80.64 E55.07192
G1 X35.82 Y79.845 E55.16098
G1 X35.867 Y78.727 E55.2863
G1 X35.908 Y77.999 E55.36797
G1 X35.985 Y75.251 E55.67587
G1 X35.983 Y72.532 E55.98039
G1 X35.904 Y69.781 E56.28863
G1 X35.794 Y67.661 E56.52639
G1 X35.784 Y67.254 E56.57199
G1 X35.784 Y48.246 E58.70089
G1 X35.792 Y47.669 E58.76552
G1 X35.792 Y44.941 E59.07105
G1 X35.713 Y42.182 E59.38019
G1 X35.606 Y40.51 E59.56783
G1 X35.609 Y40.313 E59.5899
G1 X35.533 Y38.981 E59.73933
G1 X35.523 Y38.572 E59.78515
G1 X35.523 Y19.567 E61.91371
G10
;MESH:dogbone_direkt.stl
G0 F4800 X63.447 Y20.64
;TYPE:WALL-OUTER
G11
G1 F1500 X59.659 Y19.141 E62.36998
G1 X38.923 Y19.141 E64.69241
G1 X38.923 Y38.701 E66.88313
G1 X59.659 Y38.701 E69.20556
G1 X63.463 Y37.196 E69.66374
G1 X67.393 Y35.945 E70.12566
G1 X71.406 Y34.965 E70.58833
G1 X75.471 Y34.263 E71.05035
G1 X79.501 Y33.847 E71.5041
G1 X83.702 Y33.701 E71.9749
G1 X143.711 Y33.701 E78.69591
G1 X147.838 Y33.842 E79.1584
G1 X151.95 Y34.265 E79.62138
G1 X156.013 Y34.967 E80.08317
G1 X160.024 Y35.95 E80.5457
G1 X163.958 Y37.202 E81.00808
G1 X167.747 Y38.701 E81.46445
G1 X188.483 Y38.701 E83.78689
G1 X188.483 Y28.921 E84.88225
G1 X188.483 Y19.141 E85.97761
G1 X167.747 Y19.141 E88.30004
G1 X163.957 Y20.641 E88.75656
G1 X160.012 Y21.897 E89.22025
G1 X155.997 Y22.877 E89.68313
G1 X151.934 Y23.58 E90.14495
G1 X147.824 Y24.001 E90.60768
G1 X143.704 Y24.141 E91.06938
G1 X83.694 Y24.141 E97.7905
G1 X79.567 Y24 E98.253
G1 X75.458 Y23.579 E98.71561
G1 X71.392 Y22.875 E99.17778
G1 X67.381 Y21.892 E99.64031
G1 X63.447 Y20.64 E100.10269
G0 F4800 X63.261 Y20.567
G0 X63.337 Y21.004
;TYPE:SKIN
G1 F1500 X59.585 Y19.521 E100.54099
G1 X39.303 Y19.521 E102.74443
G1 X39.303 Y38.321 E104.78686
G1 X59.585 Y38.321 E106.9903
G1 X63.359 Y36.827 E107.43126
G1 X67.276 Y35.583 E107.87775
G1 X71.322 Y34.595 E108.33022
G1 X75.425 Y33.883 E108.78264
G1 X79.462 Y33.469 E109.22352
G1 X83.69 Y33.321 E109.68313
G1 X143.725 Y33.321 E116.20533
G1 X147.849 Y33.462 E116.65362
G1 X152.001 Y33.889 E117.10707
G1 X156.104 Y34.596 E117.55939
G1 X160.114 Y35.58 E118.00796
G1 X164.068 Y36.837 E118.45871
G1 X167.821 Y38.321 E118.89715
G1 X188.103 Y38.321 E121.10059
G1 X188.103 Y28.921 E122.12181
G1 X188.103 Y19.521 E123.14302
G1 X167.821 Y19.522 E125.34646
G1 X164.082 Y21.001 E125.78329
G1 X160.129 Y22.259 E126.23397
G1 X156.095 Y23.245 E126.68512
G1 X151.976 Y23.96 E127.1393
G1 X147.862 Y24.379 E127.58856
G1 X143.717 Y24.521 E128.03913
G1 X83.681 Y24.521 E134.56145
G1 X79.554 Y24.38 E135.01006
G1 X75.405 Y23.955 E135.46317
G1 X71.301 Y23.246 E135.91563
G1 X67.291 Y22.262 E136.3642
G1 X63.337 Y21.004 E136.81498
G10
G0 F4800 X187.6 Y19.721
G11
G1 F1500 X187.6 Y38.121 E138.81396
G0 F4800 X187.2 Y38.121
G1 F1500 X187.2 Y19.721 E140.81294
G0 F4800 X186.8 Y19.721
G1 F1500 X186.8 Y38.121 E142.81191
G0 F4800 X186.4 Y38.121
G1 F1500 X186.4 Y19.721 E144.81089
G0 F4800 X186 Y19.721
G1 F1500 X186 Y38.121 E146.80986
G0 F4800 X185.6 Y38.121
G1 F1500 X185.6 Y19.721 E148.80884
G0 F4800 X185.2 Y19.721
G1 F1500 X185.2 Y38.121 E150.80782
G0 F4800 X184.8 Y38.121
G1 F1500 X184.8 Y19.721 E152.80679
G0 F4800 X184.4 Y19.721
G1 F1500 X184.4 Y38.121 E154.80577
G0 F4800 X184 Y38.121
G1 F1500 X184 Y19.721 E156.80474
G0 F4800 X183.6 Y19.721
G1 F1500 X183.6 Y38.121 E158.80372
G0 F4800 X183.2 Y38.121
G1 F1500 X183.2 Y19.721 E160.8027
G0 F4800 X182.8 Y19.721
G1 F1500 X182.8 Y38.121 E162.80167
G0 F4800 X182.4 Y38.121
G1 F1500 X182.4 Y19.721 E164.80065
G0 F4800 X182 Y19.721
G1 F1500 X182 Y38.121 E166.79962
G0 F4800 X181.6 Y38.121
G1 F1500 X181.6 Y19.721 E168.7986
G0 F4800 X181.2 Y19.721
G1 F1500 X181.2 Y38.121 E170.79758
G0 F4800 X180.8 Y38.121
G1 F1500 X180.8 Y19.721 E172.79655
G0 F4800 X180.4 Y19.721
G1 F1500 X180.4 Y38.121 E174.79553
G0 F4800 X180 Y38.121
G1 F1500 X180 Y19.721 E176.7945
G0 F4800 X179.6 Y19.721
G1 F1500 X179.6 Y38.121 E178.79348
G0 F4800 X179.2 Y38.121
G1 F1500 X179.2 Y19.721 E180.79246
G0 F4800 X178.8 Y19.721
G1 F1500 X178.8 Y38.121 E182.79143
G0 F4800 X178.4 Y38.121
G1 F1500 X178.4 Y19.721 E184.79041
G0 F4800 X178 Y19.721
G1 F1500 X178 Y38.121 E186.78938
G0 F4800 X177.6 Y38.121
G1 F1500 X177.6 Y19.721 E188.78836
G0 F4800 X177.2 Y19.721
G1 F1500 X177.2 Y38.121 E190.78734
G0 F4800 X176.8 Y38.121
G1 F1500 X176.8 Y19.721 E192.78631
G0 F4800 X176.4 Y19.721
G1 F1500 X176.4 Y38.121 E194.78529
G0 F4800 X176 Y38.121
G1 F1500 X176 Y19.721 E196.78426
G0 F4800 X175.6 Y19.721
G1 F1500 X175.6 Y38.121 E198.78324
G0 F4800 X175.2 Y38.121
G1 F1500 X175.2 Y19.721 E200.78222
G0 F4800 X174.8 Y19.721
G1 F1500 X174.8 Y38.121 E202.78119
G0 F4800 X174.4 Y38.121
G1 F1500 X174.4 Y19.721 E204.78017
G0 F4800 X174 Y19.721
G1 F1500 X174 Y38.121 E206.77914
G0 F4800 X173.6 Y38.121
G1 F1500 X173.6 Y19.721 E208.77812
G0 F4800 X173.2 Y19.721
G1 F1500 X173.2 Y38.121 E210.7771
G0 F4800 X172.8 Y38.121
G1 F1500 X172.8 Y19.721 E212.77607
G0 F4800 X172.4 Y19.721
G1 F1500 X172.4 Y38.121 E214.77505
G0 F4800 X172 Y38.121
G1 F1500 X172 Y19.721 E216.77402
G0 F4800 X171.6 Y19.721
G1 F1500 X171.6 Y38.121 E218.773
G0 F4800 X171.2 Y38.121
G1 F1500 X171.2 Y19.721 E220.77198
G0 F4800 X170.8 Y19.721
G1 F1500 X170.8 Y38.121 E222.77095
G0 F4800 X170.4 Y38.121
G1 F1500 X170.4 Y19.721 E224.76993
G0 F4800 X170 Y19.721
G1 F1500 X170 Y38.121 E226.7689
G0 F4800 X169.6 Y38.121
G1 F1500 X169.6 Y19.721 E228.76788
G0 F4800 X169.2 Y19.721
G1 F1500 X169.2 Y38.121 E230.76686
G0 F4800 X168.8 Y38.121
G1 F1500 X168.8 Y19.721 E232.76583
G0 F4800 X168.4 Y19.721
G1 F1500 X168.4 Y38.121 E234.76481
G0 F4800 X168 Y38.121
G1 F1500 X168 Y19.721 E236.76378
G0 F4800 X167.6 Y19.824
G1 F1500 X167.6 Y38.018 E238.74038
G0 F4800 X167.2 Y37.86
G1 F1500 X167.2 Y19.982 E240.68265
G0 F4800 X166.8 Y20.14
G1 F1500 X166.8 Y37.702 E242.59058
G0 F4800 X166.4 Y37.544
G1 F1500 X166.4 Y20.299 E244.46408
G0 F4800 X166 Y20.457
G1 F1500 X166 Y37.386 E246.30325
G0 F4800 X165.6 Y37.228
G1 F1500 X165.6 Y20.615 E248.10808
G0 F4800 X165.2 Y20.773
G1 F1500 X165.2 Y37.07 E249.87859
G0 F4800 X164.8 Y36.912
G1 F1500 X164.8 Y20.932 E251.61466
G0 F4800 X164.4 Y21.09
G1 F1500 X164.4 Y36.754 E253.31639
G0 F4800 X164 Y36.605
G1 F1500 X164 Y21.236 E254.98608
G0 F4800 X163.6 Y21.364
G1 F1500 X163.6 Y36.478 E256.62807
G0 F4800 X163.2 Y36.351
G1 F1500 X163.2 Y21.491 E258.24246
G0 F4800 X162.8 Y21.618
G1 F1500 X162.8 Y36.224 E259.82925
G0 F4800 X162.4 Y36.096
G1 F1500 X162.4 Y21.746 E261.38824
G0 F4800 X162 Y21.873
G1 F1500 X162 Y35.969 E262.91962
G0 F4800 X161.6 Y35.842
G1 F1500 X161.6 Y22.001 E264.42331
G0 F4800 X161.2 Y22.128
G1 F1500 X161.2 Y35.715 E265.8994
G0 F4800 X160.8 Y35.588
G1 F1500 X160.8 Y22.255 E267.3479
G0 F4800 X160.4 Y22.383
G1 F1500 X160.4 Y35.461 E268.76869
G0 F4800 X160 Y35.345
G1 F1500 X160 Y22.495 E270.16472
G0 F4800 X159.6 Y22.593
G1 F1500 X159.6 Y35.247 E271.53945
G0 F4800 X159.2 Y35.149
G1 F1500 X159.2 Y22.691 E272.89289
G0 F4800 X158.8 Y22.789
G1 F1500 X158.8 Y35.051 E274.22503
G0 F4800 X158.4 Y34.953
G1 F1500 X158.4 Y22.887 E275.53588
G0 F4800 X158 Y22.984
G1 F1500 X158 Y34.855 E276.82554
G0 F4800 X157.6 Y34.757
G1 F1500 X157.6 Y23.082 E278.09392
G0 F4800 X157.2 Y23.18
G1 F1500 X157.2 Y34.659 E279.341
G0 F4800 X156.8 Y34.562
G1 F1500 X156.8 Y23.278 E280.56689
G0 F4800 X156.4 Y23.376
G1 F1500 X156.4 Y34.464 E281.77149
G0 F4800 X156 Y34.375
G1 F1500 X156 Y23.463 E282.95697
G0 F4800 X155.6 Y23.532
G1 F1500 X155.6 Y34.306 E284.12746
G0 F4800 X155.2 Y34.237
G1 F1500 X155.2 Y23.602 E285.28284
G0 F4800 X154.8 Y23.672
G1 F1500 X154.8 Y34.168 E286.42313
G0 F4800 X154.4 Y34.1
G1 F1500 X154.4 Y23.742 E287.54842
G0 F4800 X154 Y23.811
G1 F1500 X154 Y34.031 E288.65872
G0 F4800 X153.6 Y33.962
G1 F1500 X153.6 Y23.881 E289.75392
G0 F4800 X153.2 Y23.951
G1 F1500 X153.2 Y33.893 E290.83402
G0 F4800 X152.8 Y33.825
G1 F1500 X152.8 Y24.021 E291.89913
G0 F4800 X152.4 Y24.09
G1 F1500 X152.4 Y33.756 E292.94924
G0 F4800 X152 Y33.687
G1 F1500 X152 Y24.158 E293.98447
G0 F4800 X151.6 Y24.199
G1 F1500 X151.6 Y33.646 E295.01079
G0 F4800 X151.2 Y33.605
G1 F1500 X151.2 Y24.24 E296.02821
G0 F4800 X150.8 Y24.281
G1 F1500 X150.8 Y33.564 E297.03671
G0 F4800 X150.4 Y33.523
G1 F1500 X150.4 Y24.321 E298.03642
G0 F4800 X150 Y24.362
G1 F1500 X150 Y33.482 E299.02722
G0 F4800 X149.6 Y33.441
G1 F1500 X149.6 Y24.403 E300.0091
G0 F4800 X149.2 Y24.444
G1 F1500 X149.2 Y33.4 E300.98208
G0 F4800 X148.8 Y33.359
G1 F1500 X148.8 Y24.484 E301.94626
G0 F4800 X148.4 Y24.525
G1 F1500 X148.4 Y33.318 E302.90153
G0 F4800 X148 Y33.277
G1 F1500 X148 Y24.566 E303.8479
G0 F4800 X147.6 Y24.587
G1 F1500 X147.6 Y33.252 E304.78926
G0 F4800 X147.2 Y33.239
G1 F1500 X147.2 Y24.601 E305.7277
G0 F4800 X146.8 Y24.614
G1 F1500 X146.8 Y33.225 E306.66319
G0 F4800 X146.4 Y33.211
G1 F1500 X146.4 Y24.628 E307.59565
G0 F4800 X146 Y24.642
G1 F1500 X146 Y33.198 E308.52518
G0 F4800 X145.6 Y33.184
G1 F1500 X145.6 Y24.656 E309.45166
G0 F4800 X145.2 Y24.67
G1 F1500 X145.2 Y33.171 E310.37521
G0 F4800 X144.8 Y33.157
G1 F1500 X144.8 Y24.684 E311.29571
G0 F4800 X144.4 Y24.697
G1 F1500 X144.4 Y33.143 E312.21329
G0 F4800 X144 Y33.13
G1 F1500 X144 Y24.711 E313.12793
G0 F4800 X143.6 Y24.721
G1 F1500 X143.6 Y33.121 E314.0405
G0 F4800 X143.2 Y33.121
G1 F1500 X143.2 Y24.721 E314.95308
G0 F4800 X142.8 Y24.721
G1 F1500 X142.8 Y33.121 E315.86565
G0 F4800 X142.4 Y33.121
G1 F1500 X142.4 Y24.721 E316.77823
G0 F4800 X142 Y24.721
G1 F1500 X142 Y33.121 E317.69081
G0 F4800 X141.6 Y33.121
G1 F1500 X141.6 Y24.721 E318.60338
G0 F4800 X141.2 Y24.721
G1 F1500 X141.2 Y33.121 E319.51596
G0 F4800 X140.8 Y33.121
G1 F1500 X140.8 Y24.721 E320.42853
G0 F4800 X140.4 Y24.721
G1 F1500 X140.4 Y33.121 E321.34111
G0 F4800 X140 Y33.121
G1 F1500 X140 Y24.721 E322.25369
G0 F4800 X139.6 Y24.721
G1 F1500 X139.6 Y33.121 E323.16626
G0 F4800 X139.2 Y33.121
G1 F1500 X139.2 Y24.721 E324.07884
G0 F4800 X138.8 Y24.721
G1 F1500 X138.8 Y33.121 E324.99141
G0 F4800 X138.4 Y33.121
G1 F1500 X138.4 Y24.721 E325.90399
G0 F4800 X138 Y24.721
G1 F1500 X138 Y33.121 E326.81657
G0 F4800 X137.6 Y33.121
G1 F1500 X137.6 Y24.721 E327.72914
G0 F4800 X137.2 Y24.721
G1 F1500 X137.2 Y33.121 E328.64172
G0 F4800 X136.8 Y33.121
G1 F1500 X136.8 Y24.721 E329.55429
G0 F4800 X136.4 Y24.721
G1 F1500 X136.4 Y33.121 E330.46687
G0 F4800 X136 Y33.121
G1 F1500 X136 Y24.721 E331.37945
G0 F4800 X135.6 Y24.721
G1 F1500 X135.6 Y33.121 E332.29202
G0 F4800 X135.2 Y33.121
G1 F1500 X135.2 Y24.721 E333.2046
G0 F4800 X134.8 Y24.721
G1 F1500 X134.8 Y33.121 E334.11717
G0 F4800 X134.4 Y33.121
G1 F1500 X134.4 Y24.721 E335.02975
G0 F4800 X134 Y24.721
G1 F1500 X134 Y33.121 E335.94233
G0 F4800 X133.6 Y33.121
G1 F1500 X133.6 Y24.721 E336.8549
G0 F4800 X133.2 Y24.721
G1 F1500 X133.2 Y33.121 E337.76748
G0 F4800 X132.8 Y33.121
G1 F1500 X132.8 Y24.721 E338.68005
G0 F4800 X132.4 Y24.721
G1 F1500 X132.4 Y33.121 E339.59263
G0 F4800 X132 Y33.121
G1 F1500 X132 Y24.721 E340.50521
G0 F4800 X131.6 Y24.721
G1 F1500 X131.6 Y33.121 E341.41778
G0 F4800 X131.2 Y33.121
G1 F1500 X131.2 Y24.721 E342.33036
G0 F4800 X130.8 Y24.721
G1 F1500 X130.8 Y33.121 E343.24293
G0 F4800 X130.4 Y33.121
G1 F1500 X130.4 Y24.721 E344.15551
G0 F4800 X130 Y24.721
G1 F1500 X130 Y33.121 E345.06809
G0 F4800 X129.6 Y33.121
G1 F1500 X129.6 Y24.721 E345.98066
G0 F4800 X129.2 Y24.721
G1 F1500 X129.2 Y33.121 E346.89324
G0 F4800 X128.8 Y33.121
G1 F1500 X128.8 Y24.721 E347.80581
G0 F4800 X128.4 Y24.721
G1 F1500 X128.4 Y33.121 E348.71839
G0 F4800 X128 Y33.121
G1 F1500 X128 Y24.721 E349.63097
G0 F4800 X127.6 Y24.721
G1 F1500 X127.6 Y33.121 E350.54354
G0 F4800 X127.2 Y33.121
