;FLAVOR:UltiGCode
;TIME:6541
;MATERIAL:21261
;MATERIAL2:0
;NOZZLE_DIAMETER:0.4
;MINX:52.976
;MINY:24.479
;MINZ:0.28
;MAXX:169.336
;MAXY:190.839
;MAXZ:4.08
;Generated with Cura_SteamEngine 5.0.0
M82 ;absolute extrusion mode
G0 F3000 Y50 ;avoid prime blob
G92 E0
G92 E0
G10
;LAYER_COUNT:20
;LAYER:0
M107
G0 F4800 X93.251 Y26.417 Z0.28
G0 X92.533 Y31.755
;TYPE:SKIRT
G11
G1 F1500 X92.848 Y28.976 E0.31324
G1 X92.998 Y27.393 E0.49133
G1 X93.251 Y26.417 E0.60426
G1 X93.794 Y25.568 E0.71713
G1 X94.574 Y24.93 E0.82999
G1 X95.03 Y24.711 E0.88665
G1 X96.015 Y24.5 E0.99947
G1 X96.506 Y24.479 E1.05451
G1 X125.475 Y24.479 E4.29904
G1 X126.173 Y24.489 E4.37722
G1 X126.676 Y24.536 E4.43381
G1 X127.166 Y24.662 E4.49047
G1 X128.056 Y25.136 E4.60341
G1 X128.434 Y25.471 E4.65998
G1 X129.009 Y26.299 E4.77288
G1 X129.192 Y26.77 E4.82947
G1 X129.311 Y27.374 E4.89842
G1 X129.618 Y30.476 E5.24754
G1 X129.972 Y33.218 E5.5572
G1 X130.403 Y35.949 E5.86685
G1 X130.901 Y38.606 E6.16962
G1 X131.481 Y41.283 E6.4764
G1 X132.13 Y43.922 E6.78078
G1 X132.863 Y46.571 E7.08861
G1 X133.674 Y49.209 E7.39772
G1 X134.548 Y51.792 E7.70312
G1 X135.497 Y54.354 E8.00912
G1 X136.532 Y56.919 E8.31891
G1 X137.61 Y59.393 E8.62116
G1 X138.783 Y61.887 E8.92984
G1 X140.022 Y64.336 E9.23723
G1 X141.317 Y66.732 E9.54227
G1 X142.692 Y69.108 E9.84973
G1 X144.14 Y71.456 E10.15869
G1 X145.619 Y73.708 E10.46045
G1 X147.208 Y75.985 E10.77143
G1 X148.83 Y78.174 E11.07657
G1 X150.527 Y80.334 E11.38422
G1 X152.253 Y82.407 E11.68634
G1 X154.087 Y84.489 E11.99709
G1 X155.944 Y86.479 E12.30194
G1 X157.892 Y88.451 E12.61239
G1 X159.839 Y90.315 E12.91428
G1 X161.881 Y92.161 E13.22258
G1 X163.993 Y93.967 E13.53382
G1 X166.081 Y95.649 E13.83411
G1 X167.863 Y97.004 E14.08484
G1 X168.483 Y97.547 E14.17715
G1 X168.795 Y97.945 E14.23379
G1 X169.211 Y98.863 E14.34667
G1 X169.324 Y99.612 E14.43151
G1 X169.336 Y100.034 E14.47879
G1 X169.336 Y114.933 E16.14748
G1 X169.326 Y115.654 E16.22824
G1 X169.279 Y116.158 E16.28493
G1 X168.952 Y117.111 E16.39777
G1 X168.345 Y117.916 E16.51069
G1 X168.066 Y118.155 E16.55184
G1 X167.112 Y118.882 E16.68618
G1 X164.966 Y120.566 E16.9917
G1 X162.854 Y122.322 E17.29932
G1 X160.814 Y124.119 E17.6038
G1 X158.781 Y126.012 E17.91492
G1 X156.872 Y127.896 E18.21532
G1 X154.921 Y129.932 E18.53115
G1 X153.117 Y131.926 E18.83231
G1 X151.344 Y134 E19.13791
G1 X149.611 Y136.145 E19.44676
G1 X147.971 Y138.3 E19.75006
G1 X146.358 Y140.548 E20.05995
G1 X144.827 Y142.815 E20.36633
G1 X143.36 Y145.122 E20.67253
G1 X141.952 Y147.486 E20.9807
G1 X140.626 Y149.857 E21.28496
G1 X139.352 Y152.3 E21.59354
G1 X138.165 Y154.738 E21.89724
G1 X137.032 Y157.245 E22.20537
G1 X135.958 Y159.817 E22.51754
G1 X134.991 Y162.321 E22.81818
G1 X134.08 Y164.9 E23.12451
G1 X133.241 Y167.505 E23.43103
G1 X132.474 Y170.144 E23.73883
G1 X131.776 Y172.821 E24.04868
G1 X131.163 Y175.484 E24.35474
G1 X130.632 Y178.131 E24.65711
G1 X130.168 Y180.84 E24.96493
G1 X129.776 Y183.579 E25.27483
G1 X129.472 Y186.253 E25.57624
G1 X129.426 Y186.792 E25.63683
G1 X129.31 Y187.949 E25.76707
G1 X129.053 Y188.924 E25.88
G1 X128.505 Y189.77 E25.99289
G1 X127.721 Y190.404 E26.10582
G1 X127.265 Y190.621 E26.16238
G1 X126.779 Y190.763 E26.21908
G1 X126.216 Y190.829 E26.28257
G1 X125.806 Y190.839 E26.3285
G1 X96.837 Y190.839 E29.57303
G1 X96.139 Y190.829 E29.65122
G1 X95.636 Y190.782 E29.7078
G1 X95.146 Y190.656 E29.76446
G1 X94.256 Y190.182 E29.8774
G1 X93.878 Y189.847 E29.93397
G1 X93.303 Y189.019 E30.04687
G1 X93.12 Y188.548 E30.10347
G1 X93.001 Y187.944 E30.17241
G1 X92.694 Y184.839 E30.52187
G1 X92.338 Y182.088 E30.83255
G1 X91.904 Y179.346 E31.14348
G1 X91.409 Y176.704 E31.44453
G1 X90.829 Y174.028 E31.7512
G1 X90.182 Y171.399 E32.05444
G1 X89.443 Y168.731 E32.3645
G1 X88.638 Y166.112 E32.67137
G1 X87.761 Y163.521 E32.97774
G1 X86.802 Y160.932 E33.28696
G1 X85.788 Y158.418 E33.59057
G1 X84.685 Y155.891 E33.89938
G1 X83.531 Y153.436 E34.2032
G1 X82.288 Y150.978 E34.5117
G1 X80.975 Y148.552 E34.82065
G1 X79.615 Y146.203 E35.12465
G1 X78.188 Y143.89 E35.42904
G1 X76.682 Y141.596 E35.73639
G1 X75.099 Y139.328 E36.04616
G1 X73.476 Y137.139 E36.35137
G1 X71.795 Y135 E36.65606
G1 X70.032 Y132.881 E36.96479
G1 X68.221 Y130.828 E37.2714
G1 X66.343 Y128.814 E37.57982
G1 X64.432 Y126.879 E37.88441
G1 X62.465 Y124.997 E38.18931
G1 X60.428 Y123.155 E38.4969
G1 X58.308 Y121.345 E38.80911
G1 X56.235 Y119.674 E39.10732
G1 X54.442 Y118.309 E39.35971
G1 X53.824 Y117.766 E39.45185
G1 X53.513 Y117.367 E39.50851
G1 X53.269 Y116.924 E39.56515
G1 X53.004 Y115.952 E39.67799
G1 X52.977 Y115.375 E39.74269
G1 X52.976 Y100.365 E41.42381
G1 X52.986 Y99.663 E41.50244
G1 X53.033 Y99.16 E41.55902
G1 X53.159 Y98.67 E41.61568
G1 X53.632 Y97.78 E41.72857
G1 X54.246 Y97.164 E41.82598
G1 X55.218 Y96.423 E41.96287
G1 X57.362 Y94.74 E42.26814
G1 X59.472 Y92.984 E42.57559
G1 X61.532 Y91.168 E42.88317
G1 X63.544 Y89.292 E43.19127
G1 X65.454 Y87.408 E43.49174
G1 X67.404 Y85.371 E43.80757
G1 X69.191 Y83.396 E44.10588
G1 X70.994 Y81.286 E44.41673
G1 X72.699 Y79.173 E44.72082
G1 X74.37 Y76.978 E45.02979
G1 X75.966 Y74.753 E45.33647
G1 X77.491 Y72.495 E45.64164
G1 X78.968 Y70.169 E45.95024
G1 X80.364 Y67.826 E46.2557
G1 X81.693 Y65.445 E46.5611
G1 X82.962 Y63.012 E46.86844
G1 X84.175 Y60.52 E47.17885
G1 X85.282 Y58.067 E47.48027
G1 X86.354 Y55.501 E47.79173
G1 X87.326 Y52.978 E48.09455
G1 X88.248 Y50.367 E48.40468
G1 X89.072 Y47.803 E48.70631
G1 X89.846 Y45.145 E49.01637
G1 X90.538 Y42.485 E49.32421
G1 X91.146 Y39.84 E49.62817
G1 X91.688 Y37.138 E49.93683
G1 X92.148 Y34.452 E50.24204
G1 X92.533 Y31.755 E50.54717
G10
;MESH:platte_klein_WJC.stl
G0 F4800 X96.176 Y115.415
;TYPE:WALL-OUTER
G11
G1 F1500 X96.361 Y115.556 E50.57322
G1 X96.376 Y115.635 E50.58222
G1 X96.376 Y187.439 E58.62427
G1 X125.936 Y187.439 E61.93499
G1 X125.937 Y115.613 E69.9795
G1 X126.066 Y115.436 E70.00403
G1 X126.156 Y115.415 E70.01438
G1 X165.936 Y115.415 E74.46974
G1 X165.936 Y107.66 E75.3383
G1 X165.936 Y99.905 E76.20686
G1 X126.136 Y99.904 E80.66446
G1 X125.951 Y99.763 E80.69052
G1 X125.936 Y99.684 E80.69952
G1 X125.936 Y27.879 E88.74168
G1 X96.376 Y27.879 E92.0524
G1 X96.375 Y99.706 E100.09703
G1 X96.246 Y99.883 E100.12156
G1 X96.156 Y99.905 E100.13193
G1 X56.377 Y99.905 E104.58718
G1 X56.377 Y115.415 E106.3243
G1 X96.176 Y115.415 E110.78179
G0 F4800 X96.335 Y115.536
G10
G0 X96.755 Y99.724
;TYPE:SKIN
G11
G1 F1500 X96.566 Y100.109 E110.82838
G1 X96.157 Y100.283 E110.87667
G1 X56.757 Y100.285 E115.15709
G1 X56.757 Y115.034 E116.75942
G1 X96.177 Y115.035 E121.04201
G1 X96.578 Y115.223 E121.09012
G1 X96.754 Y115.616 E121.1369
G1 X96.756 Y187.059 E128.89847
G1 X125.556 Y187.059 E132.0273
G1 X125.557 Y115.595 E139.79115
G1 X125.747 Y115.21 E139.83779
G1 X126.157 Y115.035 E139.88623
G1 X165.556 Y115.035 E144.16653
G1 X165.556 Y107.66 E144.96775
G1 X165.556 Y100.285 E145.76897
G1 X126.137 Y100.285 E150.05145
G1 X125.732 Y100.094 E150.1001
G1 X125.558 Y99.703 E150.14659
G1 X125.556 Y28.259 E157.90827
G1 X96.756 Y28.259 E161.0371
G1 X96.755 Y99.724 E168.80106
G10
G0 F4800 X165.2 Y100.485
G11
G1 F1500 X165.2 Y114.836 E170.36015
G0 F4800 X164.8 Y114.836
G1 F1500 X164.8 Y100.485 E171.91924
G0 F4800 X164.4 Y100.485
G1 F1500 X164.4 Y114.836 E173.47834
G0 F4800 X164 Y114.836
G1 F1500 X164 Y100.485 E175.03743
G0 F4800 X163.6 Y100.485
G1 F1500 X163.6 Y114.836 E176.59652
G0 F4800 X163.2 Y114.836
G1 F1500 X163.2 Y100.485 E178.15562
G0 F4800 X162.8 Y100.485
G1 F1500 X162.8 Y114.836 E179.71471
G0 F4800 X162.4 Y114.836
G1 F1500 X162.4 Y100.485 E181.2738
G0 F4800 X162 Y100.485
G1 F1500 X162 Y114.836 E182.83289
G0 F4800 X161.6 Y114.836
G1 F1500 X161.6 Y100.485 E184.39199
G0 F4800 X161.2 Y100.485
G1 F1500 X161.2 Y114.836 E185.95108
G0 F4800 X160.8 Y114.836
G1 F1500 X160.8 Y100.485 E187.51017
G0 F4800 X160.4 Y100.485
G1 F1500 X160.4 Y114.836 E189.06926
G0 F4800 X160 Y114.836
G1 F1500 X160 Y100.485 E190.62836
G0 F4800 X159.6 Y100.485
G1 F1500 X159.6 Y114.836 E192.18745
G0 F4800 X159.2 Y114.836
G1 F1500 X159.2 Y100.485 E193.74654
G0 F4800 X158.8 Y100.485
G1 F1500 X158.8 Y114.836 E195.30563
G0 F4800 X158.4 Y114.836
G1 F1500 X158.4 Y100.485 E196.86473
G0 F4800 X158 Y100.485
G1 F1500 X158 Y114.836 E198.42382
G0 F4800 X157.6 Y114.836
G1 F1500 X157.6 Y100.485 E199.98291
G0 F4800 X157.2 Y100.485
G1 F1500 X157.2 Y114.836 E201.54201
G0 F4800 X156.8 Y114.836
G1 F1500 X156.8 Y100.485 E203.1011
G0 F4800 X156.4 Y100.485
G1 F1500 X156.4 Y114.836 E204.66019
G0 F4800 X156 Y114.836
G1 F1500 X156 Y100.485 E206.21928
G0 F4800 X155.6 Y100.485
G1 F1500 X155.6 Y114.836 E207.77838
G0 F4800 X155.2 Y114.836
G1 F1500 X155.2 Y100.485 E209.33747
G0 F4800 X154.8 Y100.485
G1 F1500 X154.8 Y114.836 E210.89656
G0 F4800 X154.4 Y114.836
G1 F1500 X154.4 Y100.485 E212.45565
G0 F4800 X154 Y100.485
G1 F1500 X154 Y114.836 E214.01475
G0 F4800 X153.6 Y114.836
G1 F1500 X153.6 Y100.485 E215.57384
G0 F4800 X153.2 Y100.485
G1 F1500 X153.2 Y114.836 E217.13293
G0 F4800 X152.8 Y114.836
G1 F1500 X152.8 Y100.485 E218.69202
G0 F4800 X152.4 Y100.485
G1 F1500 X152.4 Y114.836 E220.25112
G0 F4800 X152 Y114.836
G1 F1500 X152 Y100.485 E221.81021
G0 F4800 X151.6 Y100.485
G1 F1500 X151.6 Y114.836 E223.3693
G0 F4800 X151.2 Y114.836
G1 F1500 X151.2 Y100.485 E224.92839
G0 F4800 X150.8 Y100.485
G1 F1500 X150.8 Y114.836 E226.48749
G0 F4800 X150.4 Y114.836
G1 F1500 X150.4 Y100.485 E228.04658
G0 F4800 X150 Y100.485
G1 F1500 X150 Y114.836 E229.60567
G0 F4800 X149.6 Y114.836
G1 F1500 X149.6 Y100.485 E231.16477
G0 F4800 X149.2 Y100.485
G1 F1500 X149.2 Y114.836 E232.72386
G0 F4800 X148.8 Y114.836
G1 F1500 X148.8 Y100.485 E234.28295
G0 F4800 X148.4 Y100.485
G1 F1500 X148.4 Y114.836 E235.84204
G0 F4800 X148 Y114.836
G1 F1500 X148 Y100.485 E237.40114
G0 F4800 X147.6 Y100.485
G1 F1500 X147.6 Y114.836 E238.96023
G0 F4800 X147.2 Y114.836
G1 F1500 X147.2 Y100.485 E240.51932
G0 F4800 X146.8 Y100.485
G1 F1500 X146.8 Y114.836 E242.07841
G0 F4800 X146.4 Y114.836
G1 F1500 X146.4 Y100.485 E243.63751
G0 F4800 X146 Y100.485
G1 F1500 X146 Y114.836 E245.1966
G0 F4800 X145.6 Y114.837
G1 F1500 X145.6 Y100.485 E246.7558
G0 F4800 X145.2 Y100.485
G1 F1500 X145.2 Y114.837 E248.315
G0 F4800 X144.8 Y114.837
G1 F1500 X144.8 Y100.485 E249.8742
G0 F4800 X144.4 Y100.485
G1 F1500 X144.4 Y114.837 E251.4334
G0 F4800 X144 Y114.837
G1 F1500 X144 Y100.485 E252.99261
G0 F4800 X143.6 Y100.485
G1 F1500 X143.6 Y114.837 E254.55181
G0 F4800 X143.2 Y114.837
G1 F1500 X143.2 Y100.485 E256.11101
G0 F4800 X142.8 Y100.485
G1 F1500 X142.8 Y114.837 E257.67021
G0 F4800 X142.4 Y114.837
G1 F1500 X142.4 Y100.485 E259.22941
G0 F4800 X142 Y100.485
G1 F1500 X142 Y114.837 E260.78861
G0 F4800 X141.6 Y114.837
G1 F1500 X141.6 Y100.485 E262.34781
G0 F4800 X141.2 Y100.485
G1 F1500 X141.2 Y114.837 E263.90701
G0 F4800 X140.8 Y114.837
G1 F1500 X140.8 Y100.485 E265.46622
G0 F4800 X140.4 Y100.485
G1 F1500 X140.4 Y114.837 E267.02542
G0 F4800 X140 Y114.837
G1 F1500 X140 Y100.485 E268.58462
G0 F4800 X139.6 Y100.485
G1 F1500 X139.6 Y114.837 E270.14382
G0 F4800 X139.2 Y114.837
G1 F1500 X139.2 Y100.485 E271.70302
G0 F4800 X138.8 Y100.485
G1 F1500 X138.8 Y114.837 E273.26222
G0 F4800 X138.4 Y114.837
G1 F1500 X138.4 Y100.485 E274.82142
G0 F4800 X138 Y100.485
G1 F1500 X138 Y114.837 E276.38062
G0 F4800 X137.6 Y114.837
G1 F1500 X137.6 Y100.485 E277.93983
G0 F4800 X137.2 Y100.485
G1 F1500 X137.2 Y114.837 E279.49903
G0 F4800 X136.8 Y114.837
G1 F1500 X136.8 Y100.485 E281.05823
G0 F4800 X136.4 Y100.485
G1 F1500 X136.4 Y114.837 E282.61743
G0 F4800 X136 Y114.837
G1 F1500 X136 Y100.485 E284.17663
G0 F4800 X135.6 Y100.485
G1 F1500 X135.6 Y114.837 E285.73583
G0 F4800 X135.2 Y114.837
G1 F1500 X135.2 Y100.485 E287.29503
G0 F4800 X134.8 Y100.485
G1 F1500 X134.8 Y114.837 E288.85423
G0 F4800 X134.4 Y114.837
G1 F1500 X134.4 Y100.485 E290.41344
G0 F4800 X134 Y100.485
G1 F1500 X134 Y114.837 E291.97264
G0 F4800 X133.6 Y114.837
G1 F1500 X133.6 Y100.485 E293.53184
G0 F4800 X133.2 Y100.485
G1 F1500 X133.2 Y114.837 E295.09104
G0 F4800 X132.8 Y114.837
G1 F1500 X132.8 Y100.485 E296.65024
G0 F4800 X132.4 Y100.485
G1 F1500 X132.4 Y114.837 E298.20944
G0 F4800 X132 Y114.837
G1 F1500 X132 Y100.485 E299.76864
G0 F4800 X131.6 Y100.485
G1 F1500 X131.6 Y114.837 E301.32785
G0 F4800 X131.2 Y114.837
G1 F1500 X131.2 Y100.485 E302.88705
G0 F4800 X130.8 Y100.485
G1 F1500 X130.8 Y114.837 E304.44625
G0 F4800 X130.4 Y114.837
G1 F1500 X130.4 Y100.485 E306.00545
G0 F4800 X130 Y100.485
G1 F1500 X130 Y114.837 E307.56465
G0 F4800 X129.6 Y114.837
G1 F1500 X129.6 Y100.485 E309.12385
G0 F4800 X129.2 Y100.485
G1 F1500 X129.2 Y114.837 E310.68305
G0 F4800 X128.8 Y114.837
G1 F1500 X128.8 Y100.485 E312.24225
G0 F4800 X128.4 Y100.485
G1 F1500 X128.4 Y114.837 E313.80146
G0 F4800 X128 Y114.837
G1 F1500 X128 Y100.485 E315.36066
G0 F4800 X127.6 Y100.485
G1 F1500 X127.6 Y114.837 E316.91986
G0 F4800 X127.2 Y114.837
G1 F1500 X127.2 Y100.485 E318.47906
G0 F4800 X126.8 Y100.485
G1 F1500 X126.8 Y114.837 E320.03826
G0 F4800 X126.4 Y114.837
G1 F1500 X126.4 Y100.485 E321.59746
G0 F4800 X126 Y100.441
G1 F1500 X126 Y114.878 E323.1659
G0 F4800 X125.6 Y115.072
G1 F1500 X125.6 Y100.246 E324.77659
G1 X125.6 Y100.146
G10
G0 F4800 X125.2 Y28.459
G11
G1 F1500 X125.2 Y186.859 E341.98517
G0 F4800 X124.8 Y186.859
G1 F1500 X124.8 Y28.459 E359.19375
G0 F4800 X124.4 Y28.459
G1 F1500 X124.4 Y186.859 E376.40232
G0 F4800 X124 Y186.859
G1 F1500 X124 Y28.459 E393.6109
G0 F4800 X123.6 Y28.459
G1 F1500 X123.6 Y186.859 E410.81947
G0 F4800 X123.2 Y186.859
G1 F1500 X123.2 Y28.459 E428.02805
G0 F4800 X122.8 Y28.459
G1 F1500 X122.8 Y186.859 E445.23663
G0 F4800 X122.4 Y186.859
G1 F1500 X122.4 Y28.459 E462.4452
G0 F4800 X122 Y28.459
G1 F1500 X122 Y186.859 E479.65378
G0 F4800 X121.6 Y186.859
G1 F1500 X121.6 Y28.459 E496.86235
G0 F4800 X121.2 Y28.459
G1 F1500 X121.2 Y186.859 E514.07093
G0 F4800 X120.8 Y186.859
G1 F1500 X120.8 Y28.459 E531.27951
G0 F4800 X120.4 Y28.459
G1 F1500 X120.4 Y186.859 E548.48808
G0 F4800 X120 Y186.859
G1 F1500 X120 Y28.459 E565.69666
G0 F4800 X119.6 Y28.459
G1 F1500 X119.6 Y186.859 E582.90523
G0 F4800 X119.2 Y186.859
G1 F1500 X119.2 Y28.459 E600.11381
G0 F4800 X118.8 Y28.459
G1 F1500 X118.8 Y186.859 E617.32239
G0 F4800 X118.4 Y186.859
G1 F1500 X118.4 Y28.459 E634.53096
G0 F4800 X118 Y28.459
G1 F1500 X118 Y186.859 E651.73954
G0 F4800 X117.6 Y186.859
G1 F1500 X117.6 Y28.459 E668.94811
G0 F4800 X117.2 Y28.459
G1 F1500 X117.2 Y186.859 E686.15669
G0 F4800 X116.8 Y186.859
G1 F1500 X116.8 Y28.459 E703.36527
G0 F4800 X116.4 Y28.459
G1 F1500 X116.4 Y186.859 E720.57384
G0 F4800 X116 Y186.859
G1 F1500 X116 Y28.459 E737.78242
G0 F4800 X115.6 Y28.459
G1 F1500 X115.6 Y186.859 E754.99099
G0 F4800 X115.2 Y186.859
G1 F1500 X115.2 Y28.459 E772.19957
G0 F4800 X114.8 Y28.459
G1 F1500 X114.8 Y186.859 E789.40815
G0 F4800 X114.4 Y186.859
G1 F1500 X114.4 Y28.459 E806.61672
G0 F4800 X114 Y28.459
G1 F1500 X114 Y186.859 E823.8253
G0 F4800 X113.6 Y186.859
G1 F1500 X113.6 Y28.459 E841.03387
G0 F4800 X113.2 Y28.459
G1 F1500 X113.2 Y186.859 E858.24245
G0 F4800 X112.8 Y186.859
G1 F1500 X112.8 Y28.459 E875.45103
G0 F4800 X112.4 Y28.459
G1 F1500 X112.4 Y186.859 E892.6596
G0 F4800 X112 Y186.859
G1 F1500 X112 Y28.459 E909.86818
G0 F4800 X111.6 Y28.459
G1 F1500 X111.6 Y186.859 E927.07675
G0 F4800 X111.2 Y186.859
G1 F1500 X111.2 Y28.459 E944.28533
G0 F4800 X110.8 Y28.459
G1 F1500 X110.8 Y186.859 E961.49391
G0 F4800 X110.4 Y186.859
G1 F1500 X110.4 Y28.459 E978.70248
G0 F4800 X110 Y28.459
G1 F1500 X110 Y186.859 E995.91106
G0 F4800 X109.6 Y186.859
G1 F1500 X109.6 Y28.459 E1013.11963
G0 F4800 X109.2 Y28.459
G1 F1500 X109.2 Y186.859 E1030.32821
G0 F4800 X108.8 Y186.859
G1 F1500 X108.8 Y28.459 E1047.53679
G0 F4800 X108.4 Y28.459
G1 F1500 X108.4 Y186.859 E1064.74536
G0 F4800 X108 Y186.859
G1 F1500 X108 Y28.459 E1081.95394
G0 F4800 X107.6 Y28.459
G1 F1500 X107.6 Y186.859 E1099.16251
G0 F4800 X107.2 Y186.859
G1 F1500 X107.2 Y28.459 E1116.37109
G0 F4800 X106.8 Y28.459
G1 F1500 X106.8 Y186.859 E1133.57967
G0 F4800 X106.4 Y186.859
G1 F1500 X106.4 Y28.459 E1150.78824
G0 F4800 X106 Y28.459
G1 F1500 X106 Y186.859 E1167.99682
G0 F4800 X105.6 Y186.859
