;FLAVOR:UltiGCode
;TIME:5778
;MATERIAL:18698
;MATERIAL2:0
;NOZZLE_DIAMETER:0.4
;MINX:93.32
;MINY:23.32
;MINZ:0.28
;MAXX:129.68
;MAXY:189.68
;MAXZ:4.08
;Generated with Cura_SteamEngine 5.0.0
M82 ;absolute extrusion mode
G0 F3000 Y50 ;avoid prime blob
G92 E0
G92 E0
G10
;LAYER_COUNT:20
;LAYER:0
M107
G0 F4800 X93.376 Y25.982 Z0.28
G0 X93.32 Y27.151
;TYPE:SKIRT
G11
G1 F1500 X93.329 Y26.486 E0.07449
G1 X93.376 Y25.982 E0.13118
G1 X93.703 Y25.029 E0.24402
G1 X93.974 Y24.602 E0.30067
G1 X94.7 Y23.903 E0.41354
G1 X95.608 Y23.464 E0.5265
G1 X96.439 Y23.33 E0.62077
G1 X96.85 Y23.32 E0.66682
G1 X125.819 Y23.32 E3.91135
G1 X126.517 Y23.33 E3.98953
G1 X127.02 Y23.377 E4.04611
G1 X127.51 Y23.503 E4.10278
G1 X128.4 Y23.977 E4.21571
G1 X128.778 Y24.312 E4.27228
G1 X129.353 Y25.14 E4.38519
G1 X129.643 Y26.105 E4.49804
G1 X129.679 Y26.76 E4.57151
G1 X129.68 Y185.784 E22.3822
G1 X129.671 Y186.511 E22.46363
G1 X129.625 Y187.014 E22.5202
G1 X129.5 Y187.504 E22.57684
G1 X129.028 Y188.395 E22.68977
G1 X128.303 Y189.095 E22.80264
G1 X127.867 Y189.351 E22.85927
G1 X126.902 Y189.642 E22.97216
G1 X126.24 Y189.679 E23.04641
G1 X97.186 Y189.68 E26.30046
G1 X96.488 Y189.671 E26.37865
G1 X95.494 Y189.499 E26.49163
G1 X94.604 Y189.027 E26.60446
G1 X94.225 Y188.692 E26.66111
G1 X93.649 Y187.865 E26.77399
G1 X93.465 Y187.394 E26.83062
G1 X93.33 Y186.557 E26.92558
G1 X93.32 Y186.138 E26.97252
G1 X93.32 Y27.151 E44.77906
G10
;MESH:platte_klein.stl
G0 F4800 X96.72 Y26.72
;TYPE:WALL-OUTER
G11
G1 F1500 X96.72 Y186.28 E62.64978
G1 X126.28 Y186.28 E65.9605
G1 X126.28 Y41.5 E82.17586
G1 X126.28 Y26.72 E83.83122
G1 X96.72 Y26.72 E87.14194
G0 F4800 X96.72 Y26.92
G0 X97.1 Y27.1
;TYPE:SKIN
G1 F1500 X97.1 Y185.9 E104.39397
G1 X125.9 Y185.9 E107.52281
G1 X125.9 Y41.5 E123.21042
G1 X125.9 Y27.1 E124.77484
G1 X97.1 Y27.1 E127.90367
G10
G0 F4800 X125.163 Y27.299
G11
G1 F1500 X125.7 Y27.836 E127.98618
G0 F4800 X125.7 Y28.402
G1 F1500 X124.597 Y27.299 E128.15564
G0 F4800 X124.032 Y27.299
G1 F1500 X125.7 Y28.968 E128.41199
G0 F4800 X125.7 Y29.533
G1 F1500 X123.466 Y27.299 E128.75522
G0 F4800 X122.9 Y27.299
G1 F1500 X125.7 Y30.099 E129.18541
G0 F4800 X125.7 Y30.665
G1 F1500 X122.335 Y27.299 E129.70249
G0 F4800 X121.769 Y27.299
G1 F1500 X125.7 Y31.23 E130.30645
G0 F4800 X125.7 Y31.796
G1 F1500 X121.203 Y27.299 E130.99737
G0 F4800 X120.638 Y27.299
G1 F1500 X125.7 Y32.362 E131.77517
G0 F4800 X125.7 Y32.927
G1 F1500 X120.072 Y27.299 E132.63986
G0 F4800 X119.506 Y27.299
G1 F1500 X125.7 Y33.493 E133.59151
G0 F4800 X125.7 Y34.059
G1 F1500 X118.941 Y27.299 E134.63004
G0 F4800 X118.375 Y27.299
G1 F1500 X125.7 Y34.624 E135.75545
G0 F4800 X125.7 Y35.19
G1 F1500 X117.809 Y27.299 E136.96783
G0 F4800 X117.243 Y27.299
G1 F1500 X125.7 Y35.756 E138.26716
G0 F4800 X125.7 Y36.321
G1 F1500 X116.678 Y27.299 E139.6533
G0 F4800 X116.112 Y27.299
G1 F1500 X125.7 Y36.887 E141.1264
G0 F4800 X125.7 Y37.453
G1 F1500 X115.546 Y27.299 E142.68647
G0 F4800 X114.981 Y27.299
G1 F1500 X125.7 Y38.019 E144.33341
G0 F4800 X125.7 Y38.584
G1 F1500 X114.415 Y27.299 E146.06724
G0 F4800 X113.849 Y27.299
G1 F1500 X125.7 Y39.15 E147.88803
G0 F4800 X125.7 Y39.716
G1 F1500 X113.284 Y27.299 E149.7957
G0 F4800 X112.718 Y27.299
G1 F1500 X125.7 Y40.281 E151.79026
G0 F4800 X125.7 Y40.847
G1 F1500 X112.152 Y27.299 E153.87178
G0 F4800 X111.587 Y27.299
G1 F1500 X125.7 Y41.413 E156.04018
G0 F4800 X125.7 Y41.978
G1 F1500 X111.021 Y27.299 E158.29546
G0 F4800 X110.455 Y27.299
G1 F1500 X125.7 Y42.544 E160.63771
G0 F4800 X125.7 Y43.11
G1 F1500 X109.89 Y27.299 E163.06683
G0 F4800 X109.324 Y27.299
G1 F1500 X125.7 Y43.675 E165.58285
G0 F4800 X125.7 Y44.241
G1 F1500 X108.758 Y27.299 E168.18582
G0 F4800 X108.192 Y27.299
G1 F1500 X125.7 Y44.807 E170.87575
G0 F4800 X125.7 Y45.372
G1 F1500 X107.627 Y27.299 E173.65249
G0 F4800 X107.061 Y27.299
G1 F1500 X125.7 Y45.938 E176.51619
G0 F4800 X125.7 Y46.504
G1 F1500 X106.495 Y27.299 E179.46685
G0 F4800 X105.93 Y27.299
G1 F1500 X125.7 Y47.069 E182.50431
G0 F4800 X125.7 Y47.635
G1 F1500 X105.364 Y27.299 E185.62874
G0 F4800 X104.798 Y27.299
G1 F1500 X125.7 Y48.201 E188.84012
G0 F4800 X125.7 Y48.767
G1 F1500 X104.233 Y27.299 E192.13839
G0 F4800 X103.667 Y27.299
G1 F1500 X125.7 Y49.332 E195.52355
G0 F4800 X125.7 Y49.898
G1 F1500 X103.101 Y27.299 E198.99566
G0 F4800 X102.536 Y27.299
G1 F1500 X125.7 Y50.464 E202.55466
G0 F4800 X125.7 Y51.029
G1 F1500 X101.97 Y27.299 E206.20054
G0 F4800 X101.404 Y27.299
G1 F1500 X125.7 Y51.595 E209.93338
G0 F4800 X125.7 Y52.161
G1 F1500 X100.839 Y27.299 E213.75311
G0 F4800 X100.273 Y27.299
G1 F1500 X125.7 Y52.726 E217.65972
G0 F4800 X125.7 Y53.292
G1 F1500 X99.707 Y27.299 E221.65328
G0 F4800 X99.142 Y27.299
G1 F1500 X125.7 Y53.858 E225.73374
G0 F4800 X125.7 Y54.423
G1 F1500 X98.576 Y27.299 E229.90107
G0 F4800 X98.01 Y27.299
G1 F1500 X125.7 Y54.989 E234.15537
G0 F4800 X125.7 Y55.555
G1 F1500 X97.444 Y27.299 E238.49662
G0 F4800 X97.299 Y27.72
G1 F1500 X125.7 Y56.12 E242.86008
G0 F4800 X125.7 Y56.686
G1 F1500 X97.299 Y28.285 E247.22362
G0 F4800 X97.299 Y28.851
G1 F1500 X125.7 Y57.252 E251.58715
G0 F4800 X125.7 Y57.818
G1 F1500 X97.299 Y29.417 E255.95068
G0 F4800 X97.299 Y29.982
G1 F1500 X125.7 Y58.383 E260.31422
G0 F4800 X125.7 Y58.949
G1 F1500 X97.299 Y30.548 E264.67775
G0 F4800 X97.299 Y31.114
G1 F1500 X125.7 Y59.515 E269.04129
G0 F4800 X125.7 Y60.08
G1 F1500 X97.299 Y31.679 E273.40482
G0 F4800 X97.299 Y32.245
G1 F1500 X125.7 Y60.646 E277.76836
G0 F4800 X125.7 Y61.212
G1 F1500 X97.299 Y32.811 E282.13189
G0 F4800 X97.299 Y33.376
G1 F1500 X125.7 Y61.777 E286.49542
G0 F4800 X125.7 Y62.343
G1 F1500 X97.299 Y33.942 E290.85896
G0 F4800 X97.299 Y34.508
G1 F1500 X125.7 Y62.909 E295.22249
G0 F4800 X125.7 Y63.474
G1 F1500 X97.299 Y35.073 E299.58603
G0 F4800 X97.299 Y35.639
G1 F1500 X125.7 Y64.04 E303.94956
G0 F4800 X125.7 Y64.606
G1 F1500 X97.299 Y36.205 E308.3131
G0 F4800 X97.299 Y36.77
G1 F1500 X125.7 Y65.171 E312.67663
G0 F4800 X125.7 Y65.737
G1 F1500 X97.299 Y37.336 E317.04016
G0 F4800 X97.299 Y37.902
G1 F1500 X125.7 Y66.303 E321.4037
G0 F4800 X125.7 Y66.868
G1 F1500 X97.299 Y38.468 E325.76716
G0 F4800 X97.299 Y39.033
G1 F1500 X125.7 Y67.434 E330.13069
G0 F4800 X125.7 Y68
G1 F1500 X97.299 Y39.599 E334.49422
G0 F4800 X97.299 Y40.165
G1 F1500 X125.7 Y68.566 E338.85776
G0 F4800 X125.7 Y69.131
G1 F1500 X97.299 Y40.73 E343.22129
G0 F4800 X97.299 Y41.296
G1 F1500 X125.7 Y69.697 E347.58483
G0 F4800 X125.7 Y70.263
G1 F1500 X97.299 Y41.862 E351.94836
G0 F4800 X97.299 Y42.427
G1 F1500 X125.7 Y70.828 E356.3119
G0 F4800 X125.7 Y71.394
G1 F1500 X97.299 Y42.993 E360.67543
G0 F4800 X97.299 Y43.559
G1 F1500 X125.7 Y71.96 E365.03896
G0 F4800 X125.7 Y72.525
G1 F1500 X97.299 Y44.124 E369.4025
G0 F4800 X97.299 Y44.69
G1 F1500 X125.7 Y73.091 E373.76603
G0 F4800 X125.7 Y73.657
G1 F1500 X97.299 Y45.256 E378.12957
G0 F4800 X97.299 Y45.821
G1 F1500 X125.7 Y74.222 E382.4931
G0 F4800 X125.7 Y74.788
G1 F1500 X97.299 Y46.387 E386.85663
G0 F4800 X97.299 Y46.953
G1 F1500 X125.7 Y75.354 E391.22017
G0 F4800 X125.7 Y75.919
G1 F1500 X97.299 Y47.518 E395.5837
G0 F4800 X97.299 Y48.084
G1 F1500 X125.7 Y76.485 E399.94724
G0 F4800 X125.7 Y77.051
G1 F1500 X97.299 Y48.65 E404.31077
G0 F4800 X97.299 Y49.216
G1 F1500 X125.7 Y77.616 E408.67423
G0 F4800 X125.7 Y78.182
G1 F1500 X97.299 Y49.781 E413.03776
G0 F4800 X97.299 Y50.347
G1 F1500 X125.7 Y78.748 E417.4013
G0 F4800 X125.7 Y79.314
G1 F1500 X97.299 Y50.913 E421.76483
G0 F4800 X97.299 Y51.478
G1 F1500 X125.7 Y79.879 E426.12837
G0 F4800 X125.7 Y80.445
G1 F1500 X97.299 Y52.044 E430.4919
G0 F4800 X97.299 Y52.61
G1 F1500 X125.7 Y81.011 E434.85543
G0 F4800 X125.7 Y81.576
G1 F1500 X97.299 Y53.175 E439.21897
G0 F4800 X97.299 Y53.741
G1 F1500 X125.7 Y82.142 E443.5825
G0 F4800 X125.7 Y82.708
G1 F1500 X97.299 Y54.307 E447.94604
G0 F4800 X97.299 Y54.872
G1 F1500 X125.7 Y83.273 E452.30957
G0 F4800 X125.7 Y83.839
G1 F1500 X97.299 Y55.438 E456.67311
G0 F4800 X97.299 Y56.004
G1 F1500 X125.7 Y84.405 E461.03664
G0 F4800 X125.7 Y84.97
G1 F1500 X97.299 Y56.569 E465.40017
G0 F4800 X97.299 Y57.135
G1 F1500 X125.7 Y85.536 E469.76371
G0 F4800 X125.7 Y86.102
G1 F1500 X97.299 Y57.701 E474.12724
G0 F4800 X97.299 Y58.267
G1 F1500 X125.7 Y86.667 E478.4907
G0 F4800 X125.7 Y87.233
G1 F1500 X97.299 Y58.832 E482.85423
G0 F4800 X97.299 Y59.398
G1 F1500 X125.7 Y87.799 E487.21777
G0 F4800 X125.7 Y88.365
G1 F1500 X97.299 Y59.964 E491.5813
G0 F4800 X97.299 Y60.529
G1 F1500 X125.7 Y88.93 E495.94484
G0 F4800 X125.7 Y89.496
G1 F1500 X97.299 Y61.095 E500.30837
G0 F4800 X97.299 Y61.661
G1 F1500 X125.7 Y90.062 E504.67191
G0 F4800 X125.7 Y90.627
G1 F1500 X97.299 Y62.226 E509.03544
G0 F4800 X97.299 Y62.792
G1 F1500 X125.7 Y91.193 E513.39897
G0 F4800 X125.7 Y91.759
G1 F1500 X97.299 Y63.358 E517.76251
G0 F4800 X97.299 Y63.923
G1 F1500 X125.7 Y92.324 E522.12604
G0 F4800 X125.7 Y92.89
G1 F1500 X97.299 Y64.489 E526.48958
G0 F4800 X97.299 Y65.055
G1 F1500 X125.7 Y93.456 E530.85311
G0 F4800 X125.7 Y94.021
G1 F1500 X97.299 Y65.62 E535.21664
G0 F4800 X97.299 Y66.186
G1 F1500 X125.7 Y94.587 E539.58018
G0 F4800 X125.7 Y95.153
G1 F1500 X97.299 Y66.752 E543.94371
G0 F4800 X97.299 Y67.317
G1 F1500 X125.7 Y95.718 E548.30725
G0 F4800 X125.7 Y96.284
G1 F1500 X97.299 Y67.883 E552.67078
G0 F4800 X97.299 Y68.449
G1 F1500 X125.7 Y96.85 E557.03432
G0 F4800 X125.7 Y97.415
G1 F1500 X97.299 Y69.015 E561.39777
G0 F4800 X97.299 Y69.58
G1 F1500 X125.7 Y97.981 E565.76131
G0 F4800 X125.7 Y98.547
G1 F1500 X97.299 Y70.146 E570.12484
G0 F4800 X97.299 Y70.712
G1 F1500 X125.7 Y99.113 E574.48838
G0 F4800 X125.7 Y99.678
G1 F1500 X97.299 Y71.277 E578.85191
G0 F4800 X97.299 Y71.843
G1 F1500 X125.7 Y100.244 E583.21544
G0 F4800 X125.7 Y100.81
G1 F1500 X97.299 Y72.409 E587.57898
G0 F4800 X97.299 Y72.974
G1 F1500 X125.7 Y101.375 E591.94251
G0 F4800 X125.7 Y101.941
G1 F1500 X97.299 Y73.54 E596.30605
G0 F4800 X97.299 Y74.106
G1 F1500 X125.7 Y102.507 E600.66958
G0 F4800 X125.7 Y103.072
G1 F1500 X97.299 Y74.671 E605.03312
G0 F4800 X97.299 Y75.237
G1 F1500 X125.7 Y103.638 E609.39665
G0 F4800 X125.7 Y104.204
G1 F1500 X97.299 Y75.803 E613.76018
G0 F4800 X97.299 Y76.368
G1 F1500 X125.7 Y104.769 E618.12372
G0 F4800 X125.7 Y105.335
G1 F1500 X97.299 Y76.934 E622.48725
G0 F4800 X97.299 Y77.5
G1 F1500 X125.7 Y105.901 E626.85079
G0 F4800 X125.7 Y106.466
G1 F1500 X97.299 Y78.066 E631.21424
G0 F4800 X97.299 Y78.631
G1 F1500 X125.7 Y107.032 E635.57778
G0 F4800 X125.7 Y107.598
G1 F1500 X97.299 Y79.197 E639.94131
G0 F4800 X97.299 Y79.763
G1 F1500 X125.7 Y108.164 E644.30485
G0 F4800 X125.7 Y108.729
G1 F1500 X97.299 Y80.328 E648.66838
G0 F4800 X97.299 Y80.894
G1 F1500 X125.7 Y109.295 E653.03192
G0 F4800 X125.7 Y109.861
G1 F1500 X97.299 Y81.46 E657.39545
G0 F4800 X97.299 Y82.025
G1 F1500 X125.7 Y110.426 E661.75898
G0 F4800 X125.7 Y110.992
G1 F1500 X97.299 Y82.591 E666.12252
G0 F4800 X97.299 Y83.157
G1 F1500 X125.7 Y111.558 E670.48605
G0 F4800 X125.7 Y112.123
G1 F1500 X97.299 Y83.722 E674.84959
G0 F4800 X97.299 Y84.288
G1 F1500 X125.7 Y112.689 E679.21312
G0 F4800 X125.7 Y113.255
G1 F1500 X97.299 Y84.854 E683.57665
G0 F4800 X97.299 Y85.419
G1 F1500 X125.7 Y113.82 E687.94019
G0 F4800 X125.7 Y114.386
G1 F1500 X97.299 Y85.985 E692.30372
G0 F4800 X97.299 Y86.551
G1 F1500 X125.7 Y114.952 E696.66726
G0 F4800 X125.7 Y115.517
G1 F1500 X97.299 Y87.116 E701.03079
G0 F4800 X97.299 Y87.682
G1 F1500 X125.7 Y116.083 E705.39433
G0 F4800 X125.7 Y116.649
G1 F1500 X97.299 Y88.248 E709.75786
G0 F4800 X97.299 Y88.814
G1 F1500 X125.7 Y117.214 E714.12132
G0 F4800 X125.7 Y117.78
G1 F1500 X97.299 Y89.379 E718.48485
G0 F4800 X97.299 Y89.945
G1 F1500 X125.7 Y118.346 E722.84839
G0 F4800 X125.7 Y118.912
G1 F1500 X97.299 Y90.511 E727.21192
G0 F4800 X97.299 Y91.076
G1 F1500 X125.7 Y119.477 E731.57545
G0 F4800 X125.7 Y120.043
G1 F1500 X97.299 Y91.642 E735.93899
G0 F4800 X97.299 Y92.208
G1 F1500 X125.7 Y120.609 E740.30252
G0 F4800 X125.7 Y121.174
G1 F1500 X97.299 Y92.773 E744.66606
G0 F4800 X97.299 Y93.339
G1 F1500 X125.7 Y121.74 E749.02959
G0 F4800 X125.7 Y122.306
G1 F1500 X97.299 Y93.905 E753.39313
G0 F4800 X97.299 Y94.47
G1 F1500 X125.7 Y122.871 E757.75666
G0 F4800 X125.7 Y123.437
G1 F1500 X97.299 Y95.036 E762.12019
G0 F4800 X97.299 Y95.602
G1 F1500 X125.7 Y124.003 E766.48373
G0 F4800 X125.7 Y124.568
G1 F1500 X97.299 Y96.167 E770.84726
G0 F4800 X97.299 Y96.733
G1 F1500 X125.7 Y125.134 E775.2108
G0 F4800 X125.7 Y125.7
G1 F1500 X97.299 Y97.299 E779.57433
G0 F4800 X97.299 Y97.864
G1 F1500 X125.7 Y126.265 E783.93786
G0 F4800 X125.7 Y126.831
G1 F1500 X97.299 Y98.43 E788.3014
G0 F4800 X97.299 Y98.996
G1 F1500 X125.7 Y127.397 E792.66493
G0 F4800 X125.7 Y127.962
G1 F1500 X97.299 Y99.562 E797.02839
G0 F4800 X97.299 Y100.127
G1 F1500 X125.7 Y128.528 E801.39192
G0 F4800 X125.7 Y129.094
G1 F1500 X97.299 Y100.693 E805.75546
G0 F4800 X97.299 Y101.259
G1 F1500 X125.7 Y129.66 E810.11899
G0 F4800 X125.7 Y130.225
G1 F1500 X97.299 Y101.824 E814.48253
G0 F4800 X97.299 Y102.39
G1 F1500 X125.7 Y130.791 E818.84606
G0 F4800 X125.7 Y131.357
G1 F1500 X97.299 Y102.956 E823.2096
G0 F4800 X97.299 Y103.521
G1 F1500 X125.7 Y131.922 E827.57313
G0 F4800 X125.7 Y132.488
G1 F1500 X97.299 Y104.087 E831.93666
G0 F4800 X97.299 Y104.653
G1 F1500 X125.7 Y133.054 E836.3002
G0 F4800 X125.7 Y133.619
G1 F1500 X97.299 Y105.218 E840.66373
G0 F4800 X97.299 Y105.784
G1 F1500 X125.7 Y134.185 E845.02727
G0 F4800 X125.7 Y134.751
G1 F1500 X97.299 Y106.35 E849.3908
G0 F4800 X97.299 Y106.915
G1 F1500 X125.7 Y135.316 E853.75434
G0 F4800 X125.7 Y135.882
G1 F1500 X97.299 Y107.481 E858.11787
G0 F4800 X97.299 Y108.047
G1 F1500 X125.7 Y136.448 E862.4814
G0 F4800 X125.7 Y137.013
G1 F1500 X97.299 Y108.613 E866.84486
G0 F4800 X97.299 Y109.178
G1 F1500 X125.7 Y137.579 E871.2084
G0 F4800 X125.7 Y138.145
G1 F1500 X97.299 Y109.744 E875.57193
G0 F4800 X97.299 Y110.31
G1 F1500 X125.7 Y138.711 E879.93546
G0 F4800 X125.7 Y139.276
G1 F1500 X97.299 Y110.875 E884.299
G0 F4800 X97.299 Y111.441
G1 F1500 X125.7 Y139.842 E888.66253
G0 F4800 X125.7 Y140.408
G1 F1500 X97.299 Y112.007 E893.02607
G0 F4800 X97.299 Y112.572
G1 F1500 X125.7 Y140.973 E897.3896
G0 F4800 X125.7 Y141.539
G1 F1500 X97.299 Y113.138 E901.75314
G0 F4800 X97.299 Y113.704
G1 F1500 X125.7 Y142.105 E906.11667
G0 F4800 X125.7 Y142.67
G1 F1500 X97.299 Y114.269 E910.4802
G0 F4800 X97.299 Y114.835
G1 F1500 X125.7 Y143.236 E914.84374
G0 F4800 X125.7 Y143.802
G1 F1500 X97.299 Y115.401 E919.20727
G0 F4800 X97.299 Y115.966
G1 F1500 X125.7 Y144.367 E923.57081
G0 F4800 X125.7 Y144.933
G1 F1500 X97.299 Y116.532 E927.93434
G0 F4800 X97.299 Y117.098
G1 F1500 X125.7 Y145.499 E932.29787
G0 F4800 X125.7 Y146.064
G1 F1500 X97.299 Y117.663 E936.66141
G0 F4800 X97.299 Y118.229
G1 F1500 X125.7 Y146.63 E941.02494
G0 F4800 X125.7 Y147.196
G1 F1500 X97.299 Y118.795 E945.38848
G0 F4800 X97.299 Y119.361
G1 F1500 X125.7 Y147.761 E949.75193
G0 F4800 X125.7 Y148.327
G1 F1500 X97.299 Y119.926 E954.11547
G0 F4800 X97.299 Y120.492
G1 F1500 X125.7 Y148.893 E958.479
G0 F4800 X125.7 Y149.459
G1 F1500 X97.299 Y121.058 E962.84254
G0 F4800 X97.299 Y121.623
G1 F1500 X125.7 Y150.024 E967.20607
G0 F4800 X125.7 Y150.59
G1 F1500 X97.299 Y122.189 E971.56961
G0 F4800 X97.299 Y122.755
G1 F1500 X125.7 Y151.156 E975.93314
G0 F4800 X125.7 Y151.721
G1 F1500 X97.299 Y123.32 E980.29667
G0 F4800 X97.299 Y123.886
G1 F1500 X125.7 Y152.287 E984.66021
G0 F4800 X125.7 Y152.853
G1 F1500 X97.299 Y124.452 E989.02374
G0 F4800 X97.299 Y125.017
G1 F1500 X125.7 Y153.418 E993.38728
G0 F4800 X125.7 Y153.984
G1 F1500 X97.299 Y125.583 E997.75081
G0 F4800 X97.299 Y126.149
G1 F1500 X125.7 Y154.55 E1002.11435
G0 F4800 X125.7 Y155.115
G1 F1500 X97.299 Y126.714 E1006.47788
G0 F4800 X97.299 Y127.28
G1 F1500 X125.7 Y155.681 E1010.84141
G0 F4800 X125.7 Y156.247
G1 F1500 X97.299 Y127.846 E1015.20495
G0 F4800 X97.299 Y128.412
G1 F1500 X125.7 Y156.812 E1019.56841
G0 F4800 X125.7 Y157.378
G1 F1500 X97.299 Y128.977 E1023.93194
G0 F4800 X97.299 Y129.543
G1 F1500 X125.7 Y157.944 E1028.29547
G0 F4800 X125.7 Y158.51
G1 F1500 X97.299 Y130.109 E1032.65901
G0 F4800 X97.299 Y130.674
G1 F1500 X125.7 Y159.075 E1037.02254
G0 F4800 X125.7 Y159.641
G1 F1500 X97.299 Y131.24 E1041.38608
