;FLAVOR:UltiGCode
;TIME:5773
;MATERIAL:18663
;MATERIAL2:0
;NOZZLE_DIAMETER:0.4
;MINX:93.32
;MINY:23.32
;MINZ:0.28
;MAXX:129.68
;MAXY:189.68
;MAXZ:4.08
;Generated with Cura_SteamEngine 5.0.0
M82 ;absolute extrusion mode
G0 F3000 Y50 ;avoid prime blob
G92 E0
G92 E0
G10
;LAYER_COUNT:20
;LAYER:0
M107
G0 F4800 X93.376 Y25.982 Z0.28
G0 X93.32 Y27.151
;TYPE:SKIRT
G11
G1 F1500 X93.329 Y26.486 E0.07449
G1 X93.376 Y25.982 E0.13118
G1 X93.703 Y25.029 E0.24402
G1 X93.974 Y24.602 E0.30067
G1 X94.7 Y23.903 E0.41354
G1 X95.608 Y23.464 E0.5265
G1 X96.439 Y23.33 E0.62077
G1 X96.85 Y23.32 E0.66682
G1 X125.819 Y23.32 E3.91135
G1 X126.517 Y23.33 E3.98953
G1 X127.02 Y23.377 E4.04611
G1 X127.51 Y23.503 E4.10278
G1 X128.4 Y23.977 E4.21571
G1 X128.778 Y24.312 E4.27228
G1 X129.353 Y25.14 E4.38519
G1 X129.643 Y26.105 E4.49804
G1 X129.679 Y26.76 E4.57151
G1 X129.68 Y185.784 E22.3822
G1 X129.671 Y186.511 E22.46363
G1 X129.625 Y187.014 E22.5202
G1 X129.5 Y187.504 E22.57684
G1 X129.028 Y188.395 E22.68977
G1 X128.303 Y189.095 E22.80264
G1 X127.867 Y189.351 E22.85927
G1 X126.902 Y189.642 E22.97216
G1 X126.24 Y189.679 E23.04641
G1 X97.186 Y189.68 E26.30046
G1 X96.488 Y189.671 E26.37865
G1 X95.494 Y189.499 E26.49163
G1 X94.604 Y189.027 E26.60446
G1 X94.225 Y188.692 E26.66111
G1 X93.649 Y187.865 E26.77399
G1 X93.465 Y187.394 E26.83062
G1 X93.33 Y186.557 E26.92558
G1 X93.32 Y186.138 E26.97252
G1 X93.32 Y27.151 E44.77906
G10
;MESH:platte_klein.stl
G0 F4800 X96.72 Y26.72
;TYPE:WALL-OUTER
G11
G1 F1500 X96.72 Y186.28 E62.64978
G1 X126.28 Y186.28 E65.9605
G1 X126.28 Y41.5 E82.17586
G1 X126.28 Y26.72 E83.83122
G1 X96.72 Y26.72 E87.14194
G0 F4800 X96.72 Y26.92
G0 X97.1 Y27.1
;TYPE:SKIN
G1 F1500 X97.1 Y41.5 E88.70636
G1 X97.1 Y185.9 E104.39397
G1 X125.9 Y185.9 E107.52281
G1 X125.9 Y27.1 E124.77484
G1 X97.1 Y27.1 E127.90367
G0 F4800 X97.298 Y27.6
G1 F1500 X125.699 Y27.6 E130.98916
G0 F4800 X125.699 Y28
G1 F1500 X97.298 Y28 E134.07464
G0 F4800 X97.298 Y28.4
G1 F1500 X125.699 Y28.4 E137.16012
G0 F4800 X125.699 Y28.8
G1 F1500 X97.298 Y28.8 E140.24561
G0 F4800 X97.298 Y29.2
G1 F1500 X125.699 Y29.2 E143.33109
G0 F4800 X125.699 Y29.6
G1 F1500 X97.298 Y29.6 E146.41658
G0 F4800 X97.298 Y30
G1 F1500 X125.699 Y30 E149.50206
G0 F4800 X125.699 Y30.4
G1 F1500 X97.298 Y30.4 E152.58755
G0 F4800 X97.298 Y30.8
G1 F1500 X125.699 Y30.8 E155.67303
G0 F4800 X125.699 Y31.2
G1 F1500 X97.298 Y31.2 E158.75852
G0 F4800 X97.298 Y31.6
G1 F1500 X125.699 Y31.6 E161.844
G0 F4800 X125.699 Y32
G1 F1500 X97.298 Y32 E164.92949
G0 F4800 X97.298 Y32.4
G1 F1500 X125.699 Y32.4 E168.01497
G0 F4800 X125.699 Y32.8
G1 F1500 X97.298 Y32.8 E171.10046
G0 F4800 X97.298 Y33.2
G1 F1500 X125.699 Y33.2 E174.18594
G0 F4800 X125.699 Y33.6
G1 F1500 X97.298 Y33.6 E177.27143
G0 F4800 X97.298 Y34
G1 F1500 X125.699 Y34 E180.35691
G0 F4800 X125.699 Y34.4
G1 F1500 X97.298 Y34.4 E183.44239
G0 F4800 X97.298 Y34.8
G1 F1500 X125.699 Y34.8 E186.52788
G0 F4800 X125.699 Y35.2
G1 F1500 X97.298 Y35.2 E189.61336
G0 F4800 X97.298 Y35.6
G1 F1500 X125.699 Y35.6 E192.69885
G0 F4800 X125.699 Y36
G1 F1500 X97.298 Y36 E195.78433
G0 F4800 X97.298 Y36.4
G1 F1500 X125.699 Y36.4 E198.86982
G0 F4800 X125.699 Y36.8
G1 F1500 X97.298 Y36.8 E201.9553
G0 F4800 X97.298 Y37.2
G1 F1500 X125.699 Y37.2 E205.04079
G0 F4800 X125.699 Y37.6
G1 F1500 X97.298 Y37.6 E208.12627
G0 F4800 X97.298 Y38
G1 F1500 X125.699 Y38 E211.21176
G0 F4800 X125.699 Y38.4
G1 F1500 X97.298 Y38.4 E214.29724
G0 F4800 X97.298 Y38.8
G1 F1500 X125.699 Y38.8 E217.38273
G0 F4800 X125.699 Y39.2
G1 F1500 X97.298 Y39.2 E220.46821
G0 F4800 X97.298 Y39.6
G1 F1500 X125.699 Y39.6 E223.55369
G0 F4800 X125.699 Y40
G1 F1500 X97.298 Y40 E226.63918
G0 F4800 X97.298 Y40.4
G1 F1500 X125.699 Y40.4 E229.72466
G0 F4800 X125.699 Y40.8
G1 F1500 X97.298 Y40.8 E232.81015
G0 F4800 X97.298 Y41.2
G1 F1500 X125.699 Y41.2 E235.89563
G0 F4800 X125.699 Y41.6
G1 F1500 X97.298 Y41.6 E238.98112
G0 F4800 X97.298 Y42
G1 F1500 X125.699 Y42 E242.0666
G0 F4800 X125.699 Y42.4
G1 F1500 X97.298 Y42.4 E245.15209
G0 F4800 X97.298 Y42.8
G1 F1500 X125.699 Y42.8 E248.23757
G0 F4800 X125.699 Y43.2
G1 F1500 X97.298 Y43.2 E251.32306
G0 F4800 X97.298 Y43.6
G1 F1500 X125.699 Y43.6 E254.40854
G0 F4800 X125.699 Y44
G1 F1500 X97.298 Y44 E257.49403
G0 F4800 X97.298 Y44.4
G1 F1500 X125.699 Y44.4 E260.57951
G0 F4800 X125.699 Y44.8
G1 F1500 X97.298 Y44.8 E263.665
G0 F4800 X97.298 Y45.2
G1 F1500 X125.699 Y45.2 E266.75048
G0 F4800 X125.699 Y45.6
G1 F1500 X97.298 Y45.6 E269.83596
G0 F4800 X97.298 Y46
G1 F1500 X125.699 Y46 E272.92145
G0 F4800 X125.699 Y46.4
G1 F1500 X97.298 Y46.4 E276.00693
G0 F4800 X97.298 Y46.8
G1 F1500 X125.699 Y46.8 E279.09242
G0 F4800 X125.699 Y47.2
G1 F1500 X97.298 Y47.2 E282.1779
G0 F4800 X97.298 Y47.6
G1 F1500 X125.699 Y47.6 E285.26339
G0 F4800 X125.699 Y48
G1 F1500 X97.298 Y48 E288.34887
G0 F4800 X97.298 Y48.4
G1 F1500 X125.699 Y48.4 E291.43436
G0 F4800 X125.699 Y48.8
G1 F1500 X97.298 Y48.8 E294.51984
G0 F4800 X97.298 Y49.2
G1 F1500 X125.699 Y49.2 E297.60533
G0 F4800 X125.699 Y49.6
G1 F1500 X97.298 Y49.6 E300.69081
G0 F4800 X97.298 Y50
G1 F1500 X125.699 Y50 E303.7763
G0 F4800 X125.699 Y50.4
G1 F1500 X97.298 Y50.4 E306.86178
G0 F4800 X97.298 Y50.8
G1 F1500 X125.699 Y50.8 E309.94726
G0 F4800 X125.699 Y51.2
G1 F1500 X97.298 Y51.2 E313.03275
G0 F4800 X97.298 Y51.6
G1 F1500 X125.699 Y51.6 E316.11823
G0 F4800 X125.699 Y52
G1 F1500 X97.298 Y52 E319.20372
G0 F4800 X97.298 Y52.4
G1 F1500 X125.699 Y52.4 E322.2892
G0 F4800 X125.699 Y52.8
G1 F1500 X97.298 Y52.8 E325.37469
G0 F4800 X97.298 Y53.2
G1 F1500 X125.699 Y53.2 E328.46017
G0 F4800 X125.699 Y53.6
G1 F1500 X97.298 Y53.6 E331.54566
G0 F4800 X97.298 Y54
G1 F1500 X125.699 Y54 E334.63114
G0 F4800 X125.699 Y54.4
G1 F1500 X97.298 Y54.4 E337.71663
G0 F4800 X97.298 Y54.8
G1 F1500 X125.699 Y54.8 E340.80211
G0 F4800 X125.699 Y55.2
G1 F1500 X97.298 Y55.2 E343.8876
G0 F4800 X97.298 Y55.6
G1 F1500 X125.699 Y55.6 E346.97308
G0 F4800 X125.699 Y56
G1 F1500 X97.298 Y56 E350.05856
G0 F4800 X97.298 Y56.4
G1 F1500 X125.699 Y56.4 E353.14405
G0 F4800 X125.699 Y56.8
G1 F1500 X97.298 Y56.8 E356.22953
G0 F4800 X97.298 Y57.2
G1 F1500 X125.699 Y57.2 E359.31502
G0 F4800 X125.699 Y57.6
G1 F1500 X97.298 Y57.6 E362.4005
G0 F4800 X97.298 Y58
G1 F1500 X125.699 Y58 E365.48599
G0 F4800 X125.699 Y58.4
G1 F1500 X97.298 Y58.4 E368.57147
G0 F4800 X97.298 Y58.8
G1 F1500 X125.699 Y58.8 E371.65696
G0 F4800 X125.699 Y59.2
G1 F1500 X97.298 Y59.2 E374.74244
G0 F4800 X97.298 Y59.6
G1 F1500 X125.699 Y59.6 E377.82793
G0 F4800 X125.699 Y60
G1 F1500 X97.298 Y60 E380.91341
G0 F4800 X97.298 Y60.4
G1 F1500 X125.699 Y60.4 E383.9989
G0 F4800 X125.699 Y60.8
G1 F1500 X97.298 Y60.8 E387.08438
G0 F4800 X97.298 Y61.2
G1 F1500 X125.699 Y61.2 E390.16987
G0 F4800 X125.699 Y61.6
G1 F1500 X97.298 Y61.6 E393.25535
G0 F4800 X97.298 Y62
G1 F1500 X125.699 Y62 E396.34083
G0 F4800 X125.699 Y62.4
G1 F1500 X97.298 Y62.4 E399.42632
G0 F4800 X97.298 Y62.8
G1 F1500 X125.699 Y62.8 E402.5118
G0 F4800 X125.699 Y63.2
G1 F1500 X97.298 Y63.2 E405.59729
G0 F4800 X97.298 Y63.6
G1 F1500 X125.699 Y63.6 E408.68277
G0 F4800 X125.699 Y64
G1 F1500 X97.298 Y64 E411.76826
G0 F4800 X97.298 Y64.4
G1 F1500 X125.699 Y64.4 E414.85374
G0 F4800 X125.699 Y64.8
G1 F1500 X97.298 Y64.8 E417.93923
G0 F4800 X97.298 Y65.2
G1 F1500 X125.699 Y65.2 E421.02471
G0 F4800 X125.699 Y65.6
G1 F1500 X97.298 Y65.6 E424.1102
G0 F4800 X97.298 Y66
G1 F1500 X125.699 Y66 E427.19568
G0 F4800 X125.699 Y66.4
G1 F1500 X97.298 Y66.4 E430.28117
G0 F4800 X97.298 Y66.8
G1 F1500 X125.699 Y66.8 E433.36665
G0 F4800 X125.699 Y67.2
G1 F1500 X97.298 Y67.2 E436.45213
G0 F4800 X97.298 Y67.6
G1 F1500 X125.699 Y67.6 E439.53762
G0 F4800 X125.699 Y68
G1 F1500 X97.298 Y68 E442.6231
G0 F4800 X97.298 Y68.4
G1 F1500 X125.699 Y68.4 E445.70859
G0 F4800 X125.699 Y68.8
G1 F1500 X97.298 Y68.8 E448.79407
G0 F4800 X97.298 Y69.2
G1 F1500 X125.699 Y69.2 E451.87956
G0 F4800 X125.699 Y69.6
G1 F1500 X97.298 Y69.6 E454.96504
G0 F4800 X97.298 Y70
G1 F1500 X125.699 Y70 E458.05053
G0 F4800 X125.699 Y70.4
G1 F1500 X97.298 Y70.4 E461.13601
G0 F4800 X97.298 Y70.8
G1 F1500 X125.699 Y70.8 E464.2215
G0 F4800 X125.699 Y71.2
G1 F1500 X97.298 Y71.2 E467.30698
G0 F4800 X97.298 Y71.6
G1 F1500 X125.699 Y71.6 E470.39247
G0 F4800 X125.699 Y72
G1 F1500 X97.298 Y72 E473.47795
G0 F4800 X97.298 Y72.4
G1 F1500 X125.699 Y72.4 E476.56344
G0 F4800 X125.699 Y72.8
G1 F1500 X97.298 Y72.8 E479.64892
G0 F4800 X97.298 Y73.2
G1 F1500 X125.699 Y73.2 E482.7344
G0 F4800 X125.699 Y73.6
G1 F1500 X97.298 Y73.6 E485.81989
G0 F4800 X97.298 Y74
G1 F1500 X125.699 Y74 E488.90537
G0 F4800 X125.699 Y74.4
G1 F1500 X97.298 Y74.4 E491.99086
G0 F4800 X97.298 Y74.8
G1 F1500 X125.699 Y74.8 E495.07634
G0 F4800 X125.699 Y75.2
G1 F1500 X97.298 Y75.2 E498.16183
G0 F4800 X97.298 Y75.6
G1 F1500 X125.699 Y75.6 E501.24731
G0 F4800 X125.699 Y76
G1 F1500 X97.298 Y76 E504.3328
G0 F4800 X97.298 Y76.4
G1 F1500 X125.699 Y76.4 E507.41828
G0 F4800 X125.699 Y76.8
G1 F1500 X97.298 Y76.8 E510.50377
G0 F4800 X97.298 Y77.2
G1 F1500 X125.699 Y77.2 E513.58925
G0 F4800 X125.699 Y77.6
G1 F1500 X97.298 Y77.6 E516.67474
G0 F4800 X97.298 Y78
G1 F1500 X125.699 Y78 E519.76022
G0 F4800 X125.699 Y78.4
G1 F1500 X97.298 Y78.4 E522.8457
G0 F4800 X97.298 Y78.8
G1 F1500 X125.699 Y78.8 E525.93119
G0 F4800 X125.699 Y79.2
G1 F1500 X97.298 Y79.2 E529.01667
G0 F4800 X97.298 Y79.6
G1 F1500 X125.699 Y79.6 E532.10216
G0 F4800 X125.699 Y80
G1 F1500 X97.298 Y80 E535.18764
G0 F4800 X97.298 Y80.4
G1 F1500 X125.699 Y80.4 E538.27313
G0 F4800 X125.699 Y80.8
G1 F1500 X97.298 Y80.8 E541.35861
G0 F4800 X97.298 Y81.2
G1 F1500 X125.699 Y81.2 E544.4441
G0 F4800 X125.699 Y81.6
G1 F1500 X97.298 Y81.6 E547.52958
G0 F4800 X97.298 Y82
G1 F1500 X125.699 Y82 E550.61507
G0 F4800 X125.699 Y82.4
G1 F1500 X97.298 Y82.4 E553.70055
G0 F4800 X97.298 Y82.8
G1 F1500 X125.699 Y82.8 E556.78604
G0 F4800 X125.699 Y83.2
G1 F1500 X97.298 Y83.2 E559.87152
G0 F4800 X97.298 Y83.6
G1 F1500 X125.699 Y83.6 E562.95701
G0 F4800 X125.699 Y84
G1 F1500 X97.298 Y84 E566.04249
G0 F4800 X97.298 Y84.4
G1 F1500 X125.699 Y84.4 E569.12797
G0 F4800 X125.699 Y84.8
G1 F1500 X97.298 Y84.8 E572.21346
G0 F4800 X97.298 Y85.2
G1 F1500 X125.699 Y85.2 E575.29894
G0 F4800 X125.699 Y85.6
G1 F1500 X97.298 Y85.6 E578.38443
G0 F4800 X97.298 Y86
G1 F1500 X125.699 Y86 E581.46991
G0 F4800 X125.699 Y86.4
G1 F1500 X97.298 Y86.4 E584.5554
G0 F4800 X97.298 Y86.8
G1 F1500 X125.699 Y86.8 E587.64088
G0 F4800 X125.699 Y87.2
G1 F1500 X97.298 Y87.2 E590.72637
G0 F4800 X97.298 Y87.6
G1 F1500 X125.699 Y87.6 E593.81185
G0 F4800 X125.699 Y88
G1 F1500 X97.298 Y88 E596.89734
G0 F4800 X97.298 Y88.4
G1 F1500 X125.699 Y88.4 E599.98282
G0 F4800 X125.699 Y88.8
G1 F1500 X97.298 Y88.8 E603.06831
G0 F4800 X97.298 Y89.2
G1 F1500 X125.699 Y89.2 E606.15379
G0 F4800 X125.699 Y89.6
G1 F1500 X97.298 Y89.6 E609.23927
G0 F4800 X97.298 Y90
G1 F1500 X125.699 Y90 E612.32476
G0 F4800 X125.699 Y90.4
G1 F1500 X97.298 Y90.4 E615.41024
G0 F4800 X97.298 Y90.8
G1 F1500 X125.699 Y90.8 E618.49573
G0 F4800 X125.699 Y91.2
G1 F1500 X97.298 Y91.2 E621.58121
G0 F4800 X97.298 Y91.6
G1 F1500 X125.699 Y91.6 E624.6667
G0 F4800 X125.699 Y92
G1 F1500 X97.298 Y92 E627.75218
G0 F4800 X97.298 Y92.4
G1 F1500 X125.699 Y92.4 E630.83767
G0 F4800 X125.699 Y92.8
G1 F1500 X97.298 Y92.8 E633.92315
G0 F4800 X97.298 Y93.2
G1 F1500 X125.699 Y93.2 E637.00864
G0 F4800 X125.699 Y93.6
G1 F1500 X97.298 Y93.6 E640.09412
G0 F4800 X97.298 Y94
G1 F1500 X125.699 Y94 E643.17961
G0 F4800 X125.699 Y94.4
G1 F1500 X97.298 Y94.4 E646.26509
G0 F4800 X97.298 Y94.8
G1 F1500 X125.699 Y94.8 E649.35058
G0 F4800 X125.699 Y95.2
G1 F1500 X97.298 Y95.2 E652.43606
G0 F4800 X97.298 Y95.6
G1 F1500 X125.699 Y95.6 E655.52154
G0 F4800 X125.699 Y96
G1 F1500 X97.298 Y96 E658.60703
G0 F4800 X97.298 Y96.4
G1 F1500 X125.699 Y96.4 E661.69251
G0 F4800 X125.699 Y96.8
G1 F1500 X97.298 Y96.8 E664.778
G0 F4800 X97.298 Y97.2
G1 F1500 X125.699 Y97.2 E667.86348
G0 F4800 X125.699 Y97.6
G1 F1500 X97.298 Y97.6 E670.94897
G0 F4800 X97.298 Y98
G1 F1500 X125.699 Y98 E674.03445
G0 F4800 X125.699 Y98.4
G1 F1500 X97.298 Y98.4 E677.11994
G0 F4800 X97.298 Y98.8
G1 F1500 X125.699 Y98.8 E680.20542
G0 F4800 X125.699 Y99.2
G1 F1500 X97.298 Y99.2 E683.29091
G0 F4800 X97.298 Y99.6
G1 F1500 X125.699 Y99.6 E686.37639
G0 F4800 X125.699 Y100
G1 F1500 X97.298 Y100 E689.46188
G0 F4800 X97.298 Y100.4
G1 F1500 X125.699 Y100.4 E692.54736
G0 F4800 X125.699 Y100.8
G1 F1500 X97.298 Y100.8 E695.63284
G0 F4800 X97.298 Y101.2
G1 F1500 X125.699 Y101.2 E698.71833
G0 F4800 X125.699 Y101.6
G1 F1500 X97.298 Y101.6 E701.80381
G0 F4800 X97.298 Y102
G1 F1500 X125.699 Y102 E704.8893
G0 F4800 X125.699 Y102.4
G1 F1500 X97.298 Y102.4 E707.97478
G0 F4800 X97.298 Y102.8
G1 F1500 X125.699 Y102.8 E711.06027
G0 F4800 X125.699 Y103.2
G1 F1500 X97.298 Y103.2 E714.14575
G0 F4800 X97.298 Y103.6
G1 F1500 X125.699 Y103.6 E717.23124
G0 F4800 X125.699 Y104
G1 F1500 X97.298 Y104 E720.31672
G0 F4800 X97.298 Y104.4
G1 F1500 X125.699 Y104.4 E723.40221
G0 F4800 X125.699 Y104.8
G1 F1500 X97.298 Y104.8 E726.48769
G0 F4800 X97.298 Y105.2
G1 F1500 X125.699 Y105.2 E729.57318
G0 F4800 X125.699 Y105.6
G1 F1500 X97.298 Y105.6 E732.65866
G0 F4800 X97.298 Y106
G1 F1500 X125.699 Y106 E735.74414
G0 F4800 X125.699 Y106.4
G1 F1500 X97.298 Y106.4 E738.82963
G0 F4800 X97.298 Y106.8
G1 F1500 X125.699 Y106.8 E741.91511
G0 F4800 X125.699 Y107.2
G1 F1500 X97.298 Y107.2 E745.0006
G0 F4800 X97.298 Y107.6
G1 F1500 X125.699 Y107.6 E748.08608
G0 F4800 X125.699 Y108
G1 F1500 X97.298 Y108 E751.17157
G0 F4800 X97.298 Y108.4
G1 F1500 X125.699 Y108.4 E754.25705
G0 F4800 X125.699 Y108.8
G1 F1500 X97.298 Y108.8 E757.34254
G0 F4800 X97.298 Y109.2
G1 F1500 X125.699 Y109.2 E760.42802
G0 F4800 X125.699 Y109.6
G1 F1500 X97.298 Y109.6 E763.51351
G0 F4800 X97.298 Y110
G1 F1500 X125.699 Y110 E766.59899
G0 F4800 X125.699 Y110.4
G1 F1500 X97.298 Y110.4 E769.68448
G0 F4800 X97.298 Y110.8
G1 F1500 X125.699 Y110.8 E772.76996
G0 F4800 X125.699 Y111.2
G1 F1500 X97.298 Y111.2 E775.85545
G0 F4800 X97.298 Y111.6
G1 F1500 X125.699 Y111.6 E778.94093
G0 F4800 X125.699 Y112
G1 F1500 X97.298 Y112 E782.02641
G0 F4800 X97.298 Y112.4
G1 F1500 X125.699 Y112.4 E785.1119
G0 F4800 X125.699 Y112.8
G1 F1500 X97.298 Y112.8 E788.19738
G0 F4800 X97.298 Y113.2
G1 F1500 X125.699 Y113.2 E791.28287
G0 F4800 X125.699 Y113.6
G1 F1500 X97.298 Y113.6 E794.36835
G0 F4800 X97.298 Y114
G1 F1500 X125.699 Y114 E797.45384
G0 F4800 X125.699 Y114.4
G1 F1500 X97.298 Y114.4 E800.53932
G0 F4800 X97.298 Y114.8
G1 F1500 X125.699 Y114.8 E803.62481
G0 F4800 X125.699 Y115.2
G1 F1500 X97.298 Y115.2 E806.71029
G0 F4800 X97.298 Y115.6
G1 F1500 X125.699 Y115.6 E809.79578
G0 F4800 X125.699 Y116
G1 F1500 X97.298 Y116 E812.88126
G0 F4800 X97.298 Y116.4
G1 F1500 X125.699 Y116.4 E815.96675
G0 F4800 X125.699 Y116.8
G1 F1500 X97.298 Y116.8 E819.05223
G0 F4800 X97.298 Y117.2
G1 F1500 X125.699 Y117.2 E822.13771
G0 F4800 X125.699 Y117.6
G1 F1500 X97.298 Y117.6 E825.2232
G0 F4800 X97.298 Y118
G1 F1500 X125.699 Y118 E828.30868
G0 F4800 X125.699 Y118.4
G1 F1500 X97.298 Y118.4 E831.39417
G0 F4800 X97.298 Y118.8
G1 F1500 X125.699 Y118.8 E834.47965
G0 F4800 X125.699 Y119.2
G1 F1500 X97.298 Y119.2 E837.56514
G0 F4800 X97.298 Y119.6
G1 F1500 X125.699 Y119.6 E840.65062
G0 F4800 X125.699 Y120
G1 F1500 X97.298 Y120 E843.73611
G0 F4800 X97.298 Y120.4
G1 F1500 X125.699 Y120.4 E846.82159
G0 F4800 X125.699 Y120.8
G1 F1500 X97.298 Y120.8 E849.90708
G0 F4800 X97.298 Y121.2
G1 F1500 X125.699 Y121.2 E852.99256
G0 F4800 X125.699 Y121.6
G1 F1500 X97.298 Y121.6 E856.07805
G0 F4800 X97.298 Y122
G1 F1500 X125.699 Y122 E859.16353
G0 F4800 X125.699 Y122.4
G1 F1500 X97.298 Y122.4 E862.24902
G0 F4800 X97.298 Y122.8
G1 F1500 X125.699 Y122.8 E865.3345
G0 F4800 X125.699 Y123.2
G1 F1500 X97.298 Y123.2 E868.41998
G0 F4800 X97.298 Y123.6
G1 F1500 X125.699 Y123.6 E871.50547
G0 F4800 X125.699 Y124
G1 F1500 X97.298 Y124 E874.59095
G0 F4800 X97.298 Y124.4
G1 F1500 X125.699 Y124.4 E877.67644
G0 F4800 X125.699 Y124.8
G1 F1500 X97.298 Y124.8 E880.76192
G0 F4800 X97.298 Y125.2
G1 F1500 X125.699 Y125.2 E883.84741
G0 F4800 X125.699 Y125.6
G1 F1500 X97.298 Y125.6 E886.93289
