;FLAVOR:UltiGCode
;TIME:5622
;MATERIAL:18720
;MATERIAL2:0
;NOZZLE_DIAMETER:0.4
;MINX:93.32
;MINY:23.32
;MINZ:0.28
;MAXX:129.68
;MAXY:189.68
;MAXZ:4.08
;Generated with Cura_SteamEngine 5.0.0
M82 ;absolute extrusion mode
G0 F3000 Y50 ;avoid prime blob
G92 E0
G92 E0
G10
;LAYER_COUNT:20
;LAYER:0
M107
G0 F4800 X93.376 Y25.982 Z0.28
G0 X93.32 Y27.151
;TYPE:SKIRT
G11
G1 F1500 X93.329 Y26.486 E0.07449
G1 X93.376 Y25.982 E0.13118
G1 X93.703 Y25.029 E0.24402
G1 X93.974 Y24.602 E0.30067
G1 X94.7 Y23.903 E0.41354
G1 X95.608 Y23.464 E0.5265
G1 X96.439 Y23.33 E0.62077
G1 X96.85 Y23.32 E0.66682
G1 X125.819 Y23.32 E3.91135
G1 X126.517 Y23.33 E3.98953
G1 X127.02 Y23.377 E4.04611
G1 X127.51 Y23.503 E4.10278
G1 X128.4 Y23.977 E4.21571
G1 X128.778 Y24.312 E4.27228
G1 X129.353 Y25.14 E4.38519
G1 X129.643 Y26.105 E4.49804
G1 X129.679 Y26.76 E4.57151
G1 X129.68 Y185.784 E22.3822
G1 X129.671 Y186.511 E22.46363
G1 X129.625 Y187.014 E22.5202
G1 X129.5 Y187.504 E22.57684
G1 X129.028 Y188.395 E22.68977
G1 X128.303 Y189.095 E22.80264
G1 X127.867 Y189.351 E22.85927
G1 X126.902 Y189.642 E22.97216
G1 X126.24 Y189.679 E23.04641
G1 X97.186 Y189.68 E26.30046
G1 X96.488 Y189.671 E26.37865
G1 X95.494 Y189.499 E26.49163
G1 X94.604 Y189.027 E26.60446
G1 X94.225 Y188.692 E26.66111
G1 X93.649 Y187.865 E26.77399
G1 X93.465 Y187.394 E26.83062
G1 X93.33 Y186.557 E26.92558
G1 X93.32 Y186.138 E26.97252
G1 X93.32 Y27.151 E44.77906
G10
;MESH:platte_klein.stl
G0 F4800 X96.72 Y26.72
;TYPE:WALL-OUTER
G11
G1 F1500 X96.72 Y186.28 E62.64978
G1 X126.28 Y186.28 E65.9605
G1 X126.28 Y41.5 E82.17586
G1 X126.28 Y26.72 E83.83122
G1 X96.72 Y26.72 E87.14194
G0 F4800 X96.72 Y26.92
G0 X97.1 Y27.1
;TYPE:SKIN
G1 F1500 X97.1 Y185.9 E104.39397
G1 X125.9 Y185.9 E107.52281
G1 X125.9 Y27.1 E124.77484
G1 X97.1 Y27.1 E127.90367
G10
G0 F4800 X125.6 Y27.3
G11
G1 F1500 X125.6 Y185.7 E145.11225
G0 F4800 X125.2 Y185.7
G1 F1500 X125.2 Y27.3 E162.32082
G0 F4800 X124.8 Y27.3
G1 F1500 X124.8 Y185.7 E179.5294
G0 F4800 X124.4 Y185.7
G1 F1500 X124.4 Y27.3 E196.73797
G0 F4800 X124 Y27.3
G1 F1500 X124 Y185.7 E213.94655
G0 F4800 X123.6 Y185.7
G1 F1500 X123.6 Y27.3 E231.15513
G0 F4800 X123.2 Y27.3
G1 F1500 X123.2 Y185.7 E248.3637
G0 F4800 X122.8 Y185.7
G1 F1500 X122.8 Y27.3 E265.57228
G0 F4800 X122.4 Y27.3
G1 F1500 X122.4 Y185.7 E282.78085
G0 F4800 X122 Y185.7
G1 F1500 X122 Y27.3 E299.98943
G0 F4800 X121.6 Y27.3
G1 F1500 X121.6 Y185.7 E317.19801
G0 F4800 X121.2 Y185.7
G1 F1500 X121.2 Y27.3 E334.40658
G0 F4800 X120.8 Y27.3
G1 F1500 X120.8 Y185.7 E351.61516
G0 F4800 X120.4 Y185.7
G1 F1500 X120.4 Y27.3 E368.82373
G0 F4800 X120 Y27.3
G1 F1500 X120 Y185.7 E386.03231
G0 F4800 X119.6 Y185.7
G1 F1500 X119.6 Y27.3 E403.24089
G0 F4800 X119.2 Y27.3
G1 F1500 X119.2 Y185.7 E420.44946
G0 F4800 X118.8 Y185.7
G1 F1500 X118.8 Y27.3 E437.65804
G0 F4800 X118.4 Y27.3
G1 F1500 X118.4 Y185.7 E454.86661
G0 F4800 X118 Y185.7
G1 F1500 X118 Y27.3 E472.07519
G0 F4800 X117.6 Y27.3
G1 F1500 X117.6 Y185.7 E489.28377
G0 F4800 X117.2 Y185.7
G1 F1500 X117.2 Y27.3 E506.49234
G0 F4800 X116.8 Y27.3
G1 F1500 X116.8 Y185.7 E523.70092
G0 F4800 X116.4 Y185.7
G1 F1500 X116.4 Y27.3 E540.90949
G0 F4800 X116 Y27.3
G1 F1500 X116 Y185.7 E558.11807
G0 F4800 X115.6 Y185.7
G1 F1500 X115.6 Y27.3 E575.32665
G0 F4800 X115.2 Y27.3
G1 F1500 X115.2 Y185.7 E592.53522
G0 F4800 X114.8 Y185.7
G1 F1500 X114.8 Y27.3 E609.7438
G0 F4800 X114.4 Y27.3
G1 F1500 X114.4 Y185.7 E626.95237
G0 F4800 X114 Y185.7
G1 F1500 X114 Y27.3 E644.16095
G0 F4800 X113.6 Y27.3
G1 F1500 X113.6 Y185.7 E661.36953
G0 F4800 X113.2 Y185.7
G1 F1500 X113.2 Y27.3 E678.5781
G0 F4800 X112.8 Y27.3
G1 F1500 X112.8 Y185.7 E695.78668
G0 F4800 X112.4 Y185.7
G1 F1500 X112.4 Y27.3 E712.99525
G0 F4800 X112 Y27.3
G1 F1500 X112 Y185.7 E730.20383
G0 F4800 X111.6 Y185.7
G1 F1500 X111.6 Y27.3 E747.41241
G0 F4800 X111.2 Y27.3
G1 F1500 X111.2 Y185.7 E764.62098
G0 F4800 X110.8 Y185.7
G1 F1500 X110.8 Y27.3 E781.82956
G0 F4800 X110.4 Y27.3
G1 F1500 X110.4 Y185.7 E799.03813
G0 F4800 X110 Y185.7
G1 F1500 X110 Y27.3 E816.24671
G0 F4800 X109.6 Y27.3
G1 F1500 X109.6 Y185.7 E833.45529
G0 F4800 X109.2 Y185.7
G1 F1500 X109.2 Y27.3 E850.66386
G0 F4800 X108.8 Y27.3
G1 F1500 X108.8 Y185.7 E867.87244
G0 F4800 X108.4 Y185.7
G1 F1500 X108.4 Y27.3 E885.08101
G0 F4800 X108 Y27.3
G1 F1500 X108 Y185.7 E902.28959
G0 F4800 X107.6 Y185.7
G1 F1500 X107.6 Y27.3 E919.49817
G0 F4800 X107.2 Y27.3
G1 F1500 X107.2 Y185.7 E936.70674
G0 F4800 X106.8 Y185.7
G1 F1500 X106.8 Y27.3 E953.91532
G0 F4800 X106.4 Y27.3
G1 F1500 X106.4 Y185.7 E971.12389
G0 F4800 X106 Y185.7
G1 F1500 X106 Y27.3 E988.33247
G0 F4800 X105.6 Y27.3
G1 F1500 X105.6 Y185.7 E1005.54105
G0 F4800 X105.2 Y185.7
G1 F1500 X105.2 Y27.3 E1022.74962
G0 F4800 X104.8 Y27.3
G1 F1500 X104.8 Y185.7 E1039.9582
G0 F4800 X104.4 Y185.7
G1 F1500 X104.4 Y27.3 E1057.16677
G0 F4800 X104 Y27.3
G1 F1500 X104 Y185.7 E1074.37535
G0 F4800 X103.6 Y185.7
G1 F1500 X103.6 Y27.3 E1091.58393
G0 F4800 X103.2 Y27.3
G1 F1500 X103.2 Y185.7 E1108.7925
G0 F4800 X102.8 Y185.7
G1 F1500 X102.8 Y27.3 E1126.00108
G0 F4800 X102.4 Y27.3
G1 F1500 X102.4 Y185.7 E1143.20965
G0 F4800 X102 Y185.7
G1 F1500 X102 Y27.3 E1160.41823
G0 F4800 X101.6 Y27.3
G1 F1500 X101.6 Y185.7 E1177.62681
G0 F4800 X101.2 Y185.7
G1 F1500 X101.2 Y27.3 E1194.83538
G0 F4800 X100.8 Y27.3
G1 F1500 X100.8 Y185.7 E1212.04396
G0 F4800 X100.4 Y185.7
G1 F1500 X100.4 Y27.3 E1229.25253
G0 F4800 X100 Y27.3
G1 F1500 X100 Y185.7 E1246.46111
G0 F4800 X99.6 Y185.7
G1 F1500 X99.6 Y27.3 E1263.66969
G0 F4800 X99.2 Y27.3
G1 F1500 X99.2 Y185.7 E1280.87826
G0 F4800 X98.8 Y185.7
G1 F1500 X98.8 Y27.3 E1298.08684
G0 F4800 X98.4 Y27.3
G1 F1500 X98.4 Y185.7 E1315.29541
G0 F4800 X98 Y185.7
G1 F1500 X98 Y27.3 E1332.50399
G0 F4800 X97.6 Y27.3
G1 F1500 X97.6 Y185.7 E1349.71257
G1 X97.6 Y185.8
G10
;MESH:NONMESH
G0 F600 X97.6 Y185.8 Z0.48
G0 F4800 X96.72 Y26.72
;TIME_ELAPSED:503.968406
;LAYER:1
M106 S255
;TYPE:WALL-OUTER
;MESH:platte_klein.stl
G11
G1 F1950 X96.72 Y186.28 E1362.47737
G1 X126.28 Y186.28 E1364.84217
G1 X126.28 Y41.5 E1376.42457
G1 X126.28 Y26.72 E1377.60697
G1 X96.72 Y26.72 E1379.97177
G0 F7200 X96.72 Y26.92
G0 X97.1 Y26.92
;TYPE:FILL
G1 F2250 X97.1 Y186.08 E1392.06793
G0 F7200 X97.5 Y186.08
G1 F2250 X97.5 Y26.92 E1404.16409
G0 F7200 X97.9 Y26.92
G1 F2250 X97.9 Y186.08 E1416.26025
G0 F7200 X98.3 Y186.08
G1 F2250 X98.3 Y26.92 E1428.35641
G0 F7200 X98.7 Y26.92
G1 F2250 X98.7 Y186.08 E1440.45257
G0 F7200 X99.1 Y186.08
G1 F2250 X99.1 Y26.92 E1452.54873
G0 F7200 X99.5 Y26.92
G1 F2250 X99.5 Y186.08 E1464.64489
G0 F7200 X99.9 Y186.08
G1 F2250 X99.9 Y26.92 E1476.74105
G0 F7200 X100.3 Y26.92
G1 F2250 X100.3 Y186.08 E1488.83721
G0 F7200 X100.7 Y186.08
G1 F2250 X100.7 Y26.92 E1500.93337
G0 F7200 X101.1 Y26.92
G1 F2250 X101.1 Y186.08 E1513.02953
G0 F7200 X101.5 Y186.08
G1 F2250 X101.5 Y26.92 E1525.12569
G0 F7200 X101.9 Y26.92
G1 F2250 X101.9 Y186.08 E1537.22185
G0 F7200 X102.3 Y186.08
G1 F2250 X102.3 Y26.92 E1549.31801
G0 F7200 X102.7 Y26.92
G1 F2250 X102.7 Y186.08 E1561.41417
G0 F7200 X103.1 Y186.08
G1 F2250 X103.1 Y26.92 E1573.51033
G0 F7200 X103.5 Y26.92
G1 F2250 X103.5 Y186.08 E1585.60649
G0 F7200 X103.9 Y186.08
G1 F2250 X103.9 Y26.92 E1597.70265
G0 F7200 X104.3 Y26.92
G1 F2250 X104.3 Y186.08 E1609.79881
G0 F7200 X104.7 Y186.08
G1 F2250 X104.7 Y26.92 E1621.89497
G0 F7200 X105.1 Y26.92
G1 F2250 X105.1 Y186.08 E1633.99113
G0 F7200 X105.5 Y186.08
G1 F2250 X105.5 Y26.92 E1646.08729
G0 F7200 X105.9 Y26.92
G1 F2250 X105.9 Y186.08 E1658.18345
G0 F7200 X106.3 Y186.08
G1 F2250 X106.3 Y26.92 E1670.27961
G0 F7200 X106.7 Y26.92
G1 F2250 X106.7 Y186.08 E1682.37577
G0 F7200 X107.1 Y186.08
G1 F2250 X107.1 Y26.92 E1694.47193
G0 F7200 X107.5 Y26.92
G1 F2250 X107.5 Y186.08 E1706.56809
G0 F7200 X107.9 Y186.08
G1 F2250 X107.9 Y26.92 E1718.66425
G0 F7200 X108.3 Y26.92
G1 F2250 X108.3 Y186.08 E1730.76041
G0 F7200 X108.7 Y186.08
G1 F2250 X108.7 Y26.92 E1742.85657
G0 F7200 X109.1 Y26.92
G1 F2250 X109.1 Y186.08 E1754.95273
G0 F7200 X109.5 Y186.08
G1 F2250 X109.5 Y26.92 E1767.04889
G0 F7200 X109.9 Y26.92
G1 F2250 X109.9 Y186.08 E1779.14505
G0 F7200 X110.3 Y186.08
G1 F2250 X110.3 Y26.92 E1791.24121
G0 F7200 X110.7 Y26.92
G1 F2250 X110.7 Y186.08 E1803.33737
G0 F7200 X111.1 Y186.08
G1 F2250 X111.1 Y26.92 E1815.43353
G0 F7200 X111.5 Y26.92
G1 F2250 X111.5 Y186.08 E1827.52969
G0 F7200 X111.9 Y186.08
G1 F2250 X111.9 Y26.92 E1839.62585
G0 F7200 X112.3 Y26.92
G1 F2250 X112.3 Y186.08 E1851.72201
G0 F7200 X112.7 Y186.08
G1 F2250 X112.7 Y26.92 E1863.81817
G0 F7200 X113.1 Y26.92
G1 F2250 X113.1 Y186.08 E1875.91433
G0 F7200 X113.5 Y186.08
G1 F2250 X113.5 Y26.92 E1888.01049
G0 F7200 X113.9 Y26.92
G1 F2250 X113.9 Y186.08 E1900.10665
G0 F7200 X114.3 Y186.08
G1 F2250 X114.3 Y26.92 E1912.20281
G0 F7200 X114.7 Y26.92
G1 F2250 X114.7 Y186.08 E1924.29897
G0 F7200 X115.1 Y186.08
G1 F2250 X115.1 Y26.92 E1936.39513
G0 F7200 X115.5 Y26.92
G1 F2250 X115.5 Y186.08 E1948.49129
G0 F7200 X115.9 Y186.08
G1 F2250 X115.9 Y26.92 E1960.58745
G0 F7200 X116.3 Y26.92
G1 F2250 X116.3 Y186.08 E1972.68361
G0 F7200 X116.7 Y186.08
G1 F2250 X116.7 Y26.92 E1984.77977
G0 F7200 X117.1 Y26.92
G1 F2250 X117.1 Y186.08 E1996.87593
G0 F7200 X117.5 Y186.08
G1 F2250 X117.5 Y26.92 E2008.97209
G0 F7200 X117.9 Y26.92
G1 F2250 X117.9 Y186.08 E2021.06825
G0 F7200 X118.3 Y186.08
G1 F2250 X118.3 Y26.92 E2033.16441
G0 F7200 X118.7 Y26.92
G1 F2250 X118.7 Y186.08 E2045.26057
G0 F7200 X119.1 Y186.08
G1 F2250 X119.1 Y26.92 E2057.35673
G0 F7200 X119.5 Y26.92
G1 F2250 X119.5 Y186.08 E2069.45289
G0 F7200 X119.9 Y186.08
G1 F2250 X119.9 Y26.92 E2081.54905
G0 F7200 X120.3 Y26.92
G1 F2250 X120.3 Y186.08 E2093.64521
G0 F7200 X120.7 Y186.08
G1 F2250 X120.7 Y26.92 E2105.74137
G0 F7200 X121.1 Y26.92
G1 F2250 X121.1 Y186.08 E2117.83753
G0 F7200 X121.5 Y186.08
G1 F2250 X121.5 Y26.92 E2129.93369
G0 F7200 X121.9 Y26.92
G1 F2250 X121.9 Y186.08 E2142.02985
G0 F7200 X122.3 Y186.08
G1 F2250 X122.3 Y26.92 E2154.12601
G0 F7200 X122.7 Y26.92
G1 F2250 X122.7 Y186.08 E2166.22217
G0 F7200 X123.1 Y186.08
G1 F2250 X123.1 Y26.92 E2178.31833
G0 F7200 X123.5 Y26.92
G1 F2250 X123.5 Y186.08 E2190.41449
G0 F7200 X123.9 Y186.08
G1 F2250 X123.9 Y26.92 E2202.51065
G0 F7200 X124.3 Y26.92
G1 F2250 X124.3 Y186.08 E2214.60681
G0 F7200 X124.7 Y186.08
G1 F2250 X124.7 Y26.92 E2226.70297
G0 F7200 X125.1 Y26.92
G1 F2250 X125.1 Y186.08 E2238.79913
G0 F7200 X125.5 Y186.08
G1 F2250 X125.5 Y26.92 E2250.89529
G0 F7200 X125.9 Y26.92
G1 F2250 X125.9 Y186.08 E2262.99145
G1 X125.9 Y186.18
G10
;MESH:NONMESH
G0 F600 X125.9 Y186.18 Z0.68
G0 F7200 X96.72 Y26.72
;TIME_ELAPSED:828.918302
;LAYER:2
;TYPE:WALL-OUTER
;MESH:platte_klein.stl
G11
G1 F2400 X96.72 Y186.28 E2275.75625
G1 X126.28 Y186.28 E2278.12105
G1 X126.28 Y41.5 E2289.70345
G1 X126.28 Y26.72 E2290.88585
G1 X96.72 Y26.72 E2293.25065
G0 F9600 X96.72 Y26.92
G0 X97.1 Y26.92
;TYPE:FILL
G1 F3000 X97.1 Y186.08 E2305.34681
G0 F9600 X97.5 Y186.08
G1 F3000 X97.5 Y26.92 E2317.44297
G0 F9600 X97.9 Y26.92
G1 F3000 X97.9 Y186.08 E2329.53913
G0 F9600 X98.3 Y186.08
G1 F3000 X98.3 Y26.92 E2341.63529
G0 F9600 X98.7 Y26.92
G1 F3000 X98.7 Y186.08 E2353.73145
G0 F9600 X99.1 Y186.08
G1 F3000 X99.1 Y26.92 E2365.82761
G0 F9600 X99.5 Y26.92
G1 F3000 X99.5 Y186.08 E2377.92377
G0 F9600 X99.9 Y186.08
G1 F3000 X99.9 Y26.92 E2390.01993
G0 F9600 X100.3 Y26.92
G1 F3000 X100.3 Y186.08 E2402.11609
G0 F9600 X100.7 Y186.08
G1 F3000 X100.7 Y26.92 E2414.21225
G0 F9600 X101.1 Y26.92
G1 F3000 X101.1 Y186.08 E2426.30841
G0 F9600 X101.5 Y186.08
G1 F3000 X101.5 Y26.92 E2438.40457
G0 F9600 X101.9 Y26.92
G1 F3000 X101.9 Y186.08 E2450.50073
G0 F9600 X102.3 Y186.08
G1 F3000 X102.3 Y26.92 E2462.59689
G0 F9600 X102.7 Y26.92
G1 F3000 X102.7 Y186.08 E2474.69305
G0 F9600 X103.1 Y186.08
G1 F3000 X103.1 Y26.92 E2486.78921
G0 F9600 X103.5 Y26.92
G1 F3000 X103.5 Y186.08 E2498.88537
G0 F9600 X103.9 Y186.08
G1 F3000 X103.9 Y26.92 E2510.98153
G0 F9600 X104.3 Y26.92
G1 F3000 X104.3 Y186.08 E2523.07769
G0 F9600 X104.7 Y186.08
G1 F3000 X104.7 Y26.92 E2535.17385
G0 F9600 X105.1 Y26.92
G1 F3000 X105.1 Y186.08 E2547.27001
G0 F9600 X105.5 Y186.08
G1 F3000 X105.5 Y26.92 E2559.36617
G0 F9600 X105.9 Y26.92
G1 F3000 X105.9 Y186.08 E2571.46233
G0 F9600 X106.3 Y186.08
G1 F3000 X106.3 Y26.92 E2583.55849
G0 F9600 X106.7 Y26.92
G1 F3000 X106.7 Y186.08 E2595.65465
G0 F9600 X107.1 Y186.08
G1 F3000 X107.1 Y26.92 E2607.75081
G0 F9600 X107.5 Y26.92
G1 F3000 X107.5 Y186.08 E2619.84697
G0 F9600 X107.9 Y186.08
G1 F3000 X107.9 Y26.92 E2631.94313
G0 F9600 X108.3 Y26.92
G1 F3000 X108.3 Y186.08 E2644.03929
G0 F9600 X108.7 Y186.08
G1 F3000 X108.7 Y26.92 E2656.13545
G0 F9600 X109.1 Y26.92
G1 F3000 X109.1 Y186.08 E2668.23161
G0 F9600 X109.5 Y186.08
G1 F3000 X109.5 Y26.92 E2680.32777
G0 F9600 X109.9 Y26.92
G1 F3000 X109.9 Y186.08 E2692.42393
G0 F9600 X110.3 Y186.08
G1 F3000 X110.3 Y26.92 E2704.52009
G0 F9600 X110.7 Y26.92
G1 F3000 X110.7 Y186.08 E2716.61625
G0 F9600 X111.1 Y186.08
G1 F3000 X111.1 Y26.92 E2728.71241
G0 F9600 X111.5 Y26.92
G1 F3000 X111.5 Y186.08 E2740.80857
G0 F9600 X111.9 Y186.08
G1 F3000 X111.9 Y26.92 E2752.90473
G0 F9600 X112.3 Y26.92
G1 F3000 X112.3 Y186.08 E2765.00089
G0 F9600 X112.7 Y186.08
G1 F3000 X112.7 Y26.92 E2777.09705
G0 F9600 X113.1 Y26.92
G1 F3000 X113.1 Y186.08 E2789.19321
G0 F9600 X113.5 Y186.08
G1 F3000 X113.5 Y26.92 E2801.28937
G0 F9600 X113.9 Y26.92
G1 F3000 X113.9 Y186.08 E2813.38553
G0 F9600 X114.3 Y186.08
G1 F3000 X114.3 Y26.92 E2825.48169
G0 F9600 X114.7 Y26.92
G1 F3000 X114.7 Y186.08 E2837.57785
G0 F9600 X115.1 Y186.08
G1 F3000 X115.1 Y26.92 E2849.67401
G0 F9600 X115.5 Y26.92
G1 F3000 X115.5 Y186.08 E2861.77017
G0 F9600 X115.9 Y186.08
G1 F3000 X115.9 Y26.92 E2873.86633
G0 F9600 X116.3 Y26.92
G1 F3000 X116.3 Y186.08 E2885.96249
G0 F9600 X116.7 Y186.08
G1 F3000 X116.7 Y26.92 E2898.05865
G0 F9600 X117.1 Y26.92
G1 F3000 X117.1 Y186.08 E2910.15481
G0 F9600 X117.5 Y186.08
G1 F3000 X117.5 Y26.92 E2922.25097
G0 F9600 X117.9 Y26.92
G1 F3000 X117.9 Y186.08 E2934.34713
G0 F9600 X118.3 Y186.08
G1 F3000 X118.3 Y26.92 E2946.44329
G0 F9600 X118.7 Y26.92
G1 F3000 X118.7 Y186.08 E2958.53945
G0 F9600 X119.1 Y186.08
G1 F3000 X119.1 Y26.92 E2970.63561
G0 F9600 X119.5 Y26.92
G1 F3000 X119.5 Y186.08 E2982.73177
G0 F9600 X119.9 Y186.08
G1 F3000 X119.9 Y26.92 E2994.82793
G0 F9600 X120.3 Y26.92
G1 F3000 X120.3 Y186.08 E3006.92409
G0 F9600 X120.7 Y186.08
G1 F3000 X120.7 Y26.92 E3019.02025
G0 F9600 X121.1 Y26.92
G1 F3000 X121.1 Y186.08 E3031.11641
G0 F9600 X121.5 Y186.08
G1 F3000 X121.5 Y26.92 E3043.21257
G0 F9600 X121.9 Y26.92
G1 F3000 X121.9 Y186.08 E3055.30873
G0 F9600 X122.3 Y186.08
G1 F3000 X122.3 Y26.92 E3067.40489
G0 F9600 X122.7 Y26.92
G1 F3000 X122.7 Y186.08 E3079.50105
G0 F9600 X123.1 Y186.08
G1 F3000 X123.1 Y26.92 E3091.59721
G0 F9600 X123.5 Y26.92
G1 F3000 X123.5 Y186.08 E3103.69337
G0 F9600 X123.9 Y186.08
G1 F3000 X123.9 Y26.92 E3115.78953
G0 F9600 X124.3 Y26.92
G1 F3000 X124.3 Y186.08 E3127.88569
G0 F9600 X124.7 Y186.08
G1 F3000 X124.7 Y26.92 E3139.98185
G0 F9600 X125.1 Y26.92
G1 F3000 X125.1 Y186.08 E3152.07801
G0 F9600 X125.5 Y186.08
G1 F3000 X125.5 Y26.92 E3164.17417
G0 F9600 X125.9 Y26.92
G1 F3000 X125.9 Y186.08 E3176.27033
G1 X125.9 Y186.18
G10
;MESH:NONMESH
G0 F600 X125.9 Y186.18 Z0.88
G0 F9600 X96.72 Y26.72
;TIME_ELAPSED:1074.183578
;LAYER:3
;TYPE:WALL-OUTER
;MESH:platte_klein.stl
G11
G1 F2400 X96.72 Y186.28 E3189.03513
G1 X126.28 Y186.28 E3191.39993
G1 X126.28 Y41.5 E3202.98233
G1 X126.28 Y26.72 E3204.16473
G1 X96.72 Y26.72 E3206.52953
G0 F9600 X96.72 Y26.92
G0 X97.1 Y26.92
;TYPE:FILL
G1 F3000 X97.1 Y186.08 E3218.62569
G0 F9600 X97.5 Y186.08
G1 F3000 X97.5 Y26.92 E3230.72185
G0 F9600 X97.9 Y26.92
G1 F3000 X97.9 Y186.08 E3242.81801
G0 F9600 X98.3 Y186.08
G1 F3000 X98.3 Y26.92 E3254.91417
G0 F9600 X98.7 Y26.92
G1 F3000 X98.7 Y186.08 E3267.01033
G0 F9600 X99.1 Y186.08
G1 F3000 X99.1 Y26.92 E3279.10649
G0 F9600 X99.5 Y26.92
G1 F3000 X99.5 Y186.08 E3291.20265
G0 F9600 X99.9 Y186.08
G1 F3000 X99.9 Y26.92 E3303.29881
G0 F9600 X100.3 Y26.92
G1 F3000 X100.3 Y186.08 E3315.39497
G0 F9600 X100.7 Y186.08
G1 F3000 X100.7 Y26.92 E3327.49113
G0 F9600 X101.1 Y26.92
G1 F3000 X101.1 Y186.08 E3339.58729
