;FLAVOR:UltiGCode
;TIME:6411
;MATERIAL:20493
;MATERIAL2:0
;NOZZLE_DIAMETER:0.4
;MINX:93.32
;MINY:8.32
;MINZ:0.28
;MAXX:129.68
;MAXY:204.68
;MAXZ:4.08
;Generated with Cura_SteamEngine 5.0.0
M82 ;absolute extrusion mode
G0 F3000 Y50 ;avoid prime blob
G92 E0
G92 E0
G10
;LAYER_COUNT:20
;LAYER:0
M107
G0 F4800 X93.376 Y10.982 Z0.28
G0 X93.32 Y12.151
;TYPE:SKIRT
G11
G1 F1500 X93.329 Y11.486 E0.07449
G1 X93.376 Y10.982 E0.13118
G1 X93.703 Y10.029 E0.24402
G1 X93.974 Y9.602 E0.30067
G1 X94.7 Y8.903 E0.41354
G1 X95.608 Y8.464 E0.5265
G1 X96.439 Y8.33 E0.62077
G1 X96.85 Y8.32 E0.66682
G1 X125.819 Y8.32 E3.91135
G1 X126.517 Y8.33 E3.98953
G1 X127.02 Y8.377 E4.04611
G1 X127.51 Y8.503 E4.10278
G1 X128.4 Y8.977 E4.21571
G1 X128.778 Y9.312 E4.27228
G1 X129.353 Y10.14 E4.38519
G1 X129.643 Y11.105 E4.49804
G1 X129.679 Y11.76 E4.57151
G1 X129.68 Y200.784 E25.7422
G1 X129.671 Y201.511 E25.82363
G1 X129.625 Y202.014 E25.8802
G1 X129.5 Y202.504 E25.93684
G1 X129.028 Y203.395 E26.04977
G1 X128.303 Y204.095 E26.16264
G1 X127.867 Y204.351 E26.21927
G1 X126.902 Y204.642 E26.33216
G1 X126.24 Y204.679 E26.40641
G1 X97.186 Y204.68 E29.66046
G1 X96.488 Y204.671 E29.73865
G1 X95.494 Y204.499 E29.85163
G1 X94.604 Y204.027 E29.96446
G1 X94.225 Y203.692 E30.02111
G1 X93.649 Y202.865 E30.13399
G1 X93.465 Y202.394 E30.19062
G1 X93.33 Y201.557 E30.28558
G1 X93.32 Y201.138 E30.33252
G1 X93.32 Y12.151 E51.49906
G10
;MESH:platte_klein_wjc.stl
G0 F4800 X96.72 Y11.72
;TYPE:WALL-OUTER
G11
G1 F1500 X96.72 Y201.28 E72.72978
G1 X126.28 Y201.28 E76.0405
G1 X126.28 Y26.5 E95.61586
G1 X126.28 Y11.72 E97.27122
G1 X96.72 Y11.72 E100.58194
G0 F4800 X96.72 Y11.92
G0 X97.1 Y12.1
;TYPE:SKIN
G1 F1500 X97.1 Y200.9 E121.09317
G1 X125.9 Y200.9 E124.22201
G1 X125.9 Y26.5 E143.16882
G1 X125.9 Y12.1 E144.73324
G1 X97.1 Y12.1 E147.86207
G10
G0 F4800 X125.437 Y12.3
G11
G1 F1500 X125.699 Y12.562 E147.90232
G0 F4800 X125.699 Y13.128
G1 F1500 X124.871 Y12.3 E148.02954
G0 F4800 X124.305 Y12.3
G1 F1500 X125.699 Y13.693 E148.24364
G0 F4800 X125.699 Y14.259
G1 F1500 X123.74 Y12.3 E148.54462
G0 F4800 X123.174 Y12.3
G1 F1500 X125.699 Y14.825 E148.93256
G0 F4800 X125.699 Y15.39
G1 F1500 X122.608 Y12.3 E149.40738
G0 F4800 X122.043 Y12.3
G1 F1500 X125.699 Y15.956 E149.96909
G0 F4800 X125.699 Y16.522
G1 F1500 X121.477 Y12.3 E150.61776
G0 F4800 X120.911 Y12.3
G1 F1500 X125.699 Y17.087 E151.35331
G0 F4800 X125.699 Y17.653
G1 F1500 X120.346 Y12.3 E152.17575
G0 F4800 X119.78 Y12.3
G1 F1500 X125.699 Y18.219 E153.08514
G0 F4800 X125.699 Y18.784
G1 F1500 X119.214 Y12.3 E154.08142
G0 F4800 X118.648 Y12.3
G1 F1500 X125.699 Y19.35 E155.16466
G0 F4800 X125.699 Y19.916
G1 F1500 X118.083 Y12.3 E156.33479
G0 F4800 X117.517 Y12.3
G1 F1500 X125.699 Y20.482 E157.59187
G0 F4800 X125.699 Y21.047
G1 F1500 X116.951 Y12.3 E158.93584
G0 F4800 X116.386 Y12.3
G1 F1500 X125.699 Y21.613 E160.36669
G0 F4800 X125.699 Y22.179
G1 F1500 X115.82 Y12.3 E161.8845
G0 F4800 X115.254 Y12.3
G1 F1500 X125.699 Y22.744 E163.4892
G0 F4800 X125.699 Y23.31
G1 F1500 X114.689 Y12.3 E165.18077
G0 F4800 X114.123 Y12.3
G1 F1500 X125.699 Y23.876 E166.95931
G0 F4800 X125.699 Y24.441
G1 F1500 X113.557 Y12.3 E168.82473
G0 F4800 X112.992 Y12.3
G1 F1500 X125.699 Y25.007 E170.77704
G0 F4800 X125.699 Y25.573
G1 F1500 X112.426 Y12.3 E172.81631
G0 F4800 X111.86 Y12.3
G1 F1500 X125.699 Y26.138 E174.94246
G0 F4800 X125.699 Y26.704
G1 F1500 X111.295 Y12.3 E177.15549
G0 F4800 X110.729 Y12.3
G1 F1500 X125.699 Y27.27 E179.45548
G0 F4800 X125.699 Y27.835
G1 F1500 X110.163 Y12.3 E181.84236
G0 F4800 X109.598 Y12.3
G1 F1500 X125.699 Y28.401 E184.31612
G0 F4800 X125.699 Y28.967
G1 F1500 X109.032 Y12.3 E186.87684
G0 F4800 X108.466 Y12.3
G1 F1500 X125.699 Y29.533 E189.52452
G0 F4800 X125.699 Y30.098
G1 F1500 X107.9 Y12.3 E192.25908
G0 F4800 X107.335 Y12.3
G1 F1500 X125.699 Y30.664 E195.08053
G0 F4800 X125.699 Y31.23
G1 F1500 X106.769 Y12.3 E197.98894
G0 F4800 X106.203 Y12.3
G1 F1500 X125.699 Y31.795 E200.98423
G0 F4800 X125.699 Y32.361
G1 F1500 X105.638 Y12.3 E204.06641
G0 F4800 X105.072 Y12.3
G1 F1500 X125.699 Y32.927 E207.23554
G0 F4800 X125.699 Y33.492
G1 F1500 X104.506 Y12.3 E210.49156
G0 F4800 X103.941 Y12.3
G1 F1500 X125.699 Y34.058 E213.83446
G0 F4800 X125.699 Y34.624
G1 F1500 X103.375 Y12.3 E217.26433
G0 F4800 X102.809 Y12.3
G1 F1500 X125.699 Y35.189 E220.78107
G0 F4800 X125.699 Y35.755
G1 F1500 X102.244 Y12.3 E224.3847
G0 F4800 X101.678 Y12.3
G1 F1500 X125.699 Y36.321 E228.07529
G0 F4800 X125.699 Y36.886
G1 F1500 X101.112 Y12.3 E231.85277
G0 F4800 X100.547 Y12.3
G1 F1500 X125.699 Y37.452 E235.71713
G0 F4800 X125.699 Y38.018
G1 F1500 X99.981 Y12.3 E239.66844
G0 F4800 X99.415 Y12.3
G1 F1500 X125.699 Y38.583 E243.70664
G0 F4800 X125.699 Y39.149
G1 F1500 X98.849 Y12.3 E247.83181
G0 F4800 X98.284 Y12.3
G1 F1500 X125.699 Y39.715 E252.04385
G0 F4800 X125.699 Y40.281
G1 F1500 X97.718 Y12.3 E256.34286
G0 F4800 X97.299 Y12.446
G1 F1500 X125.699 Y40.846 E260.70624
G0 F4800 X125.699 Y41.412
G1 F1500 X97.299 Y13.012 E265.06962
G0 F4800 X97.299 Y13.577
G1 F1500 X125.699 Y41.978 E269.43308
G0 F4800 X125.699 Y42.543
G1 F1500 X97.299 Y14.143 E273.79646
G0 F4800 X97.299 Y14.709
G1 F1500 X125.699 Y43.109 E278.15984
G0 F4800 X125.699 Y43.675
G1 F1500 X97.299 Y15.274 E282.52329
G0 F4800 X97.299 Y15.84
G1 F1500 X125.699 Y44.24 E286.88667
G0 F4800 X125.699 Y44.806
G1 F1500 X97.299 Y16.406 E291.25005
G0 F4800 X97.299 Y16.971
G1 F1500 X125.699 Y45.372 E295.61351
G0 F4800 X125.699 Y45.937
G1 F1500 X97.299 Y17.537 E299.97689
G0 F4800 X97.299 Y18.103
G1 F1500 X125.699 Y46.503 E304.34027
G0 F4800 X125.699 Y47.069
G1 F1500 X97.299 Y18.669 E308.70365
G0 F4800 X97.299 Y19.234
G1 F1500 X125.699 Y47.634 E313.06703
G0 F4800 X125.699 Y48.2
G1 F1500 X97.299 Y19.8 E317.43042
G0 F4800 X97.299 Y20.366
G1 F1500 X125.699 Y48.766 E321.7938
G0 F4800 X125.699 Y49.332
G1 F1500 X97.299 Y20.931 E326.15725
G0 F4800 X97.299 Y21.497
G1 F1500 X125.699 Y49.897 E330.52063
G0 F4800 X125.699 Y50.463
G1 F1500 X97.299 Y22.063 E334.88401
G0 F4800 X97.299 Y22.628
G1 F1500 X125.699 Y51.029 E339.24747
G0 F4800 X125.699 Y51.594
G1 F1500 X97.299 Y23.194 E343.61085
G0 F4800 X97.299 Y23.76
G1 F1500 X125.699 Y52.16 E347.97423
G0 F4800 X125.699 Y52.726
G1 F1500 X97.299 Y24.325 E352.33769
G0 F4800 X97.299 Y24.891
G1 F1500 X125.699 Y53.291 E356.70107
G0 F4800 X125.699 Y53.857
G1 F1500 X97.299 Y25.457 E361.06445
G0 F4800 X97.299 Y26.022
G1 F1500 X125.699 Y54.423 E365.42791
G0 F4800 X125.699 Y54.988
G1 F1500 X97.299 Y26.588 E369.79129
G0 F4800 X97.299 Y27.154
G1 F1500 X125.699 Y55.554 E374.15467
G0 F4800 X125.699 Y56.12
G1 F1500 X97.299 Y27.72 E378.51805
G0 F4800 X97.299 Y28.285
G1 F1500 X125.699 Y56.685 E382.88143
G0 F4800 X125.699 Y57.251
G1 F1500 X97.299 Y28.851 E387.24481
G0 F4800 X97.299 Y29.417
G1 F1500 X125.699 Y57.817 E391.60819
G0 F4800 X125.699 Y58.382
G1 F1500 X97.299 Y29.982 E395.97157
G0 F4800 X97.299 Y30.548
G1 F1500 X125.699 Y58.948 E400.33495
G0 F4800 X125.699 Y59.514
G1 F1500 X97.299 Y31.114 E404.69833
G0 F4800 X97.299 Y31.679
G1 F1500 X125.699 Y60.08 E409.06179
G0 F4800 X125.699 Y60.645
G1 F1500 X97.299 Y32.245 E413.42517
G0 F4800 X97.299 Y32.811
G1 F1500 X125.699 Y61.211 E417.78855
G0 F4800 X125.699 Y61.777
G1 F1500 X97.299 Y33.376 E422.15201
G0 F4800 X97.299 Y33.942
G1 F1500 X125.699 Y62.342 E426.51539
G0 F4800 X125.699 Y62.908
G1 F1500 X97.299 Y34.508 E430.87877
G0 F4800 X97.299 Y35.073
G1 F1500 X125.699 Y63.474 E435.24223
G0 F4800 X125.699 Y64.039
G1 F1500 X97.299 Y35.639 E439.60561
G0 F4800 X97.299 Y36.205
G1 F1500 X125.699 Y64.605 E443.96899
G0 F4800 X125.699 Y65.171
G1 F1500 X97.299 Y36.77 E448.33245
G0 F4800 X97.299 Y37.336
G1 F1500 X125.699 Y65.736 E452.69583
G0 F4800 X125.699 Y66.302
G1 F1500 X97.299 Y37.902 E457.05921
G0 F4800 X97.299 Y38.468
G1 F1500 X125.699 Y66.868 E461.42259
G0 F4800 X125.699 Y67.433
G1 F1500 X97.299 Y39.033 E465.78597
G0 F4800 X97.299 Y39.599
G1 F1500 X125.699 Y67.999 E470.14935
G0 F4800 X125.699 Y68.565
G1 F1500 X97.299 Y40.165 E474.51273
G0 F4800 X97.299 Y40.73
G1 F1500 X125.699 Y69.131 E478.87619
G0 F4800 X125.699 Y69.696
G1 F1500 X97.299 Y41.296 E483.23957
G0 F4800 X97.299 Y41.862
G1 F1500 X125.699 Y70.262 E487.60295
G0 F4800 X125.699 Y70.828
G1 F1500 X97.299 Y42.427 E491.96641
G0 F4800 X97.299 Y42.993
G1 F1500 X125.699 Y71.393 E496.32979
G0 F4800 X125.699 Y71.959
G1 F1500 X97.299 Y43.559 E500.69317
G0 F4800 X97.299 Y44.124
G1 F1500 X125.699 Y72.525 E505.05663
G0 F4800 X125.699 Y73.09
G1 F1500 X97.299 Y44.69 E509.42001
G0 F4800 X97.299 Y45.256
G1 F1500 X125.699 Y73.656 E513.78339
G0 F4800 X125.699 Y74.222
G1 F1500 X97.299 Y45.821 E518.14684
G0 F4800 X97.299 Y46.387
G1 F1500 X125.699 Y74.787 E522.51022
G0 F4800 X125.699 Y75.353
G1 F1500 X97.299 Y46.953 E526.87361
G0 F4800 X97.299 Y47.518
G1 F1500 X125.699 Y75.919 E531.23706
G0 F4800 X125.699 Y76.484
G1 F1500 X97.299 Y48.084 E535.60044
G0 F4800 X97.299 Y48.65
G1 F1500 X125.699 Y77.05 E539.96382
G0 F4800 X125.699 Y77.616
G1 F1500 X97.299 Y49.216 E544.3272
G0 F4800 X97.299 Y49.781
G1 F1500 X125.699 Y78.181 E548.69058
G0 F4800 X125.699 Y78.747
G1 F1500 X97.299 Y50.347 E553.05397
G0 F4800 X97.299 Y50.913
G1 F1500 X125.699 Y79.313 E557.41735
G0 F4800 X125.699 Y79.879
G1 F1500 X97.299 Y51.478 E561.7808
G0 F4800 X97.299 Y52.044
G1 F1500 X125.699 Y80.444 E566.14418
G0 F4800 X125.699 Y81.01
G1 F1500 X97.299 Y52.61 E570.50756
G0 F4800 X97.299 Y53.175
G1 F1500 X125.699 Y81.576 E574.87102
G0 F4800 X125.699 Y82.141
G1 F1500 X97.299 Y53.741 E579.2344
G0 F4800 X97.299 Y54.307
G1 F1500 X125.699 Y82.707 E583.59778
G0 F4800 X125.699 Y83.273
G1 F1500 X97.299 Y54.872 E587.96124
G0 F4800 X97.299 Y55.438
G1 F1500 X125.699 Y83.838 E592.32462
G0 F4800 X125.699 Y84.404
G1 F1500 X97.299 Y56.004 E596.688
G0 F4800 X97.299 Y56.569
G1 F1500 X125.699 Y84.97 E601.05146
G0 F4800 X125.699 Y85.535
G1 F1500 X97.299 Y57.135 E605.41484
G0 F4800 X97.299 Y57.701
G1 F1500 X125.699 Y86.101 E609.77822
G0 F4800 X125.699 Y86.667
G1 F1500 X97.299 Y58.267 E614.1416
G0 F4800 X97.299 Y58.832
G1 F1500 X125.699 Y87.232 E618.50498
G0 F4800 X125.699 Y87.798
G1 F1500 X97.299 Y59.398 E622.86836
G0 F4800 X97.299 Y59.964
G1 F1500 X125.699 Y88.364 E627.23174
G0 F4800 X125.699 Y88.929
G1 F1500 X97.299 Y60.529 E631.59512
G0 F4800 X97.299 Y61.095
G1 F1500 X125.699 Y89.495 E635.9585
G0 F4800 X125.699 Y90.061
G1 F1500 X97.299 Y61.661 E640.32188
G0 F4800 X97.299 Y62.226
G1 F1500 X125.699 Y90.627 E644.68534
G0 F4800 X125.699 Y91.192
G1 F1500 X97.299 Y62.792 E649.04872
G0 F4800 X97.299 Y63.358
G1 F1500 X125.699 Y91.758 E653.4121
G0 F4800 X125.699 Y92.324
G1 F1500 X97.299 Y63.923 E657.77556
G0 F4800 X97.299 Y64.489
G1 F1500 X125.699 Y92.889 E662.13894
G0 F4800 X125.699 Y93.455
G1 F1500 X97.299 Y65.055 E666.50232
G0 F4800 X97.299 Y65.62
G1 F1500 X125.699 Y94.021 E670.86578
G0 F4800 X125.699 Y94.586
G1 F1500 X97.299 Y66.186 E675.22916
G0 F4800 X97.299 Y66.752
G1 F1500 X125.699 Y95.152 E679.59254
G0 F4800 X125.699 Y95.718
G1 F1500 X97.299 Y67.317 E683.956
G0 F4800 X97.299 Y67.883
G1 F1500 X125.699 Y96.283 E688.31938
G0 F4800 X125.699 Y96.849
G1 F1500 X97.299 Y68.449 E692.68276
G0 F4800 X97.299 Y69.015
G1 F1500 X125.699 Y97.415 E697.04614
G0 F4800 X125.699 Y97.98
G1 F1500 X97.299 Y69.58 E701.40952
G0 F4800 X97.299 Y70.146
G1 F1500 X125.699 Y98.546 E705.7729
G0 F4800 X125.699 Y99.112
G1 F1500 X97.299 Y70.712 E710.13628
G0 F4800 X97.299 Y71.277
G1 F1500 X125.699 Y99.678 E714.49974
G0 F4800 X125.699 Y100.243
G1 F1500 X97.299 Y71.843 E718.86312
G0 F4800 X97.299 Y72.409
G1 F1500 X125.699 Y100.809 E723.2265
G0 F4800 X125.699 Y101.375
G1 F1500 X97.299 Y72.974 E727.58996
G0 F4800 X97.299 Y73.54
G1 F1500 X125.699 Y101.94 E731.95334
G0 F4800 X125.699 Y102.506
G1 F1500 X97.299 Y74.106 E736.31672
G0 F4800 X97.299 Y74.671
G1 F1500 X125.699 Y103.072 E740.68018
G0 F4800 X125.699 Y103.637
G1 F1500 X97.299 Y75.237 E745.04356
G0 F4800 X97.299 Y75.803
G1 F1500 X125.699 Y104.203 E749.40694
G0 F4800 X125.699 Y104.769
G1 F1500 X97.299 Y76.368 E753.77039
G0 F4800 X97.299 Y76.934
G1 F1500 X125.699 Y105.334 E758.13377
G0 F4800 X125.699 Y105.9
G1 F1500 X97.299 Y77.5 E762.49716
G0 F4800 X97.299 Y78.066
G1 F1500 X125.699 Y106.466 E766.86054
G0 F4800 X125.699 Y107.031
G1 F1500 X97.299 Y78.631 E771.22392
G0 F4800 X97.299 Y79.197
G1 F1500 X125.699 Y107.597 E775.5873
G0 F4800 X125.699 Y108.163
G1 F1500 X97.299 Y79.763 E779.95068
G0 F4800 X97.299 Y80.328
G1 F1500 X125.699 Y108.728 E784.31406
G0 F4800 X125.699 Y109.294
G1 F1500 X97.299 Y80.894 E788.67744
G0 F4800 X97.299 Y81.46
G1 F1500 X125.699 Y109.86 E793.04082
G0 F4800 X125.699 Y110.426
G1 F1500 X97.299 Y82.025 E797.40428
G0 F4800 X97.299 Y82.591
G1 F1500 X125.699 Y110.991 E801.76766
G0 F4800 X125.699 Y111.557
G1 F1500 X97.299 Y83.157 E806.13104
G0 F4800 X97.299 Y83.722
G1 F1500 X125.699 Y112.123 E810.4945
G0 F4800 X125.699 Y112.688
G1 F1500 X97.299 Y84.288 E814.85788
G0 F4800 X97.299 Y84.854
G1 F1500 X125.699 Y113.254 E819.22126
G0 F4800 X125.699 Y113.82
G1 F1500 X97.299 Y85.419 E823.58471
G0 F4800 X97.299 Y85.985
G1 F1500 X125.699 Y114.385 E827.94809
G0 F4800 X125.699 Y114.951
G1 F1500 X97.299 Y86.551 E832.31148
G0 F4800 X97.299 Y87.116
G1 F1500 X125.699 Y115.517 E836.67493
G0 F4800 X125.699 Y116.082
G1 F1500 X97.299 Y87.682 E841.03831
G0 F4800 X97.299 Y88.248
G1 F1500 X125.699 Y116.648 E845.40169
G0 F4800 X125.699 Y117.214
G1 F1500 X97.299 Y88.814 E849.76507
G0 F4800 X97.299 Y89.379
G1 F1500 X125.699 Y117.779 E854.12845
G0 F4800 X125.699 Y118.345
G1 F1500 X97.299 Y89.945 E858.49184
G0 F4800 X97.299 Y90.511
G1 F1500 X125.699 Y118.911 E862.85522
G0 F4800 X125.699 Y119.477
G1 F1500 X97.299 Y91.076 E867.21867
G0 F4800 X97.299 Y91.642
G1 F1500 X125.699 Y120.042 E871.58205
G0 F4800 X125.699 Y120.608
G1 F1500 X97.299 Y92.208 E875.94543
G0 F4800 X97.299 Y92.773
G1 F1500 X125.699 Y121.174 E880.30889
G0 F4800 X125.699 Y121.739
G1 F1500 X97.299 Y93.339 E884.67227
G0 F4800 X97.299 Y93.905
G1 F1500 X125.699 Y122.305 E889.03565
G0 F4800 X125.699 Y122.871
G1 F1500 X97.299 Y94.47 E893.39911
G0 F4800 X97.299 Y95.036
G1 F1500 X125.699 Y123.436 E897.76249
G0 F4800 X125.699 Y124.002
G1 F1500 X97.299 Y95.602 E902.12587
G0 F4800 X97.299 Y96.167
G1 F1500 X125.699 Y124.568 E906.48933
G0 F4800 X125.699 Y125.133
G1 F1500 X97.299 Y96.733 E910.85271
G0 F4800 X97.299 Y97.299
G1 F1500 X125.699 Y125.699 E915.21609
G0 F4800 X125.699 Y126.265
G1 F1500 X97.299 Y97.864 E919.57955
G0 F4800 X97.299 Y98.43
G1 F1500 X125.699 Y126.83 E923.94293
G0 F4800 X125.699 Y127.396
G1 F1500 X97.299 Y98.996 E928.30631
G0 F4800 X97.299 Y99.562
G1 F1500 X125.699 Y127.962 E932.66969
G0 F4800 X125.699 Y128.527
G1 F1500 X97.299 Y100.127 E937.03307
G0 F4800 X97.299 Y100.693
G1 F1500 X125.699 Y129.093 E941.39645
G0 F4800 X125.699 Y129.659
G1 F1500 X97.299 Y101.259 E945.75983
G0 F4800 X97.299 Y101.824
G1 F1500 X125.699 Y130.225 E950.12329
G0 F4800 X125.699 Y130.79
G1 F1500 X97.299 Y102.39 E954.48667
G0 F4800 X97.299 Y102.956
G1 F1500 X125.699 Y131.356 E958.85005
G0 F4800 X125.699 Y131.922
G1 F1500 X97.299 Y103.521 E963.21351
G0 F4800 X97.299 Y104.087
G1 F1500 X125.699 Y132.487 E967.57689
G0 F4800 X125.699 Y133.053
G1 F1500 X97.299 Y104.653 E971.94027
G0 F4800 X97.299 Y105.218
G1 F1500 X125.699 Y133.619 E976.30373
G0 F4800 X125.699 Y134.184
G1 F1500 X97.299 Y105.784 E980.66711
G0 F4800 X97.299 Y106.35
G1 F1500 X125.699 Y134.75 E985.03049
G0 F4800 X125.699 Y135.316
G1 F1500 X97.299 Y106.915 E989.39394
G0 F4800 X97.299 Y107.481
G1 F1500 X125.699 Y135.881 E993.75732
G0 F4800 X125.699 Y136.447
G1 F1500 X97.299 Y108.047 E998.12071
G0 F4800 X97.299 Y108.613
G1 F1500 X125.699 Y137.013 E1002.48409
G0 F4800 X125.699 Y137.578
G1 F1500 X97.299 Y109.178 E1006.84747
G0 F4800 X97.299 Y109.744
G1 F1500 X125.699 Y138.144 E1011.21085
G0 F4800 X125.699 Y138.71
G1 F1500 X97.299 Y110.31 E1015.57423
G0 F4800 X97.299 Y110.875
G1 F1500 X125.699 Y139.275 E1019.93761
G0 F4800 X125.699 Y139.841
G1 F1500 X97.299 Y111.441 E1024.30099
G0 F4800 X97.299 Y112.007
G1 F1500 X125.699 Y140.407 E1028.66437
G0 F4800 X125.699 Y140.973
G1 F1500 X97.299 Y112.572 E1033.02783
G0 F4800 X97.299 Y113.138
G1 F1500 X125.699 Y141.538 E1037.39121
