; generated by PrusaSlicer 2.6.1+win64 on 2023-11-22 at 10:26:05 UTC


;
; 

; external perimeters extrusion width = 0.45mm
; perimeters extrusion width = 0.45mm
; infill extrusion width = 0.45mm
; solid infill extrusion width = 0.45mm
; top infill extrusion width = 0.40mm
; first layer extrusion width = 0.45mm

; external perimeters extrusion width = 0.45mm
; perimeters extrusion width = 0.45mm
; infill extrusion width = 0.45mm
; solid infill extrusion width = 0.45mm
; top infill extrusion width = 0.40mm
; first layer extrusion width = 0.45mm

M73 P0 R54
M190 S55 ; set bed temperature and wait for it to be reached
M104 S212 ; set temperature
;TYPE:Custom
;CUSTOM PRUSASLICER PROFILE FOR ANISOPRINT A4
;CREATED AT FAST-LB AT KIT

;BEGIN OF START-SEQUENCE

T0 R ; switch extruder to plastic
G28 ; home all axes

;END OF START-SEQUENCE

M109 S212 ; set temperature and wait for it to be reached
G21 ; set units to millimeters
G90 ; use absolute coordinates
M82 ; use absolute distances for extrusion
G92 E0
; Filament gcode
M107 P1
;LAYER_CHANGE
M117 INDICATOR-Layer1
;Z:0.2
;HEIGHT:0.2
G1 Z.2 F7800
G1 E-6.5 F2400
G92 E0
G1 X95.763 Y59.842 F7800
G1 E6.5 F2400
;TYPE:Skirt/Brim
;WIDTH:0.45
G1 F1800
G1 X123.673 Y15.179 E8.2827
G1 X125.224 Y13.446 E8.36142
G1 X127.269 Y12.335 E8.4402
G1 X129.452 Y11.976 E8.51508
G1 X179.452 Y11.976 E10.20752
G1 X181.744 Y12.373 E10.28626
G1 X183.769 Y13.518 E10.365
G1 X185.291 Y15.277 E10.44373
G1 X186.132 Y17.446 E10.52247
G1 X186.266 Y18.79 E10.56819
G1 X186.266 Y32.79 E11.04207
G1 X185.869 Y35.082 E11.12081
G1 X184.429 Y37.444 E11.21445
G1 X56.275 Y174.513 E17.56607
G1 X54.42 Y175.916 E17.6448
G1 X51.298 Y176.673 E17.75354
G1 X41.298 Y176.673 E18.09203
G1 X39.006 Y176.276 E18.17077
G1 X36.981 Y175.131 E18.24951
G1 X35.459 Y173.372 E18.32824
G1 X34.618 Y171.203 E18.40698
G1 X34.484 Y169.859 E18.4527
G1 X34.484 Y159.859 E18.79119
G1 X34.881 Y157.567 E18.86993
G1 X35.519 Y156.248 E18.91953
G1 X95.731 Y59.893 E22.76547
G1 X96.076 Y60.109 F7800
G1 F1800
G1 X124.018 Y15.395 E24.5502
G1 X125.531 Y13.722 E24.62655
G1 X127.53 Y12.678 E24.70289
G1 X129.452 Y12.383 E24.76871
G1 X179.452 Y12.383 E26.46115
G1 X181.672 Y12.78 E26.53749
G1 X183.617 Y13.921 E26.61382
G1 X185.046 Y15.666 E26.69016
G1 X185.859 Y18.79 E26.79943
G1 X185.859 Y32.79 E27.27331
G1 X185.462 Y35.01 E27.34965
G1 X184.132 Y37.166 E27.4354
G1 X55.978 Y174.235 E33.78702
G1 X54.172 Y175.585 E33.86334
G1 X51.298 Y176.266 E33.96332
G1 X41.298 Y176.266 E34.30181
G1 X39.078 Y175.869 E34.37815
G1 X37.133 Y174.728 E34.45448
G1 X35.704 Y172.983 E34.53082
G1 X34.891 Y169.859 E34.64009
G1 X34.891 Y159.859 E34.97858
G1 X35.288 Y157.639 E35.05492
G1 X35.864 Y156.464 E35.09921
G1 X96.045 Y60.16 E38.94313
G1 E32.44313 F2400
G92 E0
M73 P1 R54
G1 X51.256 Y160.088 F7800
G1 E6.5 F2400
;TYPE:Internal infill
M73 P1 R53
G1 F1800
G1 X41.523 Y160.088 E6.82945
G1 X41.523 Y160.503 E6.8435
G1 X51.073 Y160.503 E7.16676
G1 X51.073 Y160.918 E7.18081
G1 X41.523 Y160.918 E7.50407
G1 X41.523 Y161.333 E7.51812
G1 X51.073 Y161.333 E7.84138
G1 X51.073 Y161.747 E7.85539
G1 X41.523 Y161.747 E8.17865
G1 X41.523 Y162.162 E8.1927
G1 X51.073 Y162.162 E8.51596
G1 X51.073 Y162.577 E8.53001
G1 X41.523 Y162.577 E8.85327
G1 X41.523 Y162.992 E8.86732
G1 X51.073 Y162.992 E9.19058
G1 X51.073 Y163.407 E9.20463
G1 X41.523 Y163.407 E9.52789
G1 X41.523 Y163.822 E9.54194
G1 X51.073 Y163.822 E9.8652
G1 X51.073 Y164.237 E9.87925
G1 X41.523 Y164.237 E10.20251
G1 X41.523 Y164.652 E10.21656
G1 X51.073 Y164.652 E10.53982
G1 X51.073 Y165.066 E10.55383
G1 X41.523 Y165.066 E10.87709
G1 X41.523 Y165.481 E10.89114
G1 X51.073 Y165.481 E11.2144
G1 X51.073 Y165.896 E11.22845
G1 X41.523 Y165.896 E11.55171
G1 X41.523 Y166.311 E11.56576
G1 X51.073 Y166.311 E11.88902
G1 X51.073 Y166.726 E11.90307
G1 X41.523 Y166.726 E12.22633
G1 X41.523 Y167.141 E12.24038
G1 X51.073 Y167.141 E12.56364
G1 X51.073 Y167.556 E12.57769
G1 X41.523 Y167.556 E12.90095
G1 X41.523 Y167.971 E12.915
G1 X51.073 Y167.971 E13.23826
G1 X51.073 Y168.385 E13.25227
G1 X41.523 Y168.385 E13.57553
G1 X41.523 Y168.8 E13.58958
G1 X51.073 Y168.8 E13.91284
G1 X51.073 Y169.215 E13.92689
G1 X41.523 Y169.215 E14.25015
G1 X41.523 Y169.63 E14.2642
G1 X51.256 Y169.63 E14.59365
G1 E8.09365 F2400
G92 E0
G1 X154.894 Y25.585 F7800
G1 E6.5 F2400
G1 F1800
G1 X179.227 Y25.585 E7.32364
G1 X179.227 Y25.174 E7.33755
G1 X155.077 Y25.174 E8.155
G1 X155.077 Y24.764 E8.16888
G1 X179.227 Y24.764 E8.98633
G1 X179.227 Y24.353 E9.00024
G1 X155.077 Y24.353 E9.81769
G1 X155.077 Y23.943 E9.83157
G1 X179.227 Y23.943 E10.64902
G1 X179.227 Y23.532 E10.66293
G1 X155.077 Y23.532 E11.48038
G1 X155.077 Y23.122 E11.49426
G1 X179.227 Y23.122 E12.31171
G1 X179.227 Y22.711 E12.32562
G1 X155.077 Y22.711 E13.14307
G1 X155.077 Y22.301 E13.15695
G1 X179.227 Y22.301 E13.9744
G1 X179.227 Y21.89 E13.98831
G1 X155.077 Y21.89 E14.80576
G1 X155.077 Y21.48 E14.81964
G1 X179.227 Y21.48 E15.63709
G1 X179.227 Y21.069 E15.651
G1 X155.077 Y21.069 E16.46845
G1 X155.077 Y20.659 E16.48233
G1 X179.227 Y20.659 E17.29978
G1 X179.227 Y20.248 E17.31369
G1 X155.077 Y20.248 E18.13114
G1 X155.077 Y19.838 E18.14502
G1 X179.227 Y19.838 E18.96247
G1 X179.227 Y19.427 E18.97638
G1 X155.077 Y19.427 E19.79383
G1 X155.077 Y19.017 E19.80771
G1 X179.41 Y19.017 E20.63135
G1 E14.13135 F2400
G92 E0
G1 X179.41 Y32.563 F7800
G1 E6.5 F2400
G1 F1800
G1 X129.677 Y32.563 E8.1834
G1 X129.677 Y32.153 E8.19728
G1 X179.227 Y32.153 E9.87449
G1 X179.227 Y31.742 E9.8884
G1 X129.677 Y31.742 E11.56561
G1 X129.677 Y31.332 E11.57949
M73 P2 R53
G1 X179.227 Y31.332 E13.2567
G1 X179.227 Y30.921 E13.27061
G1 X129.677 Y30.921 E14.94782
G1 X129.677 Y30.511 E14.9617
G1 X179.227 Y30.511 E16.63891
G1 X179.227 Y30.1 E16.65282
G1 X129.677 Y30.1 E18.33003
G1 X129.677 Y29.69 E18.34391
G1 X179.227 Y29.69 E20.02112
G1 X179.227 Y29.279 E20.03503
G1 X129.677 Y29.279 E21.71224
G1 X129.677 Y28.869 E21.72612
G1 X179.227 Y28.869 E23.40333
G1 X179.227 Y28.458 E23.41724
G1 X129.677 Y28.458 E25.09445
G1 X129.677 Y28.048 E25.10833
G1 X179.227 Y28.048 E26.78554
G1 X179.227 Y27.637 E26.79945
G1 X129.677 Y27.637 E28.47666
G1 X129.677 Y27.227 E28.49054
G1 X179.227 Y27.227 E30.16775
G1 X179.227 Y26.816 E30.18166
G1 X129.677 Y26.816 E31.85887
G1 X129.677 Y26.406 E31.87275
G1 X179.227 Y26.406 E33.54996
G1 X179.227 Y25.995 E33.56387
G1 X129.677 Y25.995 E35.24108
G1 X129.677 Y25.585 E35.25496
G1 X153.827 Y25.585 E36.07241
G1 X153.827 Y25.174 E36.08632
G1 X129.677 Y25.174 E36.90377
G1 X129.677 Y24.764 E36.91765
G1 X153.827 Y24.764 E37.7351
G1 X153.827 Y24.353 E37.74901
G1 X129.677 Y24.353 E38.56646
G1 X129.677 Y23.943 E38.58034
G1 X153.827 Y23.943 E39.39779
G1 X153.827 Y23.532 E39.4117
G1 X129.677 Y23.532 E40.22915
G1 X129.677 Y23.122 E40.24303
M73 P2 R52
G1 X153.827 Y23.122 E41.06048
G1 X153.827 Y22.711 E41.07439
G1 X129.677 Y22.711 E41.89184
G1 X129.677 Y22.301 E41.90572
G1 X153.827 Y22.301 E42.72317
G1 X153.827 Y21.89 E42.73708
G1 X129.677 Y21.89 E43.55453
G1 X129.677 Y21.48 E43.56841
G1 X153.827 Y21.48 E44.38586
G1 X153.827 Y21.069 E44.39977
M73 P3 R52
G1 X129.677 Y21.069 E45.21722
G1 X129.677 Y20.659 E45.2311
G1 X153.827 Y20.659 E46.04855
G1 X153.827 Y20.248 E46.06246
G1 X129.677 Y20.248 E46.87991
G1 X129.677 Y19.838 E46.89379
G1 X153.827 Y19.838 E47.71124
G1 X153.827 Y19.427 E47.72515
G1 X129.677 Y19.427 E48.5426
G1 X129.677 Y19.017 E48.55648
G1 X154.01 Y19.017 E49.38012
;LAYER_CHANGE
M117 INDICATOR-Layer2
;Z:0.4
;HEIGHT:0.2
G1 Z.4 F7800
G1 E42.88012 F2400
G92 E0
G1 X51.256 Y160.088 F7800
G1 E6.5 F2400
G1 F3000
G1 X41.523 Y160.088 E6.82945
G1 X41.523 Y160.503 E6.8435
G1 X51.073 Y160.503 E7.16676
G1 X51.073 Y160.918 E7.18081
G1 X41.523 Y160.918 E7.50407
G1 X41.523 Y161.333 E7.51812
G1 X51.073 Y161.333 E7.84138
G1 X51.073 Y161.747 E7.85539
G1 X41.523 Y161.747 E8.17865
G1 X41.523 Y162.162 E8.1927
G1 X51.073 Y162.162 E8.51596
G1 X51.073 Y162.577 E8.53001
G1 X41.523 Y162.577 E8.85327
G1 X41.523 Y162.992 E8.86732
G1 X51.073 Y162.992 E9.19058
G1 X51.073 Y163.407 E9.20463
G1 X41.523 Y163.407 E9.52789
G1 X41.523 Y163.822 E9.54194
G1 X51.073 Y163.822 E9.8652
G1 X51.073 Y164.237 E9.87925
G1 X41.523 Y164.237 E10.20251
G1 X41.523 Y164.652 E10.21656
G1 X51.073 Y164.652 E10.53982
G1 X51.073 Y165.066 E10.55383
G1 X41.523 Y165.066 E10.87709
G1 X41.523 Y165.481 E10.89114
G1 X51.073 Y165.481 E11.2144
G1 X51.073 Y165.896 E11.22845
G1 X41.523 Y165.896 E11.55171
G1 X41.523 Y166.311 E11.56576
G1 X51.073 Y166.311 E11.88902
G1 X51.073 Y166.726 E11.90307
G1 X41.523 Y166.726 E12.22633
G1 X41.523 Y167.141 E12.24038
G1 X51.073 Y167.141 E12.56364
G1 X51.073 Y167.556 E12.57769
G1 X41.523 Y167.556 E12.90095
G1 X41.523 Y167.971 E12.915
G1 X51.073 Y167.971 E13.23826
G1 X51.073 Y168.385 E13.25227
G1 X41.523 Y168.385 E13.57553
G1 X41.523 Y168.8 E13.58958
G1 X51.073 Y168.8 E13.91284
G1 X51.073 Y169.215 E13.92689
G1 X41.523 Y169.215 E14.25015
G1 X41.523 Y169.63 E14.2642
G1 X51.256 Y169.63 E14.59365
G1 E8.09365 F2400
G92 E0
G1 X154.894 Y25.585 F7800
G1 E6.5 F2400
G1 F3000
G1 X179.227 Y25.585 E7.32364
G1 X179.227 Y25.174 E7.33755
G1 X155.077 Y25.174 E8.155
G1 X155.077 Y24.764 E8.16888
G1 X179.227 Y24.764 E8.98633
G1 X179.227 Y24.353 E9.00024
G1 X155.077 Y24.353 E9.81769
G1 X155.077 Y23.943 E9.83157
G1 X179.227 Y23.943 E10.64902
G1 X179.227 Y23.532 E10.66293
G1 X155.077 Y23.532 E11.48038
G1 X155.077 Y23.122 E11.49426
G1 X179.227 Y23.122 E12.31171
G1 X179.227 Y22.711 E12.32562
G1 X155.077 Y22.711 E13.14307
G1 X155.077 Y22.301 E13.15695
G1 X179.227 Y22.301 E13.9744
G1 X179.227 Y21.89 E13.98831
G1 X155.077 Y21.89 E14.80576
G1 X155.077 Y21.48 E14.81964
G1 X179.227 Y21.48 E15.63709
G1 X179.227 Y21.069 E15.651
G1 X155.077 Y21.069 E16.46845
G1 X155.077 Y20.659 E16.48233
G1 X179.227 Y20.659 E17.29978
G1 X179.227 Y20.248 E17.31369
G1 X155.077 Y20.248 E18.13114
G1 X155.077 Y19.838 E18.14502
G1 X179.227 Y19.838 E18.96247
G1 X179.227 Y19.427 E18.97638
G1 X155.077 Y19.427 E19.79383
G1 X155.077 Y19.017 E19.80771
G1 X179.41 Y19.017 E20.63135
G1 E14.13135 F2400
G92 E0
G1 X179.41 Y32.563 F7800
G1 E6.5 F2400
G1 F3000
G1 X129.677 Y32.563 E8.1834
G1 X129.677 Y32.153 E8.19728
G1 X179.227 Y32.153 E9.87449
G1 X179.227 Y31.742 E9.8884
G1 X129.677 Y31.742 E11.56561
G1 X129.677 Y31.332 E11.57949
G1 X179.227 Y31.332 E13.2567
G1 X179.227 Y30.921 E13.27061
G1 X129.677 Y30.921 E14.94782
G1 X129.677 Y30.511 E14.9617
G1 X179.227 Y30.511 E16.63891
G1 X179.227 Y30.1 E16.65282
G1 X129.677 Y30.1 E18.33003
G1 X129.677 Y29.69 E18.34391
G1 X179.227 Y29.69 E20.02112
G1 X179.227 Y29.279 E20.03503
M73 P4 R52
G1 X129.677 Y29.279 E21.71224
G1 X129.677 Y28.869 E21.72612
G1 X179.227 Y28.869 E23.40333
G1 X179.227 Y28.458 E23.41724
G1 X129.677 Y28.458 E25.09445
G1 X129.677 Y28.048 E25.10833
G1 X179.227 Y28.048 E26.78554
G1 X179.227 Y27.637 E26.79945
G1 X129.677 Y27.637 E28.47666
G1 X129.677 Y27.227 E28.49054
G1 X179.227 Y27.227 E30.16775
G1 X179.227 Y26.816 E30.18166
G1 X129.677 Y26.816 E31.85887
G1 X129.677 Y26.406 E31.87275
G1 X179.227 Y26.406 E33.54996
G1 X179.227 Y25.995 E33.56387
G1 X129.677 Y25.995 E35.24108
G1 X129.677 Y25.585 E35.25496
G1 X153.827 Y25.585 E36.07241
G1 X153.827 Y25.174 E36.08632
G1 X129.677 Y25.174 E36.90377
G1 X129.677 Y24.764 E36.91765
G1 X153.827 Y24.764 E37.7351
G1 X153.827 Y24.353 E37.74901
G1 X129.677 Y24.353 E38.56646
G1 X129.677 Y23.943 E38.58034
G1 X153.827 Y23.943 E39.39779
G1 X153.827 Y23.532 E39.4117
G1 X129.677 Y23.532 E40.22915
G1 X129.677 Y23.122 E40.24303
G1 X153.827 Y23.122 E41.06048
G1 X153.827 Y22.711 E41.07439
G1 X129.677 Y22.711 E41.89184
G1 X129.677 Y22.301 E41.90572
G1 X153.827 Y22.301 E42.72317
G1 X153.827 Y21.89 E42.73708
G1 X129.677 Y21.89 E43.55453
G1 X129.677 Y21.48 E43.56841
G1 X153.827 Y21.48 E44.38586
G1 X153.827 Y21.069 E44.39977
G1 X129.677 Y21.069 E45.21722
G1 X129.677 Y20.659 E45.2311
G1 X153.827 Y20.659 E46.04855
G1 X153.827 Y20.248 E46.06246
G1 X129.677 Y20.248 E46.87991
G1 X129.677 Y19.838 E46.89379
G1 X153.827 Y19.838 E47.71124
G1 X153.827 Y19.427 E47.72515
G1 X129.677 Y19.427 E48.5426
G1 X129.677 Y19.017 E48.55648
G1 X154.01 Y19.017 E49.38012
;LAYER_CHANGE
M117 INDICATOR-Layer3
;Z:0.6
;HEIGHT:0.2
G1 Z.6 F7800
;CUSTOM_GCODE
G91
G1 Z100 E0
G4 S180
G1 Z-100 E0
G90
G1 E42.88012 F2400
G92 E0
M73 P4 R51
G1 X51.256 Y160.088 F7800
G1 E6.5 F2400
G1 F3000
G1 X41.523 Y160.088 E6.82945
G1 X41.523 Y160.503 E6.8435
G1 X51.073 Y160.503 E7.16676
G1 X51.073 Y160.918 E7.18081
G1 X41.523 Y160.918 E7.50407
G1 X41.523 Y161.333 E7.51812
G1 X51.073 Y161.333 E7.84138
G1 X51.073 Y161.747 E7.85539
G1 X41.523 Y161.747 E8.17865
G1 X41.523 Y162.162 E8.1927
G1 X51.073 Y162.162 E8.51596
G1 X51.073 Y162.577 E8.53001
G1 X41.523 Y162.577 E8.85327
G1 X41.523 Y162.992 E8.86732
G1 X51.073 Y162.992 E9.19058
G1 X51.073 Y163.407 E9.20463
G1 X41.523 Y163.407 E9.52789
G1 X41.523 Y163.822 E9.54194
G1 X51.073 Y163.822 E9.8652
G1 X51.073 Y164.237 E9.87925
G1 X41.523 Y164.237 E10.20251
G1 X41.523 Y164.652 E10.21656
G1 X51.073 Y164.652 E10.53982
G1 X51.073 Y165.066 E10.55383
G1 X41.523 Y165.066 E10.87709
G1 X41.523 Y165.481 E10.89114
G1 X51.073 Y165.481 E11.2144
G1 X51.073 Y165.896 E11.22845
G1 X41.523 Y165.896 E11.55171
G1 X41.523 Y166.311 E11.56576
G1 X51.073 Y166.311 E11.88902
G1 X51.073 Y166.726 E11.90307
G1 X41.523 Y166.726 E12.22633
G1 X41.523 Y167.141 E12.24038
G1 X51.073 Y167.141 E12.56364
G1 X51.073 Y167.556 E12.57769
G1 X41.523 Y167.556 E12.90095
G1 X41.523 Y167.971 E12.915
G1 X51.073 Y167.971 E13.23826
M73 P5 R51
G1 X51.073 Y168.385 E13.25227
G1 X41.523 Y168.385 E13.57553
G1 X41.523 Y168.8 E13.58958
G1 X51.073 Y168.8 E13.91284
G1 X51.073 Y169.215 E13.92689
G1 X41.523 Y169.215 E14.25015
G1 X41.523 Y169.63 E14.2642
G1 X51.256 Y169.63 E14.59365
G1 E8.09365 F2400
G92 E0
G1 X179.41 Y32.563 F7800
G1 E6.5 F2400
G1 F3000
G1 X129.677 Y32.563 E8.1834
G1 X129.677 Y32.153 E8.19728
G1 X179.227 Y32.153 E9.87449
G1 X179.227 Y31.742 E9.8884
G1 X129.677 Y31.742 E11.56561
G1 X129.677 Y31.332 E11.57949
G1 X179.227 Y31.332 E13.2567
G1 X179.227 Y30.921 E13.27061
G1 X129.677 Y30.921 E14.94782
G1 X129.677 Y30.511 E14.9617
G1 X179.227 Y30.511 E16.63891
G1 X179.227 Y30.1 E16.65282
G1 X129.677 Y30.1 E18.33003
G1 X129.677 Y29.69 E18.34391
G1 X179.227 Y29.69 E20.02112
G1 X179.227 Y29.279 E20.03503
G1 X129.677 Y29.279 E21.71224
G1 X129.677 Y28.869 E21.72612
G1 X179.227 Y28.869 E23.40333
G1 X179.227 Y28.458 E23.41724
G1 X129.677 Y28.458 E25.09445
G1 X129.677 Y28.048 E25.10833
G1 X179.227 Y28.048 E26.78554
G1 X179.227 Y27.637 E26.79945
G1 X129.677 Y27.637 E28.47666
G1 X129.677 Y27.227 E28.49054
G1 X179.227 Y27.227 E30.16775
G1 X179.227 Y26.816 E30.18166
G1 X129.677 Y26.816 E31.85887
G1 X129.677 Y26.406 E31.87275
G1 X179.227 Y26.406 E33.54996
G1 X179.227 Y25.995 E33.56387
G1 X129.677 Y25.995 E35.24108
G1 X129.677 Y25.585 E35.25496
G1 X179.227 Y25.585 E36.93217
G1 X179.227 Y25.174 E36.94608
G1 X129.677 Y25.174 E38.62329
G1 X129.677 Y24.764 E38.63717
G1 X179.227 Y24.764 E40.31438
G1 X179.227 Y24.353 E40.32829
G1 X129.677 Y24.353 E42.0055
G1 X129.677 Y23.943 E42.01938
G1 X179.227 Y23.943 E43.69659
G1 X179.227 Y23.532 E43.7105
G1 X129.677 Y23.532 E45.38771
G1 X129.677 Y23.122 E45.40159
G1 X179.227 Y23.122 E47.0788
G1 X179.227 Y22.711 E47.09271
G1 X129.677 Y22.711 E48.76992
G1 X129.677 Y22.301 E48.7838
G1 X179.227 Y22.301 E50.46101
G1 X179.227 Y21.89 E50.47492
G1 X129.677 Y21.89 E52.15213
G1 X129.677 Y21.48 E52.16601
G1 X179.227 Y21.48 E53.84322
G1 X179.227 Y21.069 E53.85713
G1 X129.677 Y21.069 E55.53434
G1 X129.677 Y20.659 E55.54822
M73 P6 R51
G1 X179.227 Y20.659 E57.22543
G1 X179.227 Y20.248 E57.23934
G1 X129.677 Y20.248 E58.91655
G1 X129.677 Y19.838 E58.93043
G1 X179.227 Y19.838 E60.60764
G1 X179.227 Y19.427 E60.62155
G1 X129.677 Y19.427 E62.29876
G1 X129.677 Y19.017 E62.31264
G1 X179.41 Y19.017 E63.99604
;LAYER_CHANGE
M117 INDICATOR-Layer4
;Z:0.8
;HEIGHT:0.2
G1 Z.8 F7800
G1 E57.49604 F2400
G92 E0
G1 X51.256 Y160.088 F7800
G1 E6.5 F2400
G1 F3000
G1 X41.523 Y160.088 E6.82945
G1 X41.523 Y160.503 E6.8435
G1 X51.073 Y160.503 E7.16676
G1 X51.073 Y160.918 E7.18081
G1 X41.523 Y160.918 E7.50407
G1 X41.523 Y161.333 E7.51812
